(Generated by PartKam Version 0.05)

G20 G90 G40

(profile 1)
G0 Z0.25
T0 M6
G17
M3
G0 X2.441 Y-0.6023
G1 Z-0.1 F30
G1 X2.4488 Y-0.6614 F20
G1 X2.4717 Y-0.7164
G1 X2.508 Y-0.7637
G1 X2.5553 Y-0.7999
G1 X2.6104 Y-0.8227
G1 X2.6694 Y-0.8304
G1 X2.7285 Y-0.8226
G1 X2.7835 Y-0.7997
G1 X2.8308 Y-0.7634
G1 X2.867 Y-0.7161
G1 X2.8898 Y-0.661
G1 X2.8975 Y-0.602
G1 X2.8897 Y-0.5429
G1 X2.8668 Y-0.4879
G1 X2.8305 Y-0.4406
G1 X2.7832 Y-0.4044
G1 X2.7282 Y-0.3816
G1 X2.6691 Y-0.3739
G1 X2.61 Y-0.3817
G1 X2.555 Y-0.4046
G1 X2.5077 Y-0.4409
G1 X2.4715 Y-0.4882
G1 X2.4487 Y-0.5432
G1 X2.441 Y-0.6023
G1 Z-0.2 F30
G1 X2.4488 Y-0.6614 F20
G1 X2.4717 Y-0.7164
G1 X2.508 Y-0.7637
G1 X2.5553 Y-0.7999
G1 X2.6104 Y-0.8227
G1 X2.6694 Y-0.8304
G1 X2.7285 Y-0.8226
G1 X2.7835 Y-0.7997
G1 X2.8308 Y-0.7634
G1 X2.867 Y-0.7161
G1 X2.8898 Y-0.661
G1 X2.8975 Y-0.602
G1 X2.8897 Y-0.5429
G1 X2.8668 Y-0.4879
G1 X2.8305 Y-0.4406
G1 X2.7832 Y-0.4044
G1 X2.7282 Y-0.3816
G1 X2.6691 Y-0.3739
G1 X2.61 Y-0.3817
G1 X2.555 Y-0.4046
G1 X2.5077 Y-0.4409
G1 X2.4715 Y-0.4882
G1 X2.4487 Y-0.5432
G1 X2.441 Y-0.6023
G1 Z-0.3 F30
G1 X2.4488 Y-0.6614 F20
G1 X2.4717 Y-0.7164
G1 X2.508 Y-0.7637
G1 X2.5553 Y-0.7999
G1 X2.6104 Y-0.8227
G1 X2.6694 Y-0.8304
G1 X2.7285 Y-0.8226
G1 X2.7835 Y-0.7997
G1 X2.8308 Y-0.7634
G1 X2.867 Y-0.7161
G1 X2.8898 Y-0.661
G1 X2.8975 Y-0.602
G1 X2.8897 Y-0.5429
G1 X2.8668 Y-0.4879
G1 X2.8305 Y-0.4406
G1 X2.7832 Y-0.4044
G1 X2.7282 Y-0.3816
G1 X2.6691 Y-0.3739
G1 X2.61 Y-0.3817
G1 X2.555 Y-0.4046
G1 X2.5077 Y-0.4409
G1 X2.4715 Y-0.4882
G1 X2.4487 Y-0.5432
G1 X2.441 Y-0.6023
G1 Z-0.4 F30
G1 X2.4488 Y-0.6614 F20
G1 X2.4717 Y-0.7164
G1 X2.508 Y-0.7637
G1 X2.5553 Y-0.7999
G1 X2.6104 Y-0.8227
G1 X2.6694 Y-0.8304
G1 X2.7285 Y-0.8226
G1 X2.7835 Y-0.7997
G1 X2.8308 Y-0.7634
G1 X2.867 Y-0.7161
G1 X2.8898 Y-0.661
G1 X2.8975 Y-0.602
G1 X2.8897 Y-0.5429
G1 X2.8668 Y-0.4879
G1 X2.8305 Y-0.4406
G1 X2.7832 Y-0.4044
G1 X2.7282 Y-0.3816
G1 X2.6691 Y-0.3739
G1 X2.61 Y-0.3817
G1 X2.555 Y-0.4046
G1 X2.5077 Y-0.4409
G1 X2.4715 Y-0.4882
G1 X2.4487 Y-0.5432
G1 X2.441 Y-0.6023
G1 Z-0.5 F30
G1 X2.4488 Y-0.6614 F20
G1 X2.4717 Y-0.7164
G1 X2.508 Y-0.7637
G1 X2.5553 Y-0.7999
G1 X2.6104 Y-0.8227
G1 X2.6694 Y-0.8304
G1 X2.7285 Y-0.8226
G1 X2.7835 Y-0.7997
G1 X2.8308 Y-0.7634
G1 X2.867 Y-0.7161
G1 X2.8898 Y-0.661
G1 X2.8975 Y-0.602
G1 X2.8897 Y-0.5429
G1 X2.8668 Y-0.4879
G1 X2.8305 Y-0.4406
G1 X2.7832 Y-0.4044
G1 X2.7282 Y-0.3816
G1 X2.6691 Y-0.3739
G1 X2.61 Y-0.3817
G1 X2.555 Y-0.4046
G1 X2.5077 Y-0.4409
G1 X2.4715 Y-0.4882
G1 X2.4487 Y-0.5432
G1 X2.441 Y-0.6023
G1 Z-0.6 F30
G1 X2.4488 Y-0.6614 F20
G1 X2.4717 Y-0.7164
G1 X2.508 Y-0.7637
G1 X2.5553 Y-0.7999
G1 X2.6104 Y-0.8227
G1 X2.6694 Y-0.8304
G1 X2.7285 Y-0.8226
G1 X2.7835 Y-0.7997
G1 X2.8308 Y-0.7634
G1 X2.867 Y-0.7161
G1 X2.8898 Y-0.661
G1 X2.8975 Y-0.602
G1 X2.8897 Y-0.5429
G1 X2.8668 Y-0.4879
G1 X2.8305 Y-0.4406
G1 X2.7832 Y-0.4044
G1 X2.7282 Y-0.3816
G1 X2.6691 Y-0.3739
G1 X2.61 Y-0.3817
G1 X2.555 Y-0.4046
G1 X2.5077 Y-0.4409
G1 X2.4715 Y-0.4882
G1 X2.4487 Y-0.5432
G1 X2.441 Y-0.6023
G1 Z-0.7 F30
G1 X2.4488 Y-0.6614 F20
G1 X2.4717 Y-0.7164
G1 X2.508 Y-0.7637
G1 X2.5553 Y-0.7999
G1 X2.6104 Y-0.8227
G1 X2.6694 Y-0.8304
G1 X2.7285 Y-0.8226
G1 X2.7835 Y-0.7997
G1 X2.8308 Y-0.7634
G1 X2.867 Y-0.7161
G1 X2.8898 Y-0.661
G1 X2.8975 Y-0.602
G1 X2.8897 Y-0.5429
G1 X2.8668 Y-0.4879
G1 X2.8305 Y-0.4406
G1 X2.7832 Y-0.4044
G1 X2.7282 Y-0.3816
G1 X2.6691 Y-0.3739
G1 X2.61 Y-0.3817
G1 X2.555 Y-0.4046
G1 X2.5077 Y-0.4409
G1 X2.4715 Y-0.4882
G1 X2.4487 Y-0.5432
G1 X2.441 Y-0.6023
G1 Z-0.8 F30
G1 X2.4488 Y-0.6614 F20
G1 X2.4717 Y-0.7164
G1 X2.508 Y-0.7637
G1 X2.5553 Y-0.7999
G1 X2.6104 Y-0.8227
G1 X2.6694 Y-0.8304
G1 X2.7285 Y-0.8226
G1 X2.7835 Y-0.7997
G1 X2.8308 Y-0.7634
G1 X2.867 Y-0.7161
G1 X2.8898 Y-0.661
G1 X2.8975 Y-0.602
G1 X2.8897 Y-0.5429
G1 X2.8668 Y-0.4879
G1 X2.8305 Y-0.4406
G1 X2.7832 Y-0.4044
G1 X2.7282 Y-0.3816
G1 X2.6691 Y-0.3739
G1 X2.61 Y-0.3817
G1 X2.555 Y-0.4046
G1 X2.5077 Y-0.4409
G1 X2.4715 Y-0.4882
G1 X2.4487 Y-0.5432
G1 X2.441 Y-0.6023
G1 Z-0.85 F30
G1 X2.4488 Y-0.6614 F20
G1 X2.4717 Y-0.7164
G1 X2.508 Y-0.7637
G1 X2.5553 Y-0.7999
G1 X2.6104 Y-0.8227
G1 X2.6694 Y-0.8304
G1 X2.7285 Y-0.8226
G1 X2.7835 Y-0.7997
G1 X2.8308 Y-0.7634
G1 X2.867 Y-0.7161
G1 X2.8898 Y-0.661
G1 X2.8975 Y-0.602
G1 X2.8897 Y-0.5429
G1 X2.8668 Y-0.4879
G1 X2.8305 Y-0.4406
G1 X2.7832 Y-0.4044
G1 X2.7282 Y-0.3816
G1 X2.6691 Y-0.3739
G1 X2.61 Y-0.3817
G1 X2.555 Y-0.4046
G1 X2.5077 Y-0.4409
G1 X2.4715 Y-0.4882
G1 X2.4487 Y-0.5432
G1 X2.441 Y-0.6023

(profile 2)
G0 Z0.25
G0 X13.7204 Y4.5524
G1 Z-0.1 F30
G1 X4.4497 Y4.5451 F20
G3 X4.4456 Y4.545 I0.0001 J-0.125
G1 X4.4291 Y4.5444
G3 X4.4209 Y4.5439 I0.0042 J-0.1249
G1 X4.4045 Y4.5423
G3 X4.3964 Y4.5412 I0.0124 J-0.1244
G1 X4.3802 Y4.5385
G3 X4.3721 Y4.5369 I0.0205 J-0.1233
G1 X4.3561 Y4.5331
G3 X4.3482 Y4.531 I0.0285 J-0.1217
G1 X4.3324 Y4.5262
G3 X4.3247 Y4.5236 I0.0364 J-0.1196
G1 X4.3093 Y4.5178
G3 X4.3017 Y4.5146 I0.0441 J-0.117
G1 X4.2867 Y4.5078
G3 X4.2794 Y4.5042 I0.0517 J-0.1138
G1 X4.2648 Y4.4964
G3 X4.2578 Y4.4923 I0.059 J-0.1102
G1 X4.2438 Y4.4836
G3 X4.237 Y4.4791 I0.0661 J-0.1061
G1 X4.2236 Y4.4694
G3 X4.2171 Y4.4645 I0.0729 J-0.1015
G1 X4.2044 Y4.454
G3 X4.1982 Y4.4486 I0.0794 J-0.0966
G1 X4.1862 Y4.4373
G3 X4.1833 Y4.4345 I0.0855 J-0.0912
G1 X3.8633 Y4.114
G3 X3.8268 Y4.0257 I0.0885 J-0.0883
G3 X3.8634 Y3.9372 I0.125 J0
G1 X4.2535 Y3.5478
G3 X4.2851 Y3.5249 I0.0883 J0.0885
G3 X4.2535 Y3.5019 I0.0569 J-0.1113
G1 X1.138 Y0.3814
G3 X1.1149 Y0.3494 I0.0885 J-0.0883
G3 X1.0919 Y0.381 I-0.1114 J-0.0567
G1 X0.7021 Y0.7708
G3 X0.5252 Y0.7706 I-0.0884 J-0.0884
G1 X0.2042 Y0.4485
G3 X0.1891 Y0.4301 I0.0885 J-0.0882
G1 X0.1583 Y0.3846
G3 X0.1507 Y0.3717 I0.1036 J-0.0699
G1 X0.1256 Y0.3227
G3 X0.1196 Y0.309 I0.1112 J-0.057
G1 X0.1006 Y0.2574
G3 X0.0962 Y0.2431 I0.1173 J-0.0433
G1 X0.0835 Y0.1896
G3 X0.0809 Y0.1749 I0.1216 J-0.029
G1 X0.0747 Y0.1202
G3 X0.0739 Y0.106 I0.1242 J-0.0142
G1 X0.0739 Y0.1053
G1 X0.0742 Y0.0503
G3 X0.0752 Y0.0353 I0.125 J0.0008
G1 X0.0821 Y-0.0192
G3 X0.0849 Y-0.0339 I0.124 J0.0157
G1 X0.0983 Y-0.0873
G3 X0.1028 Y-0.1015 I0.1212 J0.0305
G1 X0.1225 Y-0.1529
G3 X0.1287 Y-0.1665 I0.1167 J0.0447
G1 X0.1544 Y-0.2151
G3 X0.1621 Y-0.2279 I0.1105 J0.0584
G1 X0.1935 Y-0.2731
G3 X0.2027 Y-0.2849 I0.1027 J0.0712
G1 X0.2392 Y-0.326
G3 X0.2444 Y-0.3315 I0.0935 J0.083
G1 X2.7498 Y-2.8339
G3 X2.7733 Y-2.8523 I0.0883 J0.0884
G1 X3.0985 Y-3.0499
G3 X3.1067 Y-3.0544 I0.0649 J0.1068
G1 X3.4457 Y-3.2273
G3 X3.4541 Y-3.2312 I0.0568 J0.1114
G1 X3.8051 Y-3.3784
G3 X3.8138 Y-3.3817 I0.0484 J0.1153
G1 X4.1747 Y-3.5025
G3 X4.1836 Y-3.5051 I0.0397 J0.1185
G1 X4.5525 Y-3.5987
G3 X4.5616 Y-3.6006 I0.0307 J0.1212
G1 X4.9365 Y-3.6666
G3 X4.9457 Y-3.6679 I0.0217 J0.1231
G1 X5.3244 Y-3.7058
G3 X5.3336 Y-3.7064 I0.0125 J0.1244
G1 X5.7141 Y-3.7161
G3 X5.7234 Y-3.716 I0.0032 J0.125
G1 X6.1035 Y-3.6974
G3 X6.1128 Y-3.6966 I-0.0061 J0.1249
G1 X6.4905 Y-3.6498
G3 X6.4997 Y-3.6483 I-0.0154 J0.1241
G1 X6.8729 Y-3.5737
G3 X6.8819 Y-3.5715 I-0.0245 J0.1226
G1 X7.2488 Y-3.4692
G1 X8.2317 Y-3.1927
G1 X9.2272 Y-2.986
G1 X10.2346 Y-2.8491
G1 X11.2491 Y-2.7825
G1 X12.2658 Y-2.7867
G1 X13.2797 Y-2.8615
G1 X14.286 Y-3.0067
G1 X15.2798 Y-3.2214
G1 X16.2562 Y-3.5048
G1 X17.2105 Y-3.8554
G1 X18.1381 Y-4.2714
G1 X18.8401 Y-4.6478
G1 X18.8406 Y-4.6481
G1 X19.0368 Y-4.7521
G1 X22.2934 Y-6.6428
G3 X22.2956 Y-6.644 I0.0628 J0.1081
G1 X22.5142 Y-6.7651
G3 X22.5186 Y-6.7675 I0.0606 J0.1093
G1 X22.7419 Y-6.8797
G3 X22.7465 Y-6.8819 I0.0562 J0.1117
G1 X22.9741 Y-6.9852
G3 X22.9787 Y-6.9871 I0.0516 J0.1138
G1 X23.2103 Y-7.0812
G3 X23.2149 Y-7.083 I0.047 J0.1158
G1 X23.4501 Y-7.1677
G3 X23.4548 Y-7.1693 I0.0424 J0.1176
G1 X23.6932 Y-7.2445
G3 X23.698 Y-7.2459 I0.0376 J0.1192
G1 X23.9392 Y-7.3115
G3 X23.944 Y-7.3128 I0.0328 J0.1206
G1 X24.1876 Y-7.3687
G3 X24.1925 Y-7.3697 I0.028 J0.1218
G1 X24.4382 Y-7.4158
G3 X24.4431 Y-7.4166 I0.0231 J0.1229
G1 X24.6904 Y-7.4528
G3 X24.6954 Y-7.4535 I0.0181 J0.1237
G1 X24.944 Y-7.4798
G3 X24.949 Y-7.4802 I0.0132 J0.1243
G1 X25.1984 Y-7.4965
G3 X25.2066 Y-7.4968 I0.0082 J0.1247
G1 X27.2142 Y-7.4952
G3 X27.3391 Y-7.3702 I-0.0001 J0.125
G3 X27.3024 Y-7.2817 I-0.125 J0
G1 X21.9619 Y-1.9496
G3 X21.8781 Y-1.9132 I-0.0883 J-0.0885
G1 X21.7726 Y-1.9093
G1 X21.6889 Y-1.882
G1 X21.616 Y-1.8328
G1 X21.5594 Y-1.7653
G1 X21.5236 Y-1.6849
G1 X21.5113 Y-1.5977
G1 X21.5234 Y-1.5105
G1 X21.5591 Y-1.43
G1 X21.6156 Y-1.3625
G1 X21.6885 Y-1.3131
G1 X21.7721 Y-1.2856
G1 X21.8776 Y-1.2816
G3 X21.9613 Y-1.245 I-0.0048 J0.1249
G1 X27.5475 Y4.35
G1 X32.2099 Y9.0198
G3 X32.2465 Y9.1082 I-0.0885 J0.0883
G3 X32.0641 Y9.2192 I-0.125 J0
G1 X30.6462 Y8.4869
G1 X29.2016 Y7.815
G1 X27.7304 Y7.2035
G1 X26.2352 Y6.6533
G1 X24.7185 Y6.1655
G1 X23.1829 Y5.7408
G1 X21.6311 Y5.38
G1 X20.0656 Y5.0838
G1 X18.4892 Y4.8526
G1 X16.9047 Y4.6868
G1 X15.3146 Y4.5867
G1 X13.7204 Y4.5524
G1 Z-0.2 F30
G1 X4.4497 Y4.5451 F20
G3 X4.4456 Y4.545 I0.0001 J-0.125
G1 X4.4291 Y4.5444
G3 X4.4209 Y4.5439 I0.0042 J-0.1249
G1 X4.4045 Y4.5423
G3 X4.3964 Y4.5412 I0.0124 J-0.1244
G1 X4.3802 Y4.5385
G3 X4.3721 Y4.5369 I0.0205 J-0.1233
G1 X4.3561 Y4.5331
G3 X4.3482 Y4.531 I0.0285 J-0.1217
G1 X4.3324 Y4.5262
G3 X4.3247 Y4.5236 I0.0364 J-0.1196
G1 X4.3093 Y4.5178
G3 X4.3017 Y4.5146 I0.0441 J-0.117
G1 X4.2867 Y4.5078
G3 X4.2794 Y4.5042 I0.0517 J-0.1138
G1 X4.2648 Y4.4964
G3 X4.2578 Y4.4923 I0.059 J-0.1102
G1 X4.2438 Y4.4836
G3 X4.237 Y4.4791 I0.0661 J-0.1061
G1 X4.2236 Y4.4694
G3 X4.2171 Y4.4645 I0.0729 J-0.1015
G1 X4.2044 Y4.454
G3 X4.1982 Y4.4486 I0.0794 J-0.0966
G1 X4.1862 Y4.4373
G3 X4.1833 Y4.4345 I0.0855 J-0.0912
G1 X3.8633 Y4.114
G3 X3.8268 Y4.0257 I0.0885 J-0.0883
G3 X3.8634 Y3.9372 I0.125 J0
G1 X4.2535 Y3.5478
G3 X4.2851 Y3.5249 I0.0883 J0.0885
G3 X4.2535 Y3.5019 I0.0569 J-0.1113
G1 X1.138 Y0.3814
G3 X1.1149 Y0.3494 I0.0885 J-0.0883
G3 X1.0919 Y0.381 I-0.1114 J-0.0567
G1 X0.7021 Y0.7708
G3 X0.5252 Y0.7706 I-0.0884 J-0.0884
G1 X0.2042 Y0.4485
G3 X0.1891 Y0.4301 I0.0885 J-0.0882
G1 X0.1583 Y0.3846
G3 X0.1507 Y0.3717 I0.1036 J-0.0699
G1 X0.1256 Y0.3227
G3 X0.1196 Y0.309 I0.1112 J-0.057
G1 X0.1006 Y0.2574
G3 X0.0962 Y0.2431 I0.1173 J-0.0433
G1 X0.0835 Y0.1896
G3 X0.0809 Y0.1749 I0.1216 J-0.029
G1 X0.0747 Y0.1202
G3 X0.0739 Y0.106 I0.1242 J-0.0142
G1 X0.0739 Y0.1053
G1 X0.0742 Y0.0503
G3 X0.0752 Y0.0353 I0.125 J0.0008
G1 X0.0821 Y-0.0192
G3 X0.0849 Y-0.0339 I0.124 J0.0157
G1 X0.0983 Y-0.0873
G3 X0.1028 Y-0.1015 I0.1212 J0.0305
G1 X0.1225 Y-0.1529
G3 X0.1287 Y-0.1665 I0.1167 J0.0447
G1 X0.1544 Y-0.2151
G3 X0.1621 Y-0.2279 I0.1105 J0.0584
G1 X0.1935 Y-0.2731
G3 X0.2027 Y-0.2849 I0.1027 J0.0712
G1 X0.2392 Y-0.326
G3 X0.2444 Y-0.3315 I0.0935 J0.083
G1 X2.7498 Y-2.8339
G3 X2.7733 Y-2.8523 I0.0883 J0.0884
G1 X3.0985 Y-3.0499
G3 X3.1067 Y-3.0544 I0.0649 J0.1068
G1 X3.4457 Y-3.2273
G3 X3.4541 Y-3.2312 I0.0568 J0.1114
G1 X3.8051 Y-3.3784
G3 X3.8138 Y-3.3817 I0.0484 J0.1153
G1 X4.1747 Y-3.5025
G3 X4.1836 Y-3.5051 I0.0397 J0.1185
G1 X4.5525 Y-3.5987
G3 X4.5616 Y-3.6006 I0.0307 J0.1212
G1 X4.9365 Y-3.6666
G3 X4.9457 Y-3.6679 I0.0217 J0.1231
G1 X5.3244 Y-3.7058
G3 X5.3336 Y-3.7064 I0.0125 J0.1244
G1 X5.7141 Y-3.7161
G3 X5.7234 Y-3.716 I0.0032 J0.125
G1 X6.1035 Y-3.6974
G3 X6.1128 Y-3.6966 I-0.0061 J0.1249
G1 X6.4905 Y-3.6498
G3 X6.4997 Y-3.6483 I-0.0154 J0.1241
G1 X6.8729 Y-3.5737
G3 X6.8819 Y-3.5715 I-0.0245 J0.1226
G1 X7.2488 Y-3.4692
G1 X8.2317 Y-3.1927
G1 X9.2272 Y-2.986
G1 X10.2346 Y-2.8491
G1 X11.2491 Y-2.7825
G1 X12.2658 Y-2.7867
G1 X13.2797 Y-2.8615
G1 X14.286 Y-3.0067
G1 X15.2798 Y-3.2214
G1 X16.2562 Y-3.5048
G1 X17.2105 Y-3.8554
G1 X18.1381 Y-4.2714
G1 X18.8401 Y-4.6478
G1 X18.8406 Y-4.6481
G1 X19.0368 Y-4.7521
G1 X22.2934 Y-6.6428
G3 X22.2956 Y-6.644 I0.0628 J0.1081
G1 X22.5142 Y-6.7651
G3 X22.5186 Y-6.7675 I0.0606 J0.1093
G1 X22.7419 Y-6.8797
G3 X22.7465 Y-6.8819 I0.0562 J0.1117
G1 X22.9741 Y-6.9852
G3 X22.9787 Y-6.9871 I0.0516 J0.1138
G1 X23.2103 Y-7.0812
G3 X23.2149 Y-7.083 I0.047 J0.1158
G1 X23.4501 Y-7.1677
G3 X23.4548 Y-7.1693 I0.0424 J0.1176
G1 X23.6932 Y-7.2445
G3 X23.698 Y-7.2459 I0.0376 J0.1192
G1 X23.9392 Y-7.3115
G3 X23.944 Y-7.3128 I0.0328 J0.1206
G1 X24.1876 Y-7.3687
G3 X24.1925 Y-7.3697 I0.028 J0.1218
G1 X24.4382 Y-7.4158
G3 X24.4431 Y-7.4166 I0.0231 J0.1229
G1 X24.6904 Y-7.4528
G3 X24.6954 Y-7.4535 I0.0181 J0.1237
G1 X24.944 Y-7.4798
G3 X24.949 Y-7.4802 I0.0132 J0.1243
G1 X25.1984 Y-7.4965
G3 X25.2066 Y-7.4968 I0.0082 J0.1247
G1 X27.2142 Y-7.4952
G3 X27.3391 Y-7.3702 I-0.0001 J0.125
G3 X27.3024 Y-7.2817 I-0.125 J0
G1 X21.9619 Y-1.9496
G3 X21.8781 Y-1.9132 I-0.0883 J-0.0885
G1 X21.7726 Y-1.9093
G1 X21.6889 Y-1.882
G1 X21.616 Y-1.8328
G1 X21.5594 Y-1.7653
G1 X21.5236 Y-1.6849
G1 X21.5113 Y-1.5977
G1 X21.5234 Y-1.5105
G1 X21.5591 Y-1.43
G1 X21.6156 Y-1.3625
G1 X21.6885 Y-1.3131
G1 X21.7721 Y-1.2856
G1 X21.8776 Y-1.2816
G3 X21.9613 Y-1.245 I-0.0048 J0.1249
G1 X27.5475 Y4.35
G1 X32.2099 Y9.0198
G3 X32.2465 Y9.1082 I-0.0885 J0.0883
G3 X32.0641 Y9.2192 I-0.125 J0
G1 X30.6462 Y8.4869
G1 X29.2016 Y7.815
G1 X27.7304 Y7.2035
G1 X26.2352 Y6.6533
G1 X24.7185 Y6.1655
G1 X23.1829 Y5.7408
G1 X21.6311 Y5.38
G1 X20.0656 Y5.0838
G1 X18.4892 Y4.8526
G1 X16.9047 Y4.6868
G1 X15.3146 Y4.5867
G1 X13.7204 Y4.5524
G1 Z-0.3 F30
G1 X4.4497 Y4.5451 F20
G3 X4.4456 Y4.545 I0.0001 J-0.125
G1 X4.4291 Y4.5444
G3 X4.4209 Y4.5439 I0.0042 J-0.1249
G1 X4.4045 Y4.5423
G3 X4.3964 Y4.5412 I0.0124 J-0.1244
G1 X4.3802 Y4.5385
G3 X4.3721 Y4.5369 I0.0205 J-0.1233
G1 X4.3561 Y4.5331
G3 X4.3482 Y4.531 I0.0285 J-0.1217
G1 X4.3324 Y4.5262
G3 X4.3247 Y4.5236 I0.0364 J-0.1196
G1 X4.3093 Y4.5178
G3 X4.3017 Y4.5146 I0.0441 J-0.117
G1 X4.2867 Y4.5078
G3 X4.2794 Y4.5042 I0.0517 J-0.1138
G1 X4.2648 Y4.4964
G3 X4.2578 Y4.4923 I0.059 J-0.1102
G1 X4.2438 Y4.4836
G3 X4.237 Y4.4791 I0.0661 J-0.1061
G1 X4.2236 Y4.4694
G3 X4.2171 Y4.4645 I0.0729 J-0.1015
G1 X4.2044 Y4.454
G3 X4.1982 Y4.4486 I0.0794 J-0.0966
G1 X4.1862 Y4.4373
G3 X4.1833 Y4.4345 I0.0855 J-0.0912
G1 X3.8633 Y4.114
G3 X3.8268 Y4.0257 I0.0885 J-0.0883
G3 X3.8634 Y3.9372 I0.125 J0
G1 X4.2535 Y3.5478
G3 X4.2851 Y3.5249 I0.0883 J0.0885
G3 X4.2535 Y3.5019 I0.0569 J-0.1113
G1 X1.138 Y0.3814
G3 X1.1149 Y0.3494 I0.0885 J-0.0883
G3 X1.0919 Y0.381 I-0.1114 J-0.0567
G1 X0.7021 Y0.7708
G3 X0.5252 Y0.7706 I-0.0884 J-0.0884
G1 X0.2042 Y0.4485
G3 X0.1891 Y0.4301 I0.0885 J-0.0882
G1 X0.1583 Y0.3846
G3 X0.1507 Y0.3717 I0.1036 J-0.0699
G1 X0.1256 Y0.3227
G3 X0.1196 Y0.309 I0.1112 J-0.057
G1 X0.1006 Y0.2574
G3 X0.0962 Y0.2431 I0.1173 J-0.0433
G1 X0.0835 Y0.1896
G3 X0.0809 Y0.1749 I0.1216 J-0.029
G1 X0.0747 Y0.1202
G3 X0.0739 Y0.106 I0.1242 J-0.0142
G1 X0.0739 Y0.1053
G1 X0.0742 Y0.0503
G3 X0.0752 Y0.0353 I0.125 J0.0008
G1 X0.0821 Y-0.0192
G3 X0.0849 Y-0.0339 I0.124 J0.0157
G1 X0.0983 Y-0.0873
G3 X0.1028 Y-0.1015 I0.1212 J0.0305
G1 X0.1225 Y-0.1529
G3 X0.1287 Y-0.1665 I0.1167 J0.0447
G1 X0.1544 Y-0.2151
G3 X0.1621 Y-0.2279 I0.1105 J0.0584
G1 X0.1935 Y-0.2731
G3 X0.2027 Y-0.2849 I0.1027 J0.0712
G1 X0.2392 Y-0.326
G3 X0.2444 Y-0.3315 I0.0935 J0.083
G1 X2.7498 Y-2.8339
G3 X2.7733 Y-2.8523 I0.0883 J0.0884
G1 X3.0985 Y-3.0499
G3 X3.1067 Y-3.0544 I0.0649 J0.1068
G1 X3.4457 Y-3.2273
G3 X3.4541 Y-3.2312 I0.0568 J0.1114
G1 X3.8051 Y-3.3784
G3 X3.8138 Y-3.3817 I0.0484 J0.1153
G1 X4.1747 Y-3.5025
G3 X4.1836 Y-3.5051 I0.0397 J0.1185
G1 X4.5525 Y-3.5987
G3 X4.5616 Y-3.6006 I0.0307 J0.1212
G1 X4.9365 Y-3.6666
G3 X4.9457 Y-3.6679 I0.0217 J0.1231
G1 X5.3244 Y-3.7058
G3 X5.3336 Y-3.7064 I0.0125 J0.1244
G1 X5.7141 Y-3.7161
G3 X5.7234 Y-3.716 I0.0032 J0.125
G1 X6.1035 Y-3.6974
G3 X6.1128 Y-3.6966 I-0.0061 J0.1249
G1 X6.4905 Y-3.6498
G3 X6.4997 Y-3.6483 I-0.0154 J0.1241
G1 X6.8729 Y-3.5737
G3 X6.8819 Y-3.5715 I-0.0245 J0.1226
G1 X7.2488 Y-3.4692
G1 X8.2317 Y-3.1927
G1 X9.2272 Y-2.986
G1 X10.2346 Y-2.8491
G1 X11.2491 Y-2.7825
G1 X12.2658 Y-2.7867
G1 X13.2797 Y-2.8615
G1 X14.286 Y-3.0067
G1 X15.2798 Y-3.2214
G1 X16.2562 Y-3.5048
G1 X17.2105 Y-3.8554
G1 X18.1381 Y-4.2714
G1 X18.8401 Y-4.6478
G1 X18.8406 Y-4.6481
G1 X19.0368 Y-4.7521
G1 X22.2934 Y-6.6428
G3 X22.2956 Y-6.644 I0.0628 J0.1081
G1 X22.5142 Y-6.7651
G3 X22.5186 Y-6.7675 I0.0606 J0.1093
G1 X22.7419 Y-6.8797
G3 X22.7465 Y-6.8819 I0.0562 J0.1117
G1 X22.9741 Y-6.9852
G3 X22.9787 Y-6.9871 I0.0516 J0.1138
G1 X23.2103 Y-7.0812
G3 X23.2149 Y-7.083 I0.047 J0.1158
G1 X23.4501 Y-7.1677
G3 X23.4548 Y-7.1693 I0.0424 J0.1176
G1 X23.6932 Y-7.2445
G3 X23.698 Y-7.2459 I0.0376 J0.1192
G1 X23.9392 Y-7.3115
G3 X23.944 Y-7.3128 I0.0328 J0.1206
G1 X24.1876 Y-7.3687
G3 X24.1925 Y-7.3697 I0.028 J0.1218
G1 X24.4382 Y-7.4158
G3 X24.4431 Y-7.4166 I0.0231 J0.1229
G1 X24.6904 Y-7.4528
G3 X24.6954 Y-7.4535 I0.0181 J0.1237
G1 X24.944 Y-7.4798
G3 X24.949 Y-7.4802 I0.0132 J0.1243
G1 X25.1984 Y-7.4965
G3 X25.2066 Y-7.4968 I0.0082 J0.1247
G1 X27.2142 Y-7.4952
G3 X27.3391 Y-7.3702 I-0.0001 J0.125
G3 X27.3024 Y-7.2817 I-0.125 J0
G1 X21.9619 Y-1.9496
G3 X21.8781 Y-1.9132 I-0.0883 J-0.0885
G1 X21.7726 Y-1.9093
G1 X21.6889 Y-1.882
G1 X21.616 Y-1.8328
G1 X21.5594 Y-1.7653
G1 X21.5236 Y-1.6849
G1 X21.5113 Y-1.5977
G1 X21.5234 Y-1.5105
G1 X21.5591 Y-1.43
G1 X21.6156 Y-1.3625
G1 X21.6885 Y-1.3131
G1 X21.7721 Y-1.2856
G1 X21.8776 Y-1.2816
G3 X21.9613 Y-1.245 I-0.0048 J0.1249
G1 X27.5475 Y4.35
G1 X32.2099 Y9.0198
G3 X32.2465 Y9.1082 I-0.0885 J0.0883
G3 X32.0641 Y9.2192 I-0.125 J0
G1 X30.6462 Y8.4869
G1 X29.2016 Y7.815
G1 X27.7304 Y7.2035
G1 X26.2352 Y6.6533
G1 X24.7185 Y6.1655
G1 X23.1829 Y5.7408
G1 X21.6311 Y5.38
G1 X20.0656 Y5.0838
G1 X18.4892 Y4.8526
G1 X16.9047 Y4.6868
G1 X15.3146 Y4.5867
G1 X13.7204 Y4.5524
G1 Z-0.4 F30
G1 X4.4497 Y4.5451 F20
G3 X4.4456 Y4.545 I0.0001 J-0.125
G1 X4.4291 Y4.5444
G3 X4.4209 Y4.5439 I0.0042 J-0.1249
G1 X4.4045 Y4.5423
G3 X4.3964 Y4.5412 I0.0124 J-0.1244
G1 X4.3802 Y4.5385
G3 X4.3721 Y4.5369 I0.0205 J-0.1233
G1 X4.3561 Y4.5331
G3 X4.3482 Y4.531 I0.0285 J-0.1217
G1 X4.3324 Y4.5262
G3 X4.3247 Y4.5236 I0.0364 J-0.1196
G1 X4.3093 Y4.5178
G3 X4.3017 Y4.5146 I0.0441 J-0.117
G1 X4.2867 Y4.5078
G3 X4.2794 Y4.5042 I0.0517 J-0.1138
G1 X4.2648 Y4.4964
G3 X4.2578 Y4.4923 I0.059 J-0.1102
G1 X4.2438 Y4.4836
G3 X4.237 Y4.4791 I0.0661 J-0.1061
G1 X4.2236 Y4.4694
G3 X4.2171 Y4.4645 I0.0729 J-0.1015
G1 X4.2044 Y4.454
G3 X4.1982 Y4.4486 I0.0794 J-0.0966
G1 X4.1862 Y4.4373
G3 X4.1833 Y4.4345 I0.0855 J-0.0912
G1 X3.8633 Y4.114
G3 X3.8268 Y4.0257 I0.0885 J-0.0883
G3 X3.8634 Y3.9372 I0.125 J0
G1 X4.2535 Y3.5478
G3 X4.2851 Y3.5249 I0.0883 J0.0885
G3 X4.2535 Y3.5019 I0.0569 J-0.1113
G1 X1.138 Y0.3814
G3 X1.1149 Y0.3494 I0.0885 J-0.0883
G3 X1.0919 Y0.381 I-0.1114 J-0.0567
G1 X0.7021 Y0.7708
G3 X0.5252 Y0.7706 I-0.0884 J-0.0884
G1 X0.2042 Y0.4485
G3 X0.1891 Y0.4301 I0.0885 J-0.0882
G1 X0.1583 Y0.3846
G3 X0.1507 Y0.3717 I0.1036 J-0.0699
G1 X0.1256 Y0.3227
G3 X0.1196 Y0.309 I0.1112 J-0.057
G1 X0.1006 Y0.2574
G3 X0.0962 Y0.2431 I0.1173 J-0.0433
G1 X0.0835 Y0.1896
G3 X0.0809 Y0.1749 I0.1216 J-0.029
G1 X0.0747 Y0.1202
G3 X0.0739 Y0.106 I0.1242 J-0.0142
G1 X0.0739 Y0.1053
G1 X0.0742 Y0.0503
G3 X0.0752 Y0.0353 I0.125 J0.0008
G1 X0.0821 Y-0.0192
G3 X0.0849 Y-0.0339 I0.124 J0.0157
G1 X0.0983 Y-0.0873
G3 X0.1028 Y-0.1015 I0.1212 J0.0305
G1 X0.1225 Y-0.1529
G3 X0.1287 Y-0.1665 I0.1167 J0.0447
G1 X0.1544 Y-0.2151
G3 X0.1621 Y-0.2279 I0.1105 J0.0584
G1 X0.1935 Y-0.2731
G3 X0.2027 Y-0.2849 I0.1027 J0.0712
G1 X0.2392 Y-0.326
G3 X0.2444 Y-0.3315 I0.0935 J0.083
G1 X2.7498 Y-2.8339
G3 X2.7733 Y-2.8523 I0.0883 J0.0884
G1 X3.0985 Y-3.0499
G3 X3.1067 Y-3.0544 I0.0649 J0.1068
G1 X3.4457 Y-3.2273
G3 X3.4541 Y-3.2312 I0.0568 J0.1114
G1 X3.8051 Y-3.3784
G3 X3.8138 Y-3.3817 I0.0484 J0.1153
G1 X4.1747 Y-3.5025
G3 X4.1836 Y-3.5051 I0.0397 J0.1185
G1 X4.5525 Y-3.5987
G3 X4.5616 Y-3.6006 I0.0307 J0.1212
G1 X4.9365 Y-3.6666
G3 X4.9457 Y-3.6679 I0.0217 J0.1231
G1 X5.3244 Y-3.7058
G3 X5.3336 Y-3.7064 I0.0125 J0.1244
G1 X5.7141 Y-3.7161
G3 X5.7234 Y-3.716 I0.0032 J0.125
G1 X6.1035 Y-3.6974
G3 X6.1128 Y-3.6966 I-0.0061 J0.1249
G1 X6.4905 Y-3.6498
G3 X6.4997 Y-3.6483 I-0.0154 J0.1241
G1 X6.8729 Y-3.5737
G3 X6.8819 Y-3.5715 I-0.0245 J0.1226
G1 X7.2488 Y-3.4692
G1 X8.2317 Y-3.1927
G1 X9.2272 Y-2.986
G1 X10.2346 Y-2.8491
G1 X11.2491 Y-2.7825
G1 X12.2658 Y-2.7867
G1 X13.2797 Y-2.8615
G1 X14.286 Y-3.0067
G1 X15.2798 Y-3.2214
G1 X16.2562 Y-3.5048
G1 X17.2105 Y-3.8554
G1 X18.1381 Y-4.2714
G1 X18.8401 Y-4.6478
G1 X18.8406 Y-4.6481
G1 X19.0368 Y-4.7521
G1 X22.2934 Y-6.6428
G3 X22.2956 Y-6.644 I0.0628 J0.1081
G1 X22.5142 Y-6.7651
G3 X22.5186 Y-6.7675 I0.0606 J0.1093
G1 X22.7419 Y-6.8797
G3 X22.7465 Y-6.8819 I0.0562 J0.1117
G1 X22.9741 Y-6.9852
G3 X22.9787 Y-6.9871 I0.0516 J0.1138
G1 X23.2103 Y-7.0812
G3 X23.2149 Y-7.083 I0.047 J0.1158
G1 X23.4501 Y-7.1677
G3 X23.4548 Y-7.1693 I0.0424 J0.1176
G1 X23.6932 Y-7.2445
G3 X23.698 Y-7.2459 I0.0376 J0.1192
G1 X23.9392 Y-7.3115
G3 X23.944 Y-7.3128 I0.0328 J0.1206
G1 X24.1876 Y-7.3687
G3 X24.1925 Y-7.3697 I0.028 J0.1218
G1 X24.4382 Y-7.4158
G3 X24.4431 Y-7.4166 I0.0231 J0.1229
G1 X24.6904 Y-7.4528
G3 X24.6954 Y-7.4535 I0.0181 J0.1237
G1 X24.944 Y-7.4798
G3 X24.949 Y-7.4802 I0.0132 J0.1243
G1 X25.1984 Y-7.4965
G3 X25.2066 Y-7.4968 I0.0082 J0.1247
G1 X27.2142 Y-7.4952
G3 X27.3391 Y-7.3702 I-0.0001 J0.125
G3 X27.3024 Y-7.2817 I-0.125 J0
G1 X21.9619 Y-1.9496
G3 X21.8781 Y-1.9132 I-0.0883 J-0.0885
G1 X21.7726 Y-1.9093
G1 X21.6889 Y-1.882
G1 X21.616 Y-1.8328
G1 X21.5594 Y-1.7653
G1 X21.5236 Y-1.6849
G1 X21.5113 Y-1.5977
G1 X21.5234 Y-1.5105
G1 X21.5591 Y-1.43
G1 X21.6156 Y-1.3625
G1 X21.6885 Y-1.3131
G1 X21.7721 Y-1.2856
G1 X21.8776 Y-1.2816
G3 X21.9613 Y-1.245 I-0.0048 J0.1249
G1 X27.5475 Y4.35
G1 X32.2099 Y9.0198
G3 X32.2465 Y9.1082 I-0.0885 J0.0883
G3 X32.0641 Y9.2192 I-0.125 J0
G1 X30.6462 Y8.4869
G1 X29.2016 Y7.815
G1 X27.7304 Y7.2035
G1 X26.2352 Y6.6533
G1 X24.7185 Y6.1655
G1 X23.1829 Y5.7408
G1 X21.6311 Y5.38
G1 X20.0656 Y5.0838
G1 X18.4892 Y4.8526
G1 X16.9047 Y4.6868
G1 X15.3146 Y4.5867
G1 X13.7204 Y4.5524
G1 Z-0.5 F30
G1 X4.4497 Y4.5451 F20
G3 X4.4456 Y4.545 I0.0001 J-0.125
G1 X4.4291 Y4.5444
G3 X4.4209 Y4.5439 I0.0042 J-0.1249
G1 X4.4045 Y4.5423
G3 X4.3964 Y4.5412 I0.0124 J-0.1244
G1 X4.3802 Y4.5385
G3 X4.3721 Y4.5369 I0.0205 J-0.1233
G1 X4.3561 Y4.5331
G3 X4.3482 Y4.531 I0.0285 J-0.1217
G1 X4.3324 Y4.5262
G3 X4.3247 Y4.5236 I0.0364 J-0.1196
G1 X4.3093 Y4.5178
G3 X4.3017 Y4.5146 I0.0441 J-0.117
G1 X4.2867 Y4.5078
G3 X4.2794 Y4.5042 I0.0517 J-0.1138
G1 X4.2648 Y4.4964
G3 X4.2578 Y4.4923 I0.059 J-0.1102
G1 X4.2438 Y4.4836
G3 X4.237 Y4.4791 I0.0661 J-0.1061
G1 X4.2236 Y4.4694
G3 X4.2171 Y4.4645 I0.0729 J-0.1015
G1 X4.2044 Y4.454
G3 X4.1982 Y4.4486 I0.0794 J-0.0966
G1 X4.1862 Y4.4373
G3 X4.1833 Y4.4345 I0.0855 J-0.0912
G1 X3.8633 Y4.114
G3 X3.8268 Y4.0257 I0.0885 J-0.0883
G3 X3.8634 Y3.9372 I0.125 J0
G1 X4.2535 Y3.5478
G3 X4.2851 Y3.5249 I0.0883 J0.0885
G3 X4.2535 Y3.5019 I0.0569 J-0.1113
G1 X1.138 Y0.3814
G3 X1.1149 Y0.3494 I0.0885 J-0.0883
G3 X1.0919 Y0.381 I-0.1114 J-0.0567
G1 X0.7021 Y0.7708
G3 X0.5252 Y0.7706 I-0.0884 J-0.0884
G1 X0.2042 Y0.4485
G3 X0.1891 Y0.4301 I0.0885 J-0.0882
G1 X0.1583 Y0.3846
G3 X0.1507 Y0.3717 I0.1036 J-0.0699
G1 X0.1256 Y0.3227
G3 X0.1196 Y0.309 I0.1112 J-0.057
G1 X0.1006 Y0.2574
G3 X0.0962 Y0.2431 I0.1173 J-0.0433
G1 X0.0835 Y0.1896
G3 X0.0809 Y0.1749 I0.1216 J-0.029
G1 X0.0747 Y0.1202
G3 X0.0739 Y0.106 I0.1242 J-0.0142
G1 X0.0739 Y0.1053
G1 X0.0742 Y0.0503
G3 X0.0752 Y0.0353 I0.125 J0.0008
G1 X0.0821 Y-0.0192
G3 X0.0849 Y-0.0339 I0.124 J0.0157
G1 X0.0983 Y-0.0873
G3 X0.1028 Y-0.1015 I0.1212 J0.0305
G1 X0.1225 Y-0.1529
G3 X0.1287 Y-0.1665 I0.1167 J0.0447
G1 X0.1544 Y-0.2151
G3 X0.1621 Y-0.2279 I0.1105 J0.0584
G1 X0.1935 Y-0.2731
G3 X0.2027 Y-0.2849 I0.1027 J0.0712
G1 X0.2392 Y-0.326
G3 X0.2444 Y-0.3315 I0.0935 J0.083
G1 X2.7498 Y-2.8339
G3 X2.7733 Y-2.8523 I0.0883 J0.0884
G1 X3.0985 Y-3.0499
G3 X3.1067 Y-3.0544 I0.0649 J0.1068
G1 X3.4457 Y-3.2273
G3 X3.4541 Y-3.2312 I0.0568 J0.1114
G1 X3.8051 Y-3.3784
G3 X3.8138 Y-3.3817 I0.0484 J0.1153
G1 X4.1747 Y-3.5025
G3 X4.1836 Y-3.5051 I0.0397 J0.1185
G1 X4.5525 Y-3.5987
G3 X4.5616 Y-3.6006 I0.0307 J0.1212
G1 X4.9365 Y-3.6666
G3 X4.9457 Y-3.6679 I0.0217 J0.1231
G1 X5.3244 Y-3.7058
G3 X5.3336 Y-3.7064 I0.0125 J0.1244
G1 X5.7141 Y-3.7161
G3 X5.7234 Y-3.716 I0.0032 J0.125
G1 X6.1035 Y-3.6974
G3 X6.1128 Y-3.6966 I-0.0061 J0.1249
G1 X6.4905 Y-3.6498
G3 X6.4997 Y-3.6483 I-0.0154 J0.1241
G1 X6.8729 Y-3.5737
G3 X6.8819 Y-3.5715 I-0.0245 J0.1226
G1 X7.2488 Y-3.4692
G1 X8.2317 Y-3.1927
G1 X9.2272 Y-2.986
G1 X10.2346 Y-2.8491
G1 X11.2491 Y-2.7825
G1 X12.2658 Y-2.7867
G1 X13.2797 Y-2.8615
G1 X14.286 Y-3.0067
G1 X15.2798 Y-3.2214
G1 X16.2562 Y-3.5048
G1 X17.2105 Y-3.8554
G1 X18.1381 Y-4.2714
G1 X18.8401 Y-4.6478
G1 X18.8406 Y-4.6481
G1 X19.0368 Y-4.7521
G1 X22.2934 Y-6.6428
G3 X22.2956 Y-6.644 I0.0628 J0.1081
G1 X22.5142 Y-6.7651
G3 X22.5186 Y-6.7675 I0.0606 J0.1093
G1 X22.7419 Y-6.8797
G3 X22.7465 Y-6.8819 I0.0562 J0.1117
G1 X22.9741 Y-6.9852
G3 X22.9787 Y-6.9871 I0.0516 J0.1138
G1 X23.2103 Y-7.0812
G3 X23.2149 Y-7.083 I0.047 J0.1158
G1 X23.4501 Y-7.1677
G3 X23.4548 Y-7.1693 I0.0424 J0.1176
G1 X23.6932 Y-7.2445
G3 X23.698 Y-7.2459 I0.0376 J0.1192
G1 X23.9392 Y-7.3115
G3 X23.944 Y-7.3128 I0.0328 J0.1206
G1 X24.1876 Y-7.3687
G3 X24.1925 Y-7.3697 I0.028 J0.1218
G1 X24.4382 Y-7.4158
G3 X24.4431 Y-7.4166 I0.0231 J0.1229
G1 X24.6904 Y-7.4528
G3 X24.6954 Y-7.4535 I0.0181 J0.1237
G1 X24.944 Y-7.4798
G3 X24.949 Y-7.4802 I0.0132 J0.1243
G1 X25.1984 Y-7.4965
G3 X25.2066 Y-7.4968 I0.0082 J0.1247
G1 X27.2142 Y-7.4952
G3 X27.3391 Y-7.3702 I-0.0001 J0.125
G3 X27.3024 Y-7.2817 I-0.125 J0
G1 X21.9619 Y-1.9496
G3 X21.8781 Y-1.9132 I-0.0883 J-0.0885
G1 X21.7726 Y-1.9093
G1 X21.6889 Y-1.882
G1 X21.616 Y-1.8328
G1 X21.5594 Y-1.7653
G1 X21.5236 Y-1.6849
G1 X21.5113 Y-1.5977
G1 X21.5234 Y-1.5105
G1 X21.5591 Y-1.43
G1 X21.6156 Y-1.3625
G1 X21.6885 Y-1.3131
G1 X21.7721 Y-1.2856
G1 X21.8776 Y-1.2816
G3 X21.9613 Y-1.245 I-0.0048 J0.1249
G1 X27.5475 Y4.35
G1 X32.2099 Y9.0198
G3 X32.2465 Y9.1082 I-0.0885 J0.0883
G3 X32.0641 Y9.2192 I-0.125 J0
G1 X30.6462 Y8.4869
G1 X29.2016 Y7.815
G1 X27.7304 Y7.2035
G1 X26.2352 Y6.6533
G1 X24.7185 Y6.1655
G1 X23.1829 Y5.7408
G1 X21.6311 Y5.38
G1 X20.0656 Y5.0838
G1 X18.4892 Y4.8526
G1 X16.9047 Y4.6868
G1 X15.3146 Y4.5867
G1 X13.7204 Y4.5524
G1 Z-0.6 F30
G1 X4.4497 Y4.5451 F20
G3 X4.4456 Y4.545 I0.0001 J-0.125
G1 X4.4291 Y4.5444
G3 X4.4209 Y4.5439 I0.0042 J-0.1249
G1 X4.4045 Y4.5423
G3 X4.3964 Y4.5412 I0.0124 J-0.1244
G1 X4.3802 Y4.5385
G3 X4.3721 Y4.5369 I0.0205 J-0.1233
G1 X4.3561 Y4.5331
G3 X4.3482 Y4.531 I0.0285 J-0.1217
G1 X4.3324 Y4.5262
G3 X4.3247 Y4.5236 I0.0364 J-0.1196
G1 X4.3093 Y4.5178
G3 X4.3017 Y4.5146 I0.0441 J-0.117
G1 X4.2867 Y4.5078
G3 X4.2794 Y4.5042 I0.0517 J-0.1138
G1 X4.2648 Y4.4964
G3 X4.2578 Y4.4923 I0.059 J-0.1102
G1 X4.2438 Y4.4836
G3 X4.237 Y4.4791 I0.0661 J-0.1061
G1 X4.2236 Y4.4694
G3 X4.2171 Y4.4645 I0.0729 J-0.1015
G1 X4.2044 Y4.454
G3 X4.1982 Y4.4486 I0.0794 J-0.0966
G1 X4.1862 Y4.4373
G3 X4.1833 Y4.4345 I0.0855 J-0.0912
G1 X3.8633 Y4.114
G3 X3.8268 Y4.0257 I0.0885 J-0.0883
G3 X3.8634 Y3.9372 I0.125 J0
G1 X4.2535 Y3.5478
G3 X4.2851 Y3.5249 I0.0883 J0.0885
G3 X4.2535 Y3.5019 I0.0569 J-0.1113
G1 X1.138 Y0.3814
G3 X1.1149 Y0.3494 I0.0885 J-0.0883
G3 X1.0919 Y0.381 I-0.1114 J-0.0567
G1 X0.7021 Y0.7708
G3 X0.5252 Y0.7706 I-0.0884 J-0.0884
G1 X0.2042 Y0.4485
G3 X0.1891 Y0.4301 I0.0885 J-0.0882
G1 X0.1583 Y0.3846
G3 X0.1507 Y0.3717 I0.1036 J-0.0699
G1 X0.1256 Y0.3227
G3 X0.1196 Y0.309 I0.1112 J-0.057
G1 X0.1006 Y0.2574
G3 X0.0962 Y0.2431 I0.1173 J-0.0433
G1 X0.0835 Y0.1896
G3 X0.0809 Y0.1749 I0.1216 J-0.029
G1 X0.0747 Y0.1202
G3 X0.0739 Y0.106 I0.1242 J-0.0142
G1 X0.0739 Y0.1053
G1 X0.0742 Y0.0503
G3 X0.0752 Y0.0353 I0.125 J0.0008
G1 X0.0821 Y-0.0192
G3 X0.0849 Y-0.0339 I0.124 J0.0157
G1 X0.0983 Y-0.0873
G3 X0.1028 Y-0.1015 I0.1212 J0.0305
G1 X0.1225 Y-0.1529
G3 X0.1287 Y-0.1665 I0.1167 J0.0447
G1 X0.1544 Y-0.2151
G3 X0.1621 Y-0.2279 I0.1105 J0.0584
G1 X0.1935 Y-0.2731
G3 X0.2027 Y-0.2849 I0.1027 J0.0712
G1 X0.2392 Y-0.326
G3 X0.2444 Y-0.3315 I0.0935 J0.083
G1 X2.7498 Y-2.8339
G3 X2.7733 Y-2.8523 I0.0883 J0.0884
G1 X3.0985 Y-3.0499
G3 X3.1067 Y-3.0544 I0.0649 J0.1068
G1 X3.4457 Y-3.2273
G3 X3.4541 Y-3.2312 I0.0568 J0.1114
G1 X3.8051 Y-3.3784
G3 X3.8138 Y-3.3817 I0.0484 J0.1153
G1 X4.1747 Y-3.5025
G3 X4.1836 Y-3.5051 I0.0397 J0.1185
G1 X4.5525 Y-3.5987
G3 X4.5616 Y-3.6006 I0.0307 J0.1212
G1 X4.9365 Y-3.6666
G3 X4.9457 Y-3.6679 I0.0217 J0.1231
G1 X5.3244 Y-3.7058
G3 X5.3336 Y-3.7064 I0.0125 J0.1244
G1 X5.7141 Y-3.7161
G3 X5.7234 Y-3.716 I0.0032 J0.125
G1 X6.1035 Y-3.6974
G3 X6.1128 Y-3.6966 I-0.0061 J0.1249
G1 X6.4905 Y-3.6498
G3 X6.4997 Y-3.6483 I-0.0154 J0.1241
G1 X6.8729 Y-3.5737
G3 X6.8819 Y-3.5715 I-0.0245 J0.1226
G1 X7.2488 Y-3.4692
G1 X8.2317 Y-3.1927
G1 X9.2272 Y-2.986
G1 X10.2346 Y-2.8491
G1 X11.2491 Y-2.7825
G1 X12.2658 Y-2.7867
G1 X13.2797 Y-2.8615
G1 X14.286 Y-3.0067
G1 X15.2798 Y-3.2214
G1 X16.2562 Y-3.5048
G1 X17.2105 Y-3.8554
G1 X18.1381 Y-4.2714
G1 X18.8401 Y-4.6478
G1 X18.8406 Y-4.6481
G1 X19.0368 Y-4.7521
G1 X22.2934 Y-6.6428
G3 X22.2956 Y-6.644 I0.0628 J0.1081
G1 X22.5142 Y-6.7651
G3 X22.5186 Y-6.7675 I0.0606 J0.1093
G1 X22.7419 Y-6.8797
G3 X22.7465 Y-6.8819 I0.0562 J0.1117
G1 X22.9741 Y-6.9852
G3 X22.9787 Y-6.9871 I0.0516 J0.1138
G1 X23.2103 Y-7.0812
G3 X23.2149 Y-7.083 I0.047 J0.1158
G1 X23.4501 Y-7.1677
G3 X23.4548 Y-7.1693 I0.0424 J0.1176
G1 X23.6932 Y-7.2445
G3 X23.698 Y-7.2459 I0.0376 J0.1192
G1 X23.9392 Y-7.3115
G3 X23.944 Y-7.3128 I0.0328 J0.1206
G1 X24.1876 Y-7.3687
G3 X24.1925 Y-7.3697 I0.028 J0.1218
G1 X24.4382 Y-7.4158
G3 X24.4431 Y-7.4166 I0.0231 J0.1229
G1 X24.6904 Y-7.4528
G3 X24.6954 Y-7.4535 I0.0181 J0.1237
G1 X24.944 Y-7.4798
G3 X24.949 Y-7.4802 I0.0132 J0.1243
G1 X25.1984 Y-7.4965
G3 X25.2066 Y-7.4968 I0.0082 J0.1247
G1 X27.2142 Y-7.4952
G3 X27.3391 Y-7.3702 I-0.0001 J0.125
G3 X27.3024 Y-7.2817 I-0.125 J0
G1 X21.9619 Y-1.9496
G3 X21.8781 Y-1.9132 I-0.0883 J-0.0885
G1 X21.7726 Y-1.9093
G1 X21.6889 Y-1.882
G1 X21.616 Y-1.8328
G1 X21.5594 Y-1.7653
G1 X21.5236 Y-1.6849
G1 X21.5113 Y-1.5977
G1 X21.5234 Y-1.5105
G1 X21.5591 Y-1.43
G1 X21.6156 Y-1.3625
G1 X21.6885 Y-1.3131
G1 X21.7721 Y-1.2856
G1 X21.8776 Y-1.2816
G3 X21.9613 Y-1.245 I-0.0048 J0.1249
G1 X27.5475 Y4.35
G1 X32.2099 Y9.0198
G3 X32.2465 Y9.1082 I-0.0885 J0.0883
G3 X32.0641 Y9.2192 I-0.125 J0
G1 X30.6462 Y8.4869
G1 X29.2016 Y7.815
G1 X27.7304 Y7.2035
G1 X26.2352 Y6.6533
G1 X24.7185 Y6.1655
G1 X23.1829 Y5.7408
G1 X21.6311 Y5.38
G1 X20.0656 Y5.0838
G1 X18.4892 Y4.8526
G1 X16.9047 Y4.6868
G1 X15.3146 Y4.5867
G1 X13.7204 Y4.5524
G1 Z-0.7 F30
G1 X4.4497 Y4.5451 F20
G3 X4.4456 Y4.545 I0.0001 J-0.125
G1 X4.4291 Y4.5444
G3 X4.4209 Y4.5439 I0.0042 J-0.1249
G1 X4.4045 Y4.5423
G3 X4.3964 Y4.5412 I0.0124 J-0.1244
G1 X4.3802 Y4.5385
G3 X4.3721 Y4.5369 I0.0205 J-0.1233
G1 X4.3561 Y4.5331
G3 X4.3482 Y4.531 I0.0285 J-0.1217
G1 X4.3324 Y4.5262
G3 X4.3247 Y4.5236 I0.0364 J-0.1196
G1 X4.3093 Y4.5178
G3 X4.3017 Y4.5146 I0.0441 J-0.117
G1 X4.2867 Y4.5078
G3 X4.2794 Y4.5042 I0.0517 J-0.1138
G1 X4.2648 Y4.4964
G3 X4.2578 Y4.4923 I0.059 J-0.1102
G1 X4.2438 Y4.4836
G3 X4.237 Y4.4791 I0.0661 J-0.1061
G1 X4.2236 Y4.4694
G3 X4.2171 Y4.4645 I0.0729 J-0.1015
G1 X4.2044 Y4.454
G3 X4.1982 Y4.4486 I0.0794 J-0.0966
G1 X4.1862 Y4.4373
G3 X4.1833 Y4.4345 I0.0855 J-0.0912
G1 X3.8633 Y4.114
G3 X3.8268 Y4.0257 I0.0885 J-0.0883
G3 X3.8634 Y3.9372 I0.125 J0
G1 X4.2535 Y3.5478
G3 X4.2851 Y3.5249 I0.0883 J0.0885
G3 X4.2535 Y3.5019 I0.0569 J-0.1113
G1 X1.138 Y0.3814
G3 X1.1149 Y0.3494 I0.0885 J-0.0883
G3 X1.0919 Y0.381 I-0.1114 J-0.0567
G1 X0.7021 Y0.7708
G3 X0.5252 Y0.7706 I-0.0884 J-0.0884
G1 X0.2042 Y0.4485
G3 X0.1891 Y0.4301 I0.0885 J-0.0882
G1 X0.1583 Y0.3846
G3 X0.1507 Y0.3717 I0.1036 J-0.0699
G1 X0.1256 Y0.3227
G3 X0.1196 Y0.309 I0.1112 J-0.057
G1 X0.1006 Y0.2574
G3 X0.0962 Y0.2431 I0.1173 J-0.0433
G1 X0.0835 Y0.1896
G3 X0.0809 Y0.1749 I0.1216 J-0.029
G1 X0.0747 Y0.1202
G3 X0.0739 Y0.106 I0.1242 J-0.0142
G1 X0.0739 Y0.1053
G1 X0.0742 Y0.0503
G3 X0.0752 Y0.0353 I0.125 J0.0008
G1 X0.0821 Y-0.0192
G3 X0.0849 Y-0.0339 I0.124 J0.0157
G1 X0.0983 Y-0.0873
G3 X0.1028 Y-0.1015 I0.1212 J0.0305
G1 X0.1225 Y-0.1529
G3 X0.1287 Y-0.1665 I0.1167 J0.0447
G1 X0.1544 Y-0.2151
G3 X0.1621 Y-0.2279 I0.1105 J0.0584
G1 X0.1935 Y-0.2731
G3 X0.2027 Y-0.2849 I0.1027 J0.0712
G1 X0.2392 Y-0.326
G3 X0.2444 Y-0.3315 I0.0935 J0.083
G1 X2.7498 Y-2.8339
G3 X2.7733 Y-2.8523 I0.0883 J0.0884
G1 X3.0985 Y-3.0499
G3 X3.1067 Y-3.0544 I0.0649 J0.1068
G1 X3.4457 Y-3.2273
G3 X3.4541 Y-3.2312 I0.0568 J0.1114
G1 X3.8051 Y-3.3784
G3 X3.8138 Y-3.3817 I0.0484 J0.1153
G1 X4.1747 Y-3.5025
G3 X4.1836 Y-3.5051 I0.0397 J0.1185
G1 X4.5525 Y-3.5987
G3 X4.5616 Y-3.6006 I0.0307 J0.1212
G1 X4.9365 Y-3.6666
G3 X4.9457 Y-3.6679 I0.0217 J0.1231
G1 X5.3244 Y-3.7058
G3 X5.3336 Y-3.7064 I0.0125 J0.1244
G1 X5.7141 Y-3.7161
G3 X5.7234 Y-3.716 I0.0032 J0.125
G1 X6.1035 Y-3.6974
G3 X6.1128 Y-3.6966 I-0.0061 J0.1249
G1 X6.4905 Y-3.6498
G3 X6.4997 Y-3.6483 I-0.0154 J0.1241
G1 X6.8729 Y-3.5737
G3 X6.8819 Y-3.5715 I-0.0245 J0.1226
G1 X7.2488 Y-3.4692
G1 X8.2317 Y-3.1927
G1 X9.2272 Y-2.986
G1 X10.2346 Y-2.8491
G1 X11.2491 Y-2.7825
G1 X12.2658 Y-2.7867
G1 X13.2797 Y-2.8615
G1 X14.286 Y-3.0067
G1 X15.2798 Y-3.2214
G1 X16.2562 Y-3.5048
G1 X17.2105 Y-3.8554
G1 X18.1381 Y-4.2714
G1 X18.8401 Y-4.6478
G1 X18.8406 Y-4.6481
G1 X19.0368 Y-4.7521
G1 X22.2934 Y-6.6428
G3 X22.2956 Y-6.644 I0.0628 J0.1081
G1 X22.5142 Y-6.7651
G3 X22.5186 Y-6.7675 I0.0606 J0.1093
G1 X22.7419 Y-6.8797
G3 X22.7465 Y-6.8819 I0.0562 J0.1117
G1 X22.9741 Y-6.9852
G3 X22.9787 Y-6.9871 I0.0516 J0.1138
G1 X23.2103 Y-7.0812
G3 X23.2149 Y-7.083 I0.047 J0.1158
G1 X23.4501 Y-7.1677
G3 X23.4548 Y-7.1693 I0.0424 J0.1176
G1 X23.6932 Y-7.2445
G3 X23.698 Y-7.2459 I0.0376 J0.1192
G1 X23.9392 Y-7.3115
G3 X23.944 Y-7.3128 I0.0328 J0.1206
G1 X24.1876 Y-7.3687
G3 X24.1925 Y-7.3697 I0.028 J0.1218
G1 X24.4382 Y-7.4158
G3 X24.4431 Y-7.4166 I0.0231 J0.1229
G1 X24.6904 Y-7.4528
G3 X24.6954 Y-7.4535 I0.0181 J0.1237
G1 X24.944 Y-7.4798
G3 X24.949 Y-7.4802 I0.0132 J0.1243
G1 X25.1984 Y-7.4965
G3 X25.2066 Y-7.4968 I0.0082 J0.1247
G1 X27.2142 Y-7.4952
G3 X27.3391 Y-7.3702 I-0.0001 J0.125
G3 X27.3024 Y-7.2817 I-0.125 J0
G1 X21.9619 Y-1.9496
G3 X21.8781 Y-1.9132 I-0.0883 J-0.0885
G1 X21.7726 Y-1.9093
G1 X21.6889 Y-1.882
G1 X21.616 Y-1.8328
G1 X21.5594 Y-1.7653
G1 X21.5236 Y-1.6849
G1 X21.5113 Y-1.5977
G1 X21.5234 Y-1.5105
G1 X21.5591 Y-1.43
G1 X21.6156 Y-1.3625
G1 X21.6885 Y-1.3131
G1 X21.7721 Y-1.2856
G1 X21.8776 Y-1.2816
G3 X21.9613 Y-1.245 I-0.0048 J0.1249
G1 X27.5475 Y4.35
G1 X32.2099 Y9.0198
G3 X32.2465 Y9.1082 I-0.0885 J0.0883
G3 X32.0641 Y9.2192 I-0.125 J0
G1 X30.6462 Y8.4869
G1 X29.2016 Y7.815
G1 X27.7304 Y7.2035
G1 X26.2352 Y6.6533
G1 X24.7185 Y6.1655
G1 X23.1829 Y5.7408
G1 X21.6311 Y5.38
G1 X20.0656 Y5.0838
G1 X18.4892 Y4.8526
G1 X16.9047 Y4.6868
G1 X15.3146 Y4.5867
G1 X13.7204 Y4.5524
G1 Z-0.8 F30
G1 X4.4497 Y4.5451 F20
G3 X4.4456 Y4.545 I0.0001 J-0.125
G1 X4.4291 Y4.5444
G3 X4.4209 Y4.5439 I0.0042 J-0.1249
G1 X4.4045 Y4.5423
G3 X4.3964 Y4.5412 I0.0124 J-0.1244
G1 X4.3802 Y4.5385
G3 X4.3721 Y4.5369 I0.0205 J-0.1233
G1 X4.3561 Y4.5331
G3 X4.3482 Y4.531 I0.0285 J-0.1217
G1 X4.3324 Y4.5262
G3 X4.3247 Y4.5236 I0.0364 J-0.1196
G1 X4.3093 Y4.5178
G3 X4.3017 Y4.5146 I0.0441 J-0.117
G1 X4.2867 Y4.5078
G3 X4.2794 Y4.5042 I0.0517 J-0.1138
G1 X4.2648 Y4.4964
G3 X4.2578 Y4.4923 I0.059 J-0.1102
G1 X4.2438 Y4.4836
G3 X4.237 Y4.4791 I0.0661 J-0.1061
G1 X4.2236 Y4.4694
G3 X4.2171 Y4.4645 I0.0729 J-0.1015
G1 X4.2044 Y4.454
G3 X4.1982 Y4.4486 I0.0794 J-0.0966
G1 X4.1862 Y4.4373
G3 X4.1833 Y4.4345 I0.0855 J-0.0912
G1 X3.8633 Y4.114
G3 X3.8268 Y4.0257 I0.0885 J-0.0883
G3 X3.8634 Y3.9372 I0.125 J0
G1 X4.2535 Y3.5478
G3 X4.2851 Y3.5249 I0.0883 J0.0885
G3 X4.2535 Y3.5019 I0.0569 J-0.1113
G1 X1.138 Y0.3814
G3 X1.1149 Y0.3494 I0.0885 J-0.0883
G3 X1.0919 Y0.381 I-0.1114 J-0.0567
G1 X0.7021 Y0.7708
G3 X0.5252 Y0.7706 I-0.0884 J-0.0884
G1 X0.2042 Y0.4485
G3 X0.1891 Y0.4301 I0.0885 J-0.0882
G1 X0.1583 Y0.3846
G3 X0.1507 Y0.3717 I0.1036 J-0.0699
G1 X0.1256 Y0.3227
G3 X0.1196 Y0.309 I0.1112 J-0.057
G1 X0.1006 Y0.2574
G3 X0.0962 Y0.2431 I0.1173 J-0.0433
G1 X0.0835 Y0.1896
G3 X0.0809 Y0.1749 I0.1216 J-0.029
G1 X0.0747 Y0.1202
G3 X0.0739 Y0.106 I0.1242 J-0.0142
G1 X0.0739 Y0.1053
G1 X0.0742 Y0.0503
G3 X0.0752 Y0.0353 I0.125 J0.0008
G1 X0.0821 Y-0.0192
G3 X0.0849 Y-0.0339 I0.124 J0.0157
G1 X0.0983 Y-0.0873
G3 X0.1028 Y-0.1015 I0.1212 J0.0305
G1 X0.1225 Y-0.1529
G3 X0.1287 Y-0.1665 I0.1167 J0.0447
G1 X0.1544 Y-0.2151
G3 X0.1621 Y-0.2279 I0.1105 J0.0584
G1 X0.1935 Y-0.2731
G3 X0.2027 Y-0.2849 I0.1027 J0.0712
G1 X0.2392 Y-0.326
G3 X0.2444 Y-0.3315 I0.0935 J0.083
G1 X2.7498 Y-2.8339
G3 X2.7733 Y-2.8523 I0.0883 J0.0884
G1 X3.0985 Y-3.0499
G3 X3.1067 Y-3.0544 I0.0649 J0.1068
G1 X3.4457 Y-3.2273
G3 X3.4541 Y-3.2312 I0.0568 J0.1114
G1 X3.8051 Y-3.3784
G3 X3.8138 Y-3.3817 I0.0484 J0.1153
G1 X4.1747 Y-3.5025
G3 X4.1836 Y-3.5051 I0.0397 J0.1185
G1 X4.5525 Y-3.5987
G3 X4.5616 Y-3.6006 I0.0307 J0.1212
G1 X4.9365 Y-3.6666
G3 X4.9457 Y-3.6679 I0.0217 J0.1231
G1 X5.3244 Y-3.7058
G3 X5.3336 Y-3.7064 I0.0125 J0.1244
G1 X5.7141 Y-3.7161
G3 X5.7234 Y-3.716 I0.0032 J0.125
G1 X6.1035 Y-3.6974
G3 X6.1128 Y-3.6966 I-0.0061 J0.1249
G1 X6.4905 Y-3.6498
G3 X6.4997 Y-3.6483 I-0.0154 J0.1241
G1 X6.8729 Y-3.5737
G3 X6.8819 Y-3.5715 I-0.0245 J0.1226
G1 X7.2488 Y-3.4692
G1 X8.2317 Y-3.1927
G1 X9.2272 Y-2.986
G1 X10.2346 Y-2.8491
G1 X11.2491 Y-2.7825
G1 X12.2658 Y-2.7867
G1 X13.2797 Y-2.8615
G1 X14.286 Y-3.0067
G1 X15.2798 Y-3.2214
G1 X16.2562 Y-3.5048
G1 X17.2105 Y-3.8554
G1 X18.1381 Y-4.2714
G1 X18.8401 Y-4.6478
G1 X18.8406 Y-4.6481
G1 X19.0368 Y-4.7521
G1 X22.2934 Y-6.6428
G3 X22.2956 Y-6.644 I0.0628 J0.1081
G1 X22.5142 Y-6.7651
G3 X22.5186 Y-6.7675 I0.0606 J0.1093
G1 X22.7419 Y-6.8797
G3 X22.7465 Y-6.8819 I0.0562 J0.1117
G1 X22.9741 Y-6.9852
G3 X22.9787 Y-6.9871 I0.0516 J0.1138
G1 X23.2103 Y-7.0812
G3 X23.2149 Y-7.083 I0.047 J0.1158
G1 X23.4501 Y-7.1677
G3 X23.4548 Y-7.1693 I0.0424 J0.1176
G1 X23.6932 Y-7.2445
G3 X23.698 Y-7.2459 I0.0376 J0.1192
G1 X23.9392 Y-7.3115
G3 X23.944 Y-7.3128 I0.0328 J0.1206
G1 X24.1876 Y-7.3687
G3 X24.1925 Y-7.3697 I0.028 J0.1218
G1 X24.4382 Y-7.4158
G3 X24.4431 Y-7.4166 I0.0231 J0.1229
G1 X24.6904 Y-7.4528
G3 X24.6954 Y-7.4535 I0.0181 J0.1237
G1 X24.944 Y-7.4798
G3 X24.949 Y-7.4802 I0.0132 J0.1243
G1 X25.1984 Y-7.4965
G3 X25.2066 Y-7.4968 I0.0082 J0.1247
G1 X27.2142 Y-7.4952
G3 X27.3391 Y-7.3702 I-0.0001 J0.125
G3 X27.3024 Y-7.2817 I-0.125 J0
G1 X21.9619 Y-1.9496
G3 X21.8781 Y-1.9132 I-0.0883 J-0.0885
G1 X21.7726 Y-1.9093
G1 X21.6889 Y-1.882
G1 X21.616 Y-1.8328
G1 X21.5594 Y-1.7653
G1 X21.5236 Y-1.6849
G1 X21.5113 Y-1.5977
G1 X21.5234 Y-1.5105
G1 X21.5591 Y-1.43
G1 X21.6156 Y-1.3625
G1 X21.6885 Y-1.3131
G1 X21.7721 Y-1.2856
G1 X21.8776 Y-1.2816
G3 X21.9613 Y-1.245 I-0.0048 J0.1249
G1 X27.5475 Y4.35
G1 X32.2099 Y9.0198
G3 X32.2465 Y9.1082 I-0.0885 J0.0883
G3 X32.0641 Y9.2192 I-0.125 J0
G1 X30.6462 Y8.4869
G1 X29.2016 Y7.815
G1 X27.7304 Y7.2035
G1 X26.2352 Y6.6533
G1 X24.7185 Y6.1655
G1 X23.1829 Y5.7408
G1 X21.6311 Y5.38
G1 X20.0656 Y5.0838
G1 X18.4892 Y4.8526
G1 X16.9047 Y4.6868
G1 X15.3146 Y4.5867
G1 X13.7204 Y4.5524
G1 Z-0.85 F30
G1 X4.4497 Y4.5451 F20
G3 X4.4456 Y4.545 I0.0001 J-0.125
G1 X4.4291 Y4.5444
G3 X4.4209 Y4.5439 I0.0042 J-0.1249
G1 X4.4045 Y4.5423
G3 X4.3964 Y4.5412 I0.0124 J-0.1244
G1 X4.3802 Y4.5385
G3 X4.3721 Y4.5369 I0.0205 J-0.1233
G1 X4.3561 Y4.5331
G3 X4.3482 Y4.531 I0.0285 J-0.1217
G1 X4.3324 Y4.5262
G3 X4.3247 Y4.5236 I0.0364 J-0.1196
G1 X4.3093 Y4.5178
G3 X4.3017 Y4.5146 I0.0441 J-0.117
G1 X4.2867 Y4.5078
G3 X4.2794 Y4.5042 I0.0517 J-0.1138
G1 X4.2648 Y4.4964
G3 X4.2578 Y4.4923 I0.059 J-0.1102
G1 X4.2438 Y4.4836
G3 X4.237 Y4.4791 I0.0661 J-0.1061
G1 X4.2236 Y4.4694
G3 X4.2171 Y4.4645 I0.0729 J-0.1015
G1 X4.2044 Y4.454
G3 X4.1982 Y4.4486 I0.0794 J-0.0966
G1 X4.1862 Y4.4373
G3 X4.1833 Y4.4345 I0.0855 J-0.0912
G1 X3.8633 Y4.114
G3 X3.8268 Y4.0257 I0.0885 J-0.0883
G3 X3.8634 Y3.9372 I0.125 J0
G1 X4.2535 Y3.5478
G3 X4.2851 Y3.5249 I0.0883 J0.0885
G3 X4.2535 Y3.5019 I0.0569 J-0.1113
G1 X1.138 Y0.3814
G3 X1.1149 Y0.3494 I0.0885 J-0.0883
G3 X1.0919 Y0.381 I-0.1114 J-0.0567
G1 X0.7021 Y0.7708
G3 X0.5252 Y0.7706 I-0.0884 J-0.0884
G1 X0.2042 Y0.4485
G3 X0.1891 Y0.4301 I0.0885 J-0.0882
G1 X0.1583 Y0.3846
G3 X0.1507 Y0.3717 I0.1036 J-0.0699
G1 X0.1256 Y0.3227
G3 X0.1196 Y0.309 I0.1112 J-0.057
G1 X0.1006 Y0.2574
G3 X0.0962 Y0.2431 I0.1173 J-0.0433
G1 X0.0835 Y0.1896
G3 X0.0809 Y0.1749 I0.1216 J-0.029
G1 X0.0747 Y0.1202
G3 X0.0739 Y0.106 I0.1242 J-0.0142
G1 X0.0739 Y0.1053
G1 X0.0742 Y0.0503
G3 X0.0752 Y0.0353 I0.125 J0.0008
G1 X0.0821 Y-0.0192
G3 X0.0849 Y-0.0339 I0.124 J0.0157
G1 X0.0983 Y-0.0873
G3 X0.1028 Y-0.1015 I0.1212 J0.0305
G1 X0.1225 Y-0.1529
G3 X0.1287 Y-0.1665 I0.1167 J0.0447
G1 X0.1544 Y-0.2151
G3 X0.1621 Y-0.2279 I0.1105 J0.0584
G1 X0.1935 Y-0.2731
G3 X0.2027 Y-0.2849 I0.1027 J0.0712
G1 X0.2392 Y-0.326
G3 X0.2444 Y-0.3315 I0.0935 J0.083
G1 X2.7498 Y-2.8339
G3 X2.7733 Y-2.8523 I0.0883 J0.0884
G1 X3.0985 Y-3.0499
G3 X3.1067 Y-3.0544 I0.0649 J0.1068
G1 X3.4457 Y-3.2273
G3 X3.4541 Y-3.2312 I0.0568 J0.1114
G1 X3.8051 Y-3.3784
G3 X3.8138 Y-3.3817 I0.0484 J0.1153
G1 X4.1747 Y-3.5025
G3 X4.1836 Y-3.5051 I0.0397 J0.1185
G1 X4.5525 Y-3.5987
G3 X4.5616 Y-3.6006 I0.0307 J0.1212
G1 X4.9365 Y-3.6666
G3 X4.9457 Y-3.6679 I0.0217 J0.1231
G1 X5.3244 Y-3.7058
G3 X5.3336 Y-3.7064 I0.0125 J0.1244
G1 X5.7141 Y-3.7161
G3 X5.7234 Y-3.716 I0.0032 J0.125
G1 X6.1035 Y-3.6974
G3 X6.1128 Y-3.6966 I-0.0061 J0.1249
G1 X6.4905 Y-3.6498
G3 X6.4997 Y-3.6483 I-0.0154 J0.1241
G1 X6.8729 Y-3.5737
G3 X6.8819 Y-3.5715 I-0.0245 J0.1226
G1 X7.2488 Y-3.4692
G1 X8.2317 Y-3.1927
G1 X9.2272 Y-2.986
G1 X10.2346 Y-2.8491
G1 X11.2491 Y-2.7825
G1 X12.2658 Y-2.7867
G1 X13.2797 Y-2.8615
G1 X14.286 Y-3.0067
G1 X15.2798 Y-3.2214
G1 X16.2562 Y-3.5048
G1 X17.2105 Y-3.8554
G1 X18.1381 Y-4.2714
G1 X18.8401 Y-4.6478
G1 X18.8406 Y-4.6481
G1 X19.0368 Y-4.7521
G1 X22.2934 Y-6.6428
G3 X22.2956 Y-6.644 I0.0628 J0.1081
G1 X22.5142 Y-6.7651
G3 X22.5186 Y-6.7675 I0.0606 J0.1093
G1 X22.7419 Y-6.8797
G3 X22.7465 Y-6.8819 I0.0562 J0.1117
G1 X22.9741 Y-6.9852
G3 X22.9787 Y-6.9871 I0.0516 J0.1138
G1 X23.2103 Y-7.0812
G3 X23.2149 Y-7.083 I0.047 J0.1158
G1 X23.4501 Y-7.1677
G3 X23.4548 Y-7.1693 I0.0424 J0.1176
G1 X23.6932 Y-7.2445
G3 X23.698 Y-7.2459 I0.0376 J0.1192
G1 X23.9392 Y-7.3115
G3 X23.944 Y-7.3128 I0.0328 J0.1206
G1 X24.1876 Y-7.3687
G3 X24.1925 Y-7.3697 I0.028 J0.1218
G1 X24.4382 Y-7.4158
G3 X24.4431 Y-7.4166 I0.0231 J0.1229
G1 X24.6904 Y-7.4528
G3 X24.6954 Y-7.4535 I0.0181 J0.1237
G1 X24.944 Y-7.4798
G3 X24.949 Y-7.4802 I0.0132 J0.1243
G1 X25.1984 Y-7.4965
G3 X25.2066 Y-7.4968 I0.0082 J0.1247
G1 X27.2142 Y-7.4952
G3 X27.3391 Y-7.3702 I-0.0001 J0.125
G3 X27.3024 Y-7.2817 I-0.125 J0
G1 X21.9619 Y-1.9496
G3 X21.8781 Y-1.9132 I-0.0883 J-0.0885
G1 X21.7726 Y-1.9093
G1 X21.6889 Y-1.882
G1 X21.616 Y-1.8328
G1 X21.5594 Y-1.7653
G1 X21.5236 Y-1.6849
G1 X21.5113 Y-1.5977
G1 X21.5234 Y-1.5105
G1 X21.5591 Y-1.43
G1 X21.6156 Y-1.3625
G1 X21.6885 Y-1.3131
G1 X21.7721 Y-1.2856
G1 X21.8776 Y-1.2816
G3 X21.9613 Y-1.245 I-0.0048 J0.1249
G1 X27.5475 Y4.35
G1 X32.2099 Y9.0198
G3 X32.2465 Y9.1082 I-0.0885 J0.0883
G3 X32.0641 Y9.2192 I-0.125 J0
G1 X30.6462 Y8.4869
G1 X29.2016 Y7.815
G1 X27.7304 Y7.2035
G1 X26.2352 Y6.6533
G1 X24.7185 Y6.1655
G1 X23.1829 Y5.7408
G1 X21.6311 Y5.38
G1 X20.0656 Y5.0838
G1 X18.4892 Y4.8526
G1 X16.9047 Y4.6868
G1 X15.3146 Y4.5867
G1 X13.7204 Y4.5524
G0 Z0.25
M5
M30
