(Generated by PartKam Version 0.05)

G20 G90 G40

(profile 1)
G0 Z0.15
T0 M6
G17
M3
G0 X29.7298 Y9.9769
G1 Z-0.1 F15
G1 X29.7376 Y9.9178 F20
G1 X29.7605 Y9.8628
G1 X29.7968 Y9.8156
G1 X29.8441 Y9.7793
G1 X29.8992 Y9.7566
G1 X29.9582 Y9.7488
G1 X30.0173 Y9.7567
G1 X30.0723 Y9.7795
G1 X30.1196 Y9.8158
G1 X30.1558 Y9.8631
G1 X30.1786 Y9.9182
G1 X30.1863 Y9.9773
G1 X30.1785 Y10.0363
G1 X30.1556 Y10.0914
G1 X30.1193 Y10.1386
G1 X30.072 Y10.1748
G1 X30.017 Y10.1976
G1 X29.9579 Y10.2053
G1 X29.8988 Y10.1975
G1 X29.8438 Y10.1747
G1 X29.7965 Y10.1384
G1 X29.7603 Y10.0911
G1 X29.7375 Y10.036
G1 X29.7298 Y9.9769
G1 Z-0.2 F15
G1 X29.7376 Y9.9178 F20
G1 X29.7605 Y9.8628
G1 X29.7968 Y9.8156
G1 X29.8441 Y9.7793
G1 X29.8992 Y9.7566
G1 X29.9582 Y9.7488
G1 X30.0173 Y9.7567
G1 X30.0723 Y9.7795
G1 X30.1196 Y9.8158
G1 X30.1558 Y9.8631
G1 X30.1786 Y9.9182
G1 X30.1863 Y9.9773
G1 X30.1785 Y10.0363
G1 X30.1556 Y10.0914
G1 X30.1193 Y10.1386
G1 X30.072 Y10.1748
G1 X30.017 Y10.1976
G1 X29.9579 Y10.2053
G1 X29.8988 Y10.1975
G1 X29.8438 Y10.1747
G1 X29.7965 Y10.1384
G1 X29.7603 Y10.0911
G1 X29.7375 Y10.036
G1 X29.7298 Y9.9769
G1 Z-0.3 F15
G1 X29.7376 Y9.9178 F20
G1 X29.7605 Y9.8628
G1 X29.7968 Y9.8156
G1 X29.8441 Y9.7793
G1 X29.8992 Y9.7566
G1 X29.9582 Y9.7488
G1 X30.0173 Y9.7567
G1 X30.0723 Y9.7795
G1 X30.1196 Y9.8158
G1 X30.1558 Y9.8631
G1 X30.1786 Y9.9182
G1 X30.1863 Y9.9773
G1 X30.1785 Y10.0363
G1 X30.1556 Y10.0914
G1 X30.1193 Y10.1386
G1 X30.072 Y10.1748
G1 X30.017 Y10.1976
G1 X29.9579 Y10.2053
G1 X29.8988 Y10.1975
G1 X29.8438 Y10.1747
G1 X29.7965 Y10.1384
G1 X29.7603 Y10.0911
G1 X29.7375 Y10.036
G1 X29.7298 Y9.9769
G1 Z-0.4 F15
G1 X29.7376 Y9.9178 F20
G1 X29.7605 Y9.8628
G1 X29.7968 Y9.8156
G1 X29.8441 Y9.7793
G1 X29.8992 Y9.7566
G1 X29.9582 Y9.7488
G1 X30.0173 Y9.7567
G1 X30.0723 Y9.7795
G1 X30.1196 Y9.8158
G1 X30.1558 Y9.8631
G1 X30.1786 Y9.9182
G1 X30.1863 Y9.9773
G1 X30.1785 Y10.0363
G1 X30.1556 Y10.0914
G1 X30.1193 Y10.1386
G1 X30.072 Y10.1748
G1 X30.017 Y10.1976
G1 X29.9579 Y10.2053
G1 X29.8988 Y10.1975
G1 X29.8438 Y10.1747
G1 X29.7965 Y10.1384
G1 X29.7603 Y10.0911
G1 X29.7375 Y10.036
G1 X29.7298 Y9.9769
G1 Z-0.5 F15
G1 X29.7376 Y9.9178 F20
G1 X29.7605 Y9.8628
G1 X29.7968 Y9.8156
G1 X29.8441 Y9.7793
G1 X29.8992 Y9.7566
G1 X29.9582 Y9.7488
G1 X30.0173 Y9.7567
G1 X30.0723 Y9.7795
G1 X30.1196 Y9.8158
G1 X30.1558 Y9.8631
G1 X30.1786 Y9.9182
G1 X30.1863 Y9.9773
G1 X30.1785 Y10.0363
G1 X30.1556 Y10.0914
G1 X30.1193 Y10.1386
G1 X30.072 Y10.1748
G1 X30.017 Y10.1976
G1 X29.9579 Y10.2053
G1 X29.8988 Y10.1975
G1 X29.8438 Y10.1747
G1 X29.7965 Y10.1384
G1 X29.7603 Y10.0911
G1 X29.7375 Y10.036
G1 X29.7298 Y9.9769
G1 Z-0.6 F15
G1 X29.7376 Y9.9178 F20
G1 X29.7605 Y9.8628
G1 X29.7968 Y9.8156
G1 X29.8441 Y9.7793
G1 X29.8992 Y9.7566
G1 X29.9582 Y9.7488
G1 X30.0173 Y9.7567
G1 X30.0723 Y9.7795
G1 X30.1196 Y9.8158
G1 X30.1558 Y9.8631
G1 X30.1786 Y9.9182
G1 X30.1863 Y9.9773
G1 X30.1785 Y10.0363
G1 X30.1556 Y10.0914
G1 X30.1193 Y10.1386
G1 X30.072 Y10.1748
G1 X30.017 Y10.1976
G1 X29.9579 Y10.2053
G1 X29.8988 Y10.1975
G1 X29.8438 Y10.1747
G1 X29.7965 Y10.1384
G1 X29.7603 Y10.0911
G1 X29.7375 Y10.036
G1 X29.7298 Y9.9769
G1 Z-0.7 F15
G1 X29.7376 Y9.9178 F20
G1 X29.7605 Y9.8628
G1 X29.7968 Y9.8156
G1 X29.8441 Y9.7793
G1 X29.8992 Y9.7566
G1 X29.9582 Y9.7488
G1 X30.0173 Y9.7567
G1 X30.0723 Y9.7795
G1 X30.1196 Y9.8158
G1 X30.1558 Y9.8631
G1 X30.1786 Y9.9182
G1 X30.1863 Y9.9773
G1 X30.1785 Y10.0363
G1 X30.1556 Y10.0914
G1 X30.1193 Y10.1386
G1 X30.072 Y10.1748
G1 X30.017 Y10.1976
G1 X29.9579 Y10.2053
G1 X29.8988 Y10.1975
G1 X29.8438 Y10.1747
G1 X29.7965 Y10.1384
G1 X29.7603 Y10.0911
G1 X29.7375 Y10.036
G1 X29.7298 Y9.9769
G1 Z-0.8 F15
G1 X29.7376 Y9.9178 F20
G1 X29.7605 Y9.8628
G1 X29.7968 Y9.8156
G1 X29.8441 Y9.7793
G1 X29.8992 Y9.7566
G1 X29.9582 Y9.7488
G1 X30.0173 Y9.7567
G1 X30.0723 Y9.7795
G1 X30.1196 Y9.8158
G1 X30.1558 Y9.8631
G1 X30.1786 Y9.9182
G1 X30.1863 Y9.9773
G1 X30.1785 Y10.0363
G1 X30.1556 Y10.0914
G1 X30.1193 Y10.1386
G1 X30.072 Y10.1748
G1 X30.017 Y10.1976
G1 X29.9579 Y10.2053
G1 X29.8988 Y10.1975
G1 X29.8438 Y10.1747
G1 X29.7965 Y10.1384
G1 X29.7603 Y10.0911
G1 X29.7375 Y10.036
G1 X29.7298 Y9.9769
G1 Z-0.85 F15
G1 X29.7376 Y9.9178 F20
G1 X29.7605 Y9.8628
G1 X29.7968 Y9.8156
G1 X29.8441 Y9.7793
G1 X29.8992 Y9.7566
G1 X29.9582 Y9.7488
G1 X30.0173 Y9.7567
G1 X30.0723 Y9.7795
G1 X30.1196 Y9.8158
G1 X30.1558 Y9.8631
G1 X30.1786 Y9.9182
G1 X30.1863 Y9.9773
G1 X30.1785 Y10.0363
G1 X30.1556 Y10.0914
G1 X30.1193 Y10.1386
G1 X30.072 Y10.1748
G1 X30.017 Y10.1976
G1 X29.9579 Y10.2053
G1 X29.8988 Y10.1975
G1 X29.8438 Y10.1747
G1 X29.7965 Y10.1384
G1 X29.7603 Y10.0911
G1 X29.7375 Y10.036
G1 X29.7298 Y9.9769

(profile 2)
G0 Z0.25
G0 X18.8949 Y4.8113
G1 Z-0.1 F15
G1 X28.1821 Y4.8191 F20
G3 X28.1944 Y4.8198 I-0.0001 J0.125
G1 X28.2108 Y4.8214
G3 X28.2189 Y4.8225 I-0.0124 J0.1244
G1 X28.2351 Y4.8252
G3 X28.2432 Y4.8268 I-0.0205 J0.1233
G1 X28.2592 Y4.8305
G3 X28.2671 Y4.8326 I-0.0285 J0.1217
G1 X28.2829 Y4.8374
G3 X28.2906 Y4.8401 I-0.0364 J0.1196
G1 X28.3061 Y4.8459
G3 X28.3136 Y4.849 I-0.0441 J0.117
G1 X28.3286 Y4.8558
G3 X28.3359 Y4.8595 I-0.0517 J0.1138
G1 X28.3505 Y4.8672
G3 X28.3576 Y4.8713 I-0.059 J0.1102
G1 X28.3715 Y4.8801
G3 X28.3783 Y4.8846 I-0.0661 J0.1061
G1 X28.3917 Y4.8942
G3 X28.3982 Y4.8992 I-0.0729 J0.1015
G1 X28.411 Y4.9097
G3 X28.4199 Y4.9178 I-0.0794 J0.0966
G1 X28.7519 Y5.2496
G3 X28.7886 Y5.338 I-0.0884 J0.0884
G3 X28.7519 Y5.4264 I-0.125 J0
G1 X28.3618 Y5.8159
G3 X28.3302 Y5.8388 I-0.0883 J-0.0885
G3 X28.3618 Y5.8618 I-0.0569 J0.1113
G1 X31.4773 Y8.9822
G3 X31.5002 Y9.0138 I-0.0885 J0.0883
G3 X31.5232 Y8.9823 I0.1113 J0.0569
G1 X31.9133 Y8.5928
G3 X32.0901 Y8.593 I0.0883 J0.0885
G1 X32.4111 Y8.9152
G3 X32.4262 Y8.9335 I-0.0885 J0.0882
G1 X32.457 Y8.9791
G3 X32.4646 Y8.992 I-0.1036 J0.0699
G1 X32.4897 Y9.0409
G3 X32.4957 Y9.0546 I-0.1112 J0.057
G1 X32.5147 Y9.1062
G3 X32.5191 Y9.1206 I-0.1173 J0.0433
G1 X32.5318 Y9.174
G3 X32.5344 Y9.1888 I-0.1216 J0.029
G1 X32.5406 Y9.2434
G3 X32.5415 Y9.2576 I-0.1242 J0.0142
G1 X32.5415 Y9.2584
G1 X32.5411 Y9.3134
G3 X32.5401 Y9.3283 I-0.125 J-0.0008
G1 X32.5332 Y9.3829
G3 X32.5304 Y9.3976 I-0.124 J-0.0157
G1 X32.517 Y9.4509
G3 X32.5125 Y9.4652 I-0.1212 J-0.0305
G1 X32.4928 Y9.5165
G3 X32.4866 Y9.5302 I-0.1167 J-0.0447
G1 X32.461 Y9.5788
G3 X32.4532 Y9.5916 I-0.1105 J-0.0584
G1 X32.4219 Y9.6368
G3 X32.4126 Y9.6486 I-0.1027 J-0.0712
G1 X32.3761 Y9.6897
G3 X32.371 Y9.6951 I-0.0935 J-0.083
G1 X29.8655 Y12.1975
G3 X29.842 Y12.2159 I-0.0883 J-0.0884
G1 X29.5168 Y12.4135
G3 X29.5086 Y12.4181 I-0.0649 J-0.1068
G1 X29.1696 Y12.5909
G3 X29.1612 Y12.5949 I-0.0568 J-0.1114
G1 X28.8102 Y12.7421
G3 X28.8015 Y12.7454 I-0.0484 J-0.1153
G1 X28.4406 Y12.8661
G3 X28.4317 Y12.8687 I-0.0397 J-0.1185
G1 X28.0628 Y12.9624
G3 X28.0537 Y12.9643 I-0.0307 J-0.1212
G1 X27.6788 Y13.0303
G3 X27.6696 Y13.0315 I-0.0217 J-0.1231
G1 X27.2909 Y13.0695
G3 X27.2817 Y13.0701 I-0.0125 J-0.1244
G1 X26.9012 Y13.0798
G3 X26.8919 Y13.0796 I-0.0032 J-0.125
G1 X26.5118 Y13.0611
G3 X26.5025 Y13.0603 I0.0061 J-0.1249
G1 X26.1248 Y13.0135
G3 X26.1156 Y13.012 I0.0154 J-0.1241
G1 X25.7424 Y12.9373
G3 X25.7334 Y12.9352 I0.0245 J-0.1226
G1 X25.3665 Y12.8329
G1 X24.3836 Y12.5563
G1 X23.3881 Y12.3497
G1 X22.3807 Y12.2127
G1 X21.3662 Y12.1462
G1 X20.3495 Y12.1503
G1 X19.3356 Y12.2252
G1 X18.3293 Y12.3703
G1 X17.3355 Y12.5851
G1 X16.3591 Y12.8685
G1 X15.4048 Y13.219
G1 X14.4772 Y13.6351
G1 X13.7753 Y14.0114
G1 X13.7748 Y14.0117
G1 X13.5785 Y14.1158
G1 X10.3219 Y16.0064
G3 X10.3197 Y16.0077 I-0.0628 J-0.1081
G1 X10.1011 Y16.1288
G3 X10.0967 Y16.1311 I-0.0606 J-0.1093
G1 X9.8734 Y16.2434
G3 X9.8688 Y16.2456 I-0.0562 J-0.1117
G1 X9.6412 Y16.3488
G3 X9.6366 Y16.3508 I-0.0516 J-0.1138
G1 X9.405 Y16.4449
G3 X9.4004 Y16.4466 I-0.047 J-0.1158
G1 X9.1652 Y16.5313
G3 X9.1605 Y16.533 I-0.0424 J-0.1176
G1 X8.9221 Y16.6082
G3 X8.9173 Y16.6096 I-0.0376 J-0.1192
G1 X8.6761 Y16.6752
G3 X8.6713 Y16.6764 I-0.0328 J-0.1206
G1 X8.4277 Y16.7323
G3 X8.4228 Y16.7333 I-0.028 J-0.1218
G1 X8.1771 Y16.7794
G3 X8.1722 Y16.7803 I-0.0231 J-0.1229
G1 X7.9249 Y16.8165
G3 X7.9199 Y16.8171 I-0.0181 J-0.1237
G1 X7.6713 Y16.8434
G3 X7.6664 Y16.8439 I-0.0132 J-0.1243
G1 X7.4169 Y16.8602
G3 X7.4087 Y16.8604 I-0.0082 J-0.1247
G1 X5.4011 Y16.8589
G3 X5.3066 Y16.8156 I0.0001 J-0.125
G1 X4.3361 Y15.6921
G3 X4.3301 Y15.6846 I0.0946 J-0.0817
G1 X3.4488 Y14.4899
G3 X3.4434 Y14.482 I0.1006 J-0.0742
G1 X2.6565 Y13.2231
G3 X2.6517 Y13.2148 I0.106 J-0.0663
G1 X1.9639 Y11.8991
G3 X1.9598 Y11.8904 I0.1108 J-0.0579
G1 X1.3751 Y10.5259
G3 X1.3716 Y10.5169 I0.1149 J-0.0492
G1 X0.8935 Y9.1114
G3 X0.8908 Y9.1022 I0.1183 J-0.0403
G1 X0.522 Y7.6641
G3 X0.52 Y7.6547 I0.1211 J-0.031
G1 X0.2629 Y6.1926
G3 X0.2616 Y6.183 I0.1231 J-0.0216
G1 X0.1176 Y4.7055
G3 X0.117 Y4.6959 I0.1244 J-0.0121
G1 X0.087 Y3.2116
G3 X0.087 Y3.2091 I0.125 J-0.0025
G3 X0.0872 Y3.202 I0.125 J0
G1 X0.1713 Y1.7198
G3 X0.1722 Y1.7102 I0.1248 J0.0071
G1 X0.3699 Y0.2389
G3 X0.5512 Y0.1444 I0.1239 J0.0167
G1 X1.9691 Y0.8767
G1 X3.4137 Y1.5486
G1 X4.8849 Y2.1602
G1 X6.3801 Y2.7104
G1 X7.8968 Y3.1982
G1 X9.4324 Y3.6229
G1 X10.9843 Y3.9836
G1 X12.5497 Y4.2799
G1 X14.1261 Y4.5111
G1 X15.7106 Y4.6769
G1 X17.3007 Y4.777
G1 X18.8949 Y4.8113
G1 Z-0.2 F15
G1 X28.1821 Y4.8191 F20
G3 X28.1944 Y4.8198 I-0.0001 J0.125
G1 X28.2108 Y4.8214
G3 X28.2189 Y4.8225 I-0.0124 J0.1244
G1 X28.2351 Y4.8252
G3 X28.2432 Y4.8268 I-0.0205 J0.1233
G1 X28.2592 Y4.8305
G3 X28.2671 Y4.8326 I-0.0285 J0.1217
G1 X28.2829 Y4.8374
G3 X28.2906 Y4.8401 I-0.0364 J0.1196
G1 X28.3061 Y4.8459
G3 X28.3136 Y4.849 I-0.0441 J0.117
G1 X28.3286 Y4.8558
G3 X28.3359 Y4.8595 I-0.0517 J0.1138
G1 X28.3505 Y4.8672
G3 X28.3576 Y4.8713 I-0.059 J0.1102
G1 X28.3715 Y4.8801
G3 X28.3783 Y4.8846 I-0.0661 J0.1061
G1 X28.3917 Y4.8942
G3 X28.3982 Y4.8992 I-0.0729 J0.1015
G1 X28.411 Y4.9097
G3 X28.4199 Y4.9178 I-0.0794 J0.0966
G1 X28.7519 Y5.2496
G3 X28.7886 Y5.338 I-0.0884 J0.0884
G3 X28.7519 Y5.4264 I-0.125 J0
G1 X28.3618 Y5.8159
G3 X28.3302 Y5.8388 I-0.0883 J-0.0885
G3 X28.3618 Y5.8618 I-0.0569 J0.1113
G1 X31.4773 Y8.9822
G3 X31.5002 Y9.0138 I-0.0885 J0.0883
G3 X31.5232 Y8.9823 I0.1113 J0.0569
G1 X31.9133 Y8.5928
G3 X32.0901 Y8.593 I0.0883 J0.0885
G1 X32.4111 Y8.9152
G3 X32.4262 Y8.9335 I-0.0885 J0.0882
G1 X32.457 Y8.9791
G3 X32.4646 Y8.992 I-0.1036 J0.0699
G1 X32.4897 Y9.0409
G3 X32.4957 Y9.0546 I-0.1112 J0.057
G1 X32.5147 Y9.1062
G3 X32.5191 Y9.1206 I-0.1173 J0.0433
G1 X32.5318 Y9.174
G3 X32.5344 Y9.1888 I-0.1216 J0.029
G1 X32.5406 Y9.2434
G3 X32.5415 Y9.2576 I-0.1242 J0.0142
G1 X32.5415 Y9.2584
G1 X32.5411 Y9.3134
G3 X32.5401 Y9.3283 I-0.125 J-0.0008
G1 X32.5332 Y9.3829
G3 X32.5304 Y9.3976 I-0.124 J-0.0157
G1 X32.517 Y9.4509
G3 X32.5125 Y9.4652 I-0.1212 J-0.0305
G1 X32.4928 Y9.5165
G3 X32.4866 Y9.5302 I-0.1167 J-0.0447
G1 X32.461 Y9.5788
G3 X32.4532 Y9.5916 I-0.1105 J-0.0584
G1 X32.4219 Y9.6368
G3 X32.4126 Y9.6486 I-0.1027 J-0.0712
G1 X32.3761 Y9.6897
G3 X32.371 Y9.6951 I-0.0935 J-0.083
G1 X29.8655 Y12.1975
G3 X29.842 Y12.2159 I-0.0883 J-0.0884
G1 X29.5168 Y12.4135
G3 X29.5086 Y12.4181 I-0.0649 J-0.1068
G1 X29.1696 Y12.5909
G3 X29.1612 Y12.5949 I-0.0568 J-0.1114
G1 X28.8102 Y12.7421
G3 X28.8015 Y12.7454 I-0.0484 J-0.1153
G1 X28.4406 Y12.8661
G3 X28.4317 Y12.8687 I-0.0397 J-0.1185
G1 X28.0628 Y12.9624
G3 X28.0537 Y12.9643 I-0.0307 J-0.1212
G1 X27.6788 Y13.0303
G3 X27.6696 Y13.0315 I-0.0217 J-0.1231
G1 X27.2909 Y13.0695
G3 X27.2817 Y13.0701 I-0.0125 J-0.1244
G1 X26.9012 Y13.0798
G3 X26.8919 Y13.0796 I-0.0032 J-0.125
G1 X26.5118 Y13.0611
G3 X26.5025 Y13.0603 I0.0061 J-0.1249
G1 X26.1248 Y13.0135
G3 X26.1156 Y13.012 I0.0154 J-0.1241
G1 X25.7424 Y12.9373
G3 X25.7334 Y12.9352 I0.0245 J-0.1226
G1 X25.3665 Y12.8329
G1 X24.3836 Y12.5563
G1 X23.3881 Y12.3497
G1 X22.3807 Y12.2127
G1 X21.3662 Y12.1462
G1 X20.3495 Y12.1503
G1 X19.3356 Y12.2252
G1 X18.3293 Y12.3703
G1 X17.3355 Y12.5851
G1 X16.3591 Y12.8685
G1 X15.4048 Y13.219
G1 X14.4772 Y13.6351
G1 X13.7753 Y14.0114
G1 X13.7748 Y14.0117
G1 X13.5785 Y14.1158
G1 X10.3219 Y16.0064
G3 X10.3197 Y16.0077 I-0.0628 J-0.1081
G1 X10.1011 Y16.1288
G3 X10.0967 Y16.1311 I-0.0606 J-0.1093
G1 X9.8734 Y16.2434
G3 X9.8688 Y16.2456 I-0.0562 J-0.1117
G1 X9.6412 Y16.3488
G3 X9.6366 Y16.3508 I-0.0516 J-0.1138
G1 X9.405 Y16.4449
G3 X9.4004 Y16.4466 I-0.047 J-0.1158
G1 X9.1652 Y16.5313
G3 X9.1605 Y16.533 I-0.0424 J-0.1176
G1 X8.9221 Y16.6082
G3 X8.9173 Y16.6096 I-0.0376 J-0.1192
G1 X8.6761 Y16.6752
G3 X8.6713 Y16.6764 I-0.0328 J-0.1206
G1 X8.4277 Y16.7323
G3 X8.4228 Y16.7333 I-0.028 J-0.1218
G1 X8.1771 Y16.7794
G3 X8.1722 Y16.7803 I-0.0231 J-0.1229
G1 X7.9249 Y16.8165
G3 X7.9199 Y16.8171 I-0.0181 J-0.1237
G1 X7.6713 Y16.8434
G3 X7.6664 Y16.8439 I-0.0132 J-0.1243
G1 X7.4169 Y16.8602
G3 X7.4087 Y16.8604 I-0.0082 J-0.1247
G1 X5.4011 Y16.8589
G3 X5.3066 Y16.8156 I0.0001 J-0.125
G1 X4.3361 Y15.6921
G3 X4.3301 Y15.6846 I0.0946 J-0.0817
G1 X3.4488 Y14.4899
G3 X3.4434 Y14.482 I0.1006 J-0.0742
G1 X2.6565 Y13.2231
G3 X2.6517 Y13.2148 I0.106 J-0.0663
G1 X1.9639 Y11.8991
G3 X1.9598 Y11.8904 I0.1108 J-0.0579
G1 X1.3751 Y10.5259
G3 X1.3716 Y10.5169 I0.1149 J-0.0492
G1 X0.8935 Y9.1114
G3 X0.8908 Y9.1022 I0.1183 J-0.0403
G1 X0.522 Y7.6641
G3 X0.52 Y7.6547 I0.1211 J-0.031
G1 X0.2629 Y6.1926
G3 X0.2616 Y6.183 I0.1231 J-0.0216
G1 X0.1176 Y4.7055
G3 X0.117 Y4.6959 I0.1244 J-0.0121
G1 X0.087 Y3.2116
G3 X0.087 Y3.2091 I0.125 J-0.0025
G3 X0.0872 Y3.202 I0.125 J0
G1 X0.1713 Y1.7198
G3 X0.1722 Y1.7102 I0.1248 J0.0071
G1 X0.3699 Y0.2389
G3 X0.5512 Y0.1444 I0.1239 J0.0167
G1 X1.9691 Y0.8767
G1 X3.4137 Y1.5486
G1 X4.8849 Y2.1602
G1 X6.3801 Y2.7104
G1 X7.8968 Y3.1982
G1 X9.4324 Y3.6229
G1 X10.9843 Y3.9836
G1 X12.5497 Y4.2799
G1 X14.1261 Y4.5111
G1 X15.7106 Y4.6769
G1 X17.3007 Y4.777
G1 X18.8949 Y4.8113
G1 Z-0.3 F15
G1 X28.1821 Y4.8191 F20
G3 X28.1944 Y4.8198 I-0.0001 J0.125
G1 X28.2108 Y4.8214
G3 X28.2189 Y4.8225 I-0.0124 J0.1244
G1 X28.2351 Y4.8252
G3 X28.2432 Y4.8268 I-0.0205 J0.1233
G1 X28.2592 Y4.8305
G3 X28.2671 Y4.8326 I-0.0285 J0.1217
G1 X28.2829 Y4.8374
G3 X28.2906 Y4.8401 I-0.0364 J0.1196
G1 X28.3061 Y4.8459
G3 X28.3136 Y4.849 I-0.0441 J0.117
G1 X28.3286 Y4.8558
G3 X28.3359 Y4.8595 I-0.0517 J0.1138
G1 X28.3505 Y4.8672
G3 X28.3576 Y4.8713 I-0.059 J0.1102
G1 X28.3715 Y4.8801
G3 X28.3783 Y4.8846 I-0.0661 J0.1061
G1 X28.3917 Y4.8942
G3 X28.3982 Y4.8992 I-0.0729 J0.1015
G1 X28.411 Y4.9097
G3 X28.4199 Y4.9178 I-0.0794 J0.0966
G1 X28.7519 Y5.2496
G3 X28.7886 Y5.338 I-0.0884 J0.0884
G3 X28.7519 Y5.4264 I-0.125 J0
G1 X28.3618 Y5.8159
G3 X28.3302 Y5.8388 I-0.0883 J-0.0885
G3 X28.3618 Y5.8618 I-0.0569 J0.1113
G1 X31.4773 Y8.9822
G3 X31.5002 Y9.0138 I-0.0885 J0.0883
G3 X31.5232 Y8.9823 I0.1113 J0.0569
G1 X31.9133 Y8.5928
G3 X32.0901 Y8.593 I0.0883 J0.0885
G1 X32.4111 Y8.9152
G3 X32.4262 Y8.9335 I-0.0885 J0.0882
G1 X32.457 Y8.9791
G3 X32.4646 Y8.992 I-0.1036 J0.0699
G1 X32.4897 Y9.0409
G3 X32.4957 Y9.0546 I-0.1112 J0.057
G1 X32.5147 Y9.1062
G3 X32.5191 Y9.1206 I-0.1173 J0.0433
G1 X32.5318 Y9.174
G3 X32.5344 Y9.1888 I-0.1216 J0.029
G1 X32.5406 Y9.2434
G3 X32.5415 Y9.2576 I-0.1242 J0.0142
G1 X32.5415 Y9.2584
G1 X32.5411 Y9.3134
G3 X32.5401 Y9.3283 I-0.125 J-0.0008
G1 X32.5332 Y9.3829
G3 X32.5304 Y9.3976 I-0.124 J-0.0157
G1 X32.517 Y9.4509
G3 X32.5125 Y9.4652 I-0.1212 J-0.0305
G1 X32.4928 Y9.5165
G3 X32.4866 Y9.5302 I-0.1167 J-0.0447
G1 X32.461 Y9.5788
G3 X32.4532 Y9.5916 I-0.1105 J-0.0584
G1 X32.4219 Y9.6368
G3 X32.4126 Y9.6486 I-0.1027 J-0.0712
G1 X32.3761 Y9.6897
G3 X32.371 Y9.6951 I-0.0935 J-0.083
G1 X29.8655 Y12.1975
G3 X29.842 Y12.2159 I-0.0883 J-0.0884
G1 X29.5168 Y12.4135
G3 X29.5086 Y12.4181 I-0.0649 J-0.1068
G1 X29.1696 Y12.5909
G3 X29.1612 Y12.5949 I-0.0568 J-0.1114
G1 X28.8102 Y12.7421
G3 X28.8015 Y12.7454 I-0.0484 J-0.1153
G1 X28.4406 Y12.8661
G3 X28.4317 Y12.8687 I-0.0397 J-0.1185
G1 X28.0628 Y12.9624
G3 X28.0537 Y12.9643 I-0.0307 J-0.1212
G1 X27.6788 Y13.0303
G3 X27.6696 Y13.0315 I-0.0217 J-0.1231
G1 X27.2909 Y13.0695
G3 X27.2817 Y13.0701 I-0.0125 J-0.1244
G1 X26.9012 Y13.0798
G3 X26.8919 Y13.0796 I-0.0032 J-0.125
G1 X26.5118 Y13.0611
G3 X26.5025 Y13.0603 I0.0061 J-0.1249
G1 X26.1248 Y13.0135
G3 X26.1156 Y13.012 I0.0154 J-0.1241
G1 X25.7424 Y12.9373
G3 X25.7334 Y12.9352 I0.0245 J-0.1226
G1 X25.3665 Y12.8329
G1 X24.3836 Y12.5563
G1 X23.3881 Y12.3497
G1 X22.3807 Y12.2127
G1 X21.3662 Y12.1462
G1 X20.3495 Y12.1503
G1 X19.3356 Y12.2252
G1 X18.3293 Y12.3703
G1 X17.3355 Y12.5851
G1 X16.3591 Y12.8685
G1 X15.4048 Y13.219
G1 X14.4772 Y13.6351
G1 X13.7753 Y14.0114
G1 X13.7748 Y14.0117
G1 X13.5785 Y14.1158
G1 X10.3219 Y16.0064
G3 X10.3197 Y16.0077 I-0.0628 J-0.1081
G1 X10.1011 Y16.1288
G3 X10.0967 Y16.1311 I-0.0606 J-0.1093
G1 X9.8734 Y16.2434
G3 X9.8688 Y16.2456 I-0.0562 J-0.1117
G1 X9.6412 Y16.3488
G3 X9.6366 Y16.3508 I-0.0516 J-0.1138
G1 X9.405 Y16.4449
G3 X9.4004 Y16.4466 I-0.047 J-0.1158
G1 X9.1652 Y16.5313
G3 X9.1605 Y16.533 I-0.0424 J-0.1176
G1 X8.9221 Y16.6082
G3 X8.9173 Y16.6096 I-0.0376 J-0.1192
G1 X8.6761 Y16.6752
G3 X8.6713 Y16.6764 I-0.0328 J-0.1206
G1 X8.4277 Y16.7323
G3 X8.4228 Y16.7333 I-0.028 J-0.1218
G1 X8.1771 Y16.7794
G3 X8.1722 Y16.7803 I-0.0231 J-0.1229
G1 X7.9249 Y16.8165
G3 X7.9199 Y16.8171 I-0.0181 J-0.1237
G1 X7.6713 Y16.8434
G3 X7.6664 Y16.8439 I-0.0132 J-0.1243
G1 X7.4169 Y16.8602
G3 X7.4087 Y16.8604 I-0.0082 J-0.1247
G1 X5.4011 Y16.8589
G3 X5.3066 Y16.8156 I0.0001 J-0.125
G1 X4.3361 Y15.6921
G3 X4.3301 Y15.6846 I0.0946 J-0.0817
G1 X3.4488 Y14.4899
G3 X3.4434 Y14.482 I0.1006 J-0.0742
G1 X2.6565 Y13.2231
G3 X2.6517 Y13.2148 I0.106 J-0.0663
G1 X1.9639 Y11.8991
G3 X1.9598 Y11.8904 I0.1108 J-0.0579
G1 X1.3751 Y10.5259
G3 X1.3716 Y10.5169 I0.1149 J-0.0492
G1 X0.8935 Y9.1114
G3 X0.8908 Y9.1022 I0.1183 J-0.0403
G1 X0.522 Y7.6641
G3 X0.52 Y7.6547 I0.1211 J-0.031
G1 X0.2629 Y6.1926
G3 X0.2616 Y6.183 I0.1231 J-0.0216
G1 X0.1176 Y4.7055
G3 X0.117 Y4.6959 I0.1244 J-0.0121
G1 X0.087 Y3.2116
G3 X0.087 Y3.2091 I0.125 J-0.0025
G3 X0.0872 Y3.202 I0.125 J0
G1 X0.1713 Y1.7198
G3 X0.1722 Y1.7102 I0.1248 J0.0071
G1 X0.3699 Y0.2389
G3 X0.5512 Y0.1444 I0.1239 J0.0167
G1 X1.9691 Y0.8767
G1 X3.4137 Y1.5486
G1 X4.8849 Y2.1602
G1 X6.3801 Y2.7104
G1 X7.8968 Y3.1982
G1 X9.4324 Y3.6229
G1 X10.9843 Y3.9836
G1 X12.5497 Y4.2799
G1 X14.1261 Y4.5111
G1 X15.7106 Y4.6769
G1 X17.3007 Y4.777
G1 X18.8949 Y4.8113
G1 Z-0.4 F15
G1 X28.1821 Y4.8191 F20
G3 X28.1944 Y4.8198 I-0.0001 J0.125
G1 X28.2108 Y4.8214
G3 X28.2189 Y4.8225 I-0.0124 J0.1244
G1 X28.2351 Y4.8252
G3 X28.2432 Y4.8268 I-0.0205 J0.1233
G1 X28.2592 Y4.8305
G3 X28.2671 Y4.8326 I-0.0285 J0.1217
G1 X28.2829 Y4.8374
G3 X28.2906 Y4.8401 I-0.0364 J0.1196
G1 X28.3061 Y4.8459
G3 X28.3136 Y4.849 I-0.0441 J0.117
G1 X28.3286 Y4.8558
G3 X28.3359 Y4.8595 I-0.0517 J0.1138
G1 X28.3505 Y4.8672
G3 X28.3576 Y4.8713 I-0.059 J0.1102
G1 X28.3715 Y4.8801
G3 X28.3783 Y4.8846 I-0.0661 J0.1061
G1 X28.3917 Y4.8942
G3 X28.3982 Y4.8992 I-0.0729 J0.1015
G1 X28.411 Y4.9097
G3 X28.4199 Y4.9178 I-0.0794 J0.0966
G1 X28.7519 Y5.2496
G3 X28.7886 Y5.338 I-0.0884 J0.0884
G3 X28.7519 Y5.4264 I-0.125 J0
G1 X28.3618 Y5.8159
G3 X28.3302 Y5.8388 I-0.0883 J-0.0885
G3 X28.3618 Y5.8618 I-0.0569 J0.1113
G1 X31.4773 Y8.9822
G3 X31.5002 Y9.0138 I-0.0885 J0.0883
G3 X31.5232 Y8.9823 I0.1113 J0.0569
G1 X31.9133 Y8.5928
G3 X32.0901 Y8.593 I0.0883 J0.0885
G1 X32.4111 Y8.9152
G3 X32.4262 Y8.9335 I-0.0885 J0.0882
G1 X32.457 Y8.9791
G3 X32.4646 Y8.992 I-0.1036 J0.0699
G1 X32.4897 Y9.0409
G3 X32.4957 Y9.0546 I-0.1112 J0.057
G1 X32.5147 Y9.1062
G3 X32.5191 Y9.1206 I-0.1173 J0.0433
G1 X32.5318 Y9.174
G3 X32.5344 Y9.1888 I-0.1216 J0.029
G1 X32.5406 Y9.2434
G3 X32.5415 Y9.2576 I-0.1242 J0.0142
G1 X32.5415 Y9.2584
G1 X32.5411 Y9.3134
G3 X32.5401 Y9.3283 I-0.125 J-0.0008
G1 X32.5332 Y9.3829
G3 X32.5304 Y9.3976 I-0.124 J-0.0157
G1 X32.517 Y9.4509
G3 X32.5125 Y9.4652 I-0.1212 J-0.0305
G1 X32.4928 Y9.5165
G3 X32.4866 Y9.5302 I-0.1167 J-0.0447
G1 X32.461 Y9.5788
G3 X32.4532 Y9.5916 I-0.1105 J-0.0584
G1 X32.4219 Y9.6368
G3 X32.4126 Y9.6486 I-0.1027 J-0.0712
G1 X32.3761 Y9.6897
G3 X32.371 Y9.6951 I-0.0935 J-0.083
G1 X29.8655 Y12.1975
G3 X29.842 Y12.2159 I-0.0883 J-0.0884
G1 X29.5168 Y12.4135
G3 X29.5086 Y12.4181 I-0.0649 J-0.1068
G1 X29.1696 Y12.5909
G3 X29.1612 Y12.5949 I-0.0568 J-0.1114
G1 X28.8102 Y12.7421
G3 X28.8015 Y12.7454 I-0.0484 J-0.1153
G1 X28.4406 Y12.8661
G3 X28.4317 Y12.8687 I-0.0397 J-0.1185
G1 X28.0628 Y12.9624
G3 X28.0537 Y12.9643 I-0.0307 J-0.1212
G1 X27.6788 Y13.0303
G3 X27.6696 Y13.0315 I-0.0217 J-0.1231
G1 X27.2909 Y13.0695
G3 X27.2817 Y13.0701 I-0.0125 J-0.1244
G1 X26.9012 Y13.0798
G3 X26.8919 Y13.0796 I-0.0032 J-0.125
G1 X26.5118 Y13.0611
G3 X26.5025 Y13.0603 I0.0061 J-0.1249
G1 X26.1248 Y13.0135
G3 X26.1156 Y13.012 I0.0154 J-0.1241
G1 X25.7424 Y12.9373
G3 X25.7334 Y12.9352 I0.0245 J-0.1226
G1 X25.3665 Y12.8329
G1 X24.3836 Y12.5563
G1 X23.3881 Y12.3497
G1 X22.3807 Y12.2127
G1 X21.3662 Y12.1462
G1 X20.3495 Y12.1503
G1 X19.3356 Y12.2252
G1 X18.3293 Y12.3703
G1 X17.3355 Y12.5851
G1 X16.3591 Y12.8685
G1 X15.4048 Y13.219
G1 X14.4772 Y13.6351
G1 X13.7753 Y14.0114
G1 X13.7748 Y14.0117
G1 X13.5785 Y14.1158
G1 X10.3219 Y16.0064
G3 X10.3197 Y16.0077 I-0.0628 J-0.1081
G1 X10.1011 Y16.1288
G3 X10.0967 Y16.1311 I-0.0606 J-0.1093
G1 X9.8734 Y16.2434
G3 X9.8688 Y16.2456 I-0.0562 J-0.1117
G1 X9.6412 Y16.3488
G3 X9.6366 Y16.3508 I-0.0516 J-0.1138
G1 X9.405 Y16.4449
G3 X9.4004 Y16.4466 I-0.047 J-0.1158
G1 X9.1652 Y16.5313
G3 X9.1605 Y16.533 I-0.0424 J-0.1176
G1 X8.9221 Y16.6082
G3 X8.9173 Y16.6096 I-0.0376 J-0.1192
G1 X8.6761 Y16.6752
G3 X8.6713 Y16.6764 I-0.0328 J-0.1206
G1 X8.4277 Y16.7323
G3 X8.4228 Y16.7333 I-0.028 J-0.1218
G1 X8.1771 Y16.7794
G3 X8.1722 Y16.7803 I-0.0231 J-0.1229
G1 X7.9249 Y16.8165
G3 X7.9199 Y16.8171 I-0.0181 J-0.1237
G1 X7.6713 Y16.8434
G3 X7.6664 Y16.8439 I-0.0132 J-0.1243
G1 X7.4169 Y16.8602
G3 X7.4087 Y16.8604 I-0.0082 J-0.1247
G1 X5.4011 Y16.8589
G3 X5.3066 Y16.8156 I0.0001 J-0.125
G1 X4.3361 Y15.6921
G3 X4.3301 Y15.6846 I0.0946 J-0.0817
G1 X3.4488 Y14.4899
G3 X3.4434 Y14.482 I0.1006 J-0.0742
G1 X2.6565 Y13.2231
G3 X2.6517 Y13.2148 I0.106 J-0.0663
G1 X1.9639 Y11.8991
G3 X1.9598 Y11.8904 I0.1108 J-0.0579
G1 X1.3751 Y10.5259
G3 X1.3716 Y10.5169 I0.1149 J-0.0492
G1 X0.8935 Y9.1114
G3 X0.8908 Y9.1022 I0.1183 J-0.0403
G1 X0.522 Y7.6641
G3 X0.52 Y7.6547 I0.1211 J-0.031
G1 X0.2629 Y6.1926
G3 X0.2616 Y6.183 I0.1231 J-0.0216
G1 X0.1176 Y4.7055
G3 X0.117 Y4.6959 I0.1244 J-0.0121
G1 X0.087 Y3.2116
G3 X0.087 Y3.2091 I0.125 J-0.0025
G3 X0.0872 Y3.202 I0.125 J0
G1 X0.1713 Y1.7198
G3 X0.1722 Y1.7102 I0.1248 J0.0071
G1 X0.3699 Y0.2389
G3 X0.5512 Y0.1444 I0.1239 J0.0167
G1 X1.9691 Y0.8767
G1 X3.4137 Y1.5486
G1 X4.8849 Y2.1602
G1 X6.3801 Y2.7104
G1 X7.8968 Y3.1982
G1 X9.4324 Y3.6229
G1 X10.9843 Y3.9836
G1 X12.5497 Y4.2799
G1 X14.1261 Y4.5111
G1 X15.7106 Y4.6769
G1 X17.3007 Y4.777
G1 X18.8949 Y4.8113
G1 Z-0.5 F15
G1 X28.1821 Y4.8191 F20
G3 X28.1944 Y4.8198 I-0.0001 J0.125
G1 X28.2108 Y4.8214
G3 X28.2189 Y4.8225 I-0.0124 J0.1244
G1 X28.2351 Y4.8252
G3 X28.2432 Y4.8268 I-0.0205 J0.1233
G1 X28.2592 Y4.8305
G3 X28.2671 Y4.8326 I-0.0285 J0.1217
G1 X28.2829 Y4.8374
G3 X28.2906 Y4.8401 I-0.0364 J0.1196
G1 X28.3061 Y4.8459
G3 X28.3136 Y4.849 I-0.0441 J0.117
G1 X28.3286 Y4.8558
G3 X28.3359 Y4.8595 I-0.0517 J0.1138
G1 X28.3505 Y4.8672
G3 X28.3576 Y4.8713 I-0.059 J0.1102
G1 X28.3715 Y4.8801
G3 X28.3783 Y4.8846 I-0.0661 J0.1061
G1 X28.3917 Y4.8942
G3 X28.3982 Y4.8992 I-0.0729 J0.1015
G1 X28.411 Y4.9097
G3 X28.4199 Y4.9178 I-0.0794 J0.0966
G1 X28.7519 Y5.2496
G3 X28.7886 Y5.338 I-0.0884 J0.0884
G3 X28.7519 Y5.4264 I-0.125 J0
G1 X28.3618 Y5.8159
G3 X28.3302 Y5.8388 I-0.0883 J-0.0885
G3 X28.3618 Y5.8618 I-0.0569 J0.1113
G1 X31.4773 Y8.9822
G3 X31.5002 Y9.0138 I-0.0885 J0.0883
G3 X31.5232 Y8.9823 I0.1113 J0.0569
G1 X31.9133 Y8.5928
G3 X32.0901 Y8.593 I0.0883 J0.0885
G1 X32.4111 Y8.9152
G3 X32.4262 Y8.9335 I-0.0885 J0.0882
G1 X32.457 Y8.9791
G3 X32.4646 Y8.992 I-0.1036 J0.0699
G1 X32.4897 Y9.0409
G3 X32.4957 Y9.0546 I-0.1112 J0.057
G1 X32.5147 Y9.1062
G3 X32.5191 Y9.1206 I-0.1173 J0.0433
G1 X32.5318 Y9.174
G3 X32.5344 Y9.1888 I-0.1216 J0.029
G1 X32.5406 Y9.2434
G3 X32.5415 Y9.2576 I-0.1242 J0.0142
G1 X32.5415 Y9.2584
G1 X32.5411 Y9.3134
G3 X32.5401 Y9.3283 I-0.125 J-0.0008
G1 X32.5332 Y9.3829
G3 X32.5304 Y9.3976 I-0.124 J-0.0157
G1 X32.517 Y9.4509
G3 X32.5125 Y9.4652 I-0.1212 J-0.0305
G1 X32.4928 Y9.5165
G3 X32.4866 Y9.5302 I-0.1167 J-0.0447
G1 X32.461 Y9.5788
G3 X32.4532 Y9.5916 I-0.1105 J-0.0584
G1 X32.4219 Y9.6368
G3 X32.4126 Y9.6486 I-0.1027 J-0.0712
G1 X32.3761 Y9.6897
G3 X32.371 Y9.6951 I-0.0935 J-0.083
G1 X29.8655 Y12.1975
G3 X29.842 Y12.2159 I-0.0883 J-0.0884
G1 X29.5168 Y12.4135
G3 X29.5086 Y12.4181 I-0.0649 J-0.1068
G1 X29.1696 Y12.5909
G3 X29.1612 Y12.5949 I-0.0568 J-0.1114
G1 X28.8102 Y12.7421
G3 X28.8015 Y12.7454 I-0.0484 J-0.1153
G1 X28.4406 Y12.8661
G3 X28.4317 Y12.8687 I-0.0397 J-0.1185
G1 X28.0628 Y12.9624
G3 X28.0537 Y12.9643 I-0.0307 J-0.1212
G1 X27.6788 Y13.0303
G3 X27.6696 Y13.0315 I-0.0217 J-0.1231
G1 X27.2909 Y13.0695
G3 X27.2817 Y13.0701 I-0.0125 J-0.1244
G1 X26.9012 Y13.0798
G3 X26.8919 Y13.0796 I-0.0032 J-0.125
G1 X26.5118 Y13.0611
G3 X26.5025 Y13.0603 I0.0061 J-0.1249
G1 X26.1248 Y13.0135
G3 X26.1156 Y13.012 I0.0154 J-0.1241
G1 X25.7424 Y12.9373
G3 X25.7334 Y12.9352 I0.0245 J-0.1226
G1 X25.3665 Y12.8329
G1 X24.3836 Y12.5563
G1 X23.3881 Y12.3497
G1 X22.3807 Y12.2127
G1 X21.3662 Y12.1462
G1 X20.3495 Y12.1503
G1 X19.3356 Y12.2252
G1 X18.3293 Y12.3703
G1 X17.3355 Y12.5851
G1 X16.3591 Y12.8685
G1 X15.4048 Y13.219
G1 X14.4772 Y13.6351
G1 X13.7753 Y14.0114
G1 X13.7748 Y14.0117
G1 X13.5785 Y14.1158
G1 X10.3219 Y16.0064
G3 X10.3197 Y16.0077 I-0.0628 J-0.1081
G1 X10.1011 Y16.1288
G3 X10.0967 Y16.1311 I-0.0606 J-0.1093
G1 X9.8734 Y16.2434
G3 X9.8688 Y16.2456 I-0.0562 J-0.1117
G1 X9.6412 Y16.3488
G3 X9.6366 Y16.3508 I-0.0516 J-0.1138
G1 X9.405 Y16.4449
G3 X9.4004 Y16.4466 I-0.047 J-0.1158
G1 X9.1652 Y16.5313
G3 X9.1605 Y16.533 I-0.0424 J-0.1176
G1 X8.9221 Y16.6082
G3 X8.9173 Y16.6096 I-0.0376 J-0.1192
G1 X8.6761 Y16.6752
G3 X8.6713 Y16.6764 I-0.0328 J-0.1206
G1 X8.4277 Y16.7323
G3 X8.4228 Y16.7333 I-0.028 J-0.1218
G1 X8.1771 Y16.7794
G3 X8.1722 Y16.7803 I-0.0231 J-0.1229
G1 X7.9249 Y16.8165
G3 X7.9199 Y16.8171 I-0.0181 J-0.1237
G1 X7.6713 Y16.8434
G3 X7.6664 Y16.8439 I-0.0132 J-0.1243
G1 X7.4169 Y16.8602
G3 X7.4087 Y16.8604 I-0.0082 J-0.1247
G1 X5.4011 Y16.8589
G3 X5.3066 Y16.8156 I0.0001 J-0.125
G1 X4.3361 Y15.6921
G3 X4.3301 Y15.6846 I0.0946 J-0.0817
G1 X3.4488 Y14.4899
G3 X3.4434 Y14.482 I0.1006 J-0.0742
G1 X2.6565 Y13.2231
G3 X2.6517 Y13.2148 I0.106 J-0.0663
G1 X1.9639 Y11.8991
G3 X1.9598 Y11.8904 I0.1108 J-0.0579
G1 X1.3751 Y10.5259
G3 X1.3716 Y10.5169 I0.1149 J-0.0492
G1 X0.8935 Y9.1114
G3 X0.8908 Y9.1022 I0.1183 J-0.0403
G1 X0.522 Y7.6641
G3 X0.52 Y7.6547 I0.1211 J-0.031
G1 X0.2629 Y6.1926
G3 X0.2616 Y6.183 I0.1231 J-0.0216
G1 X0.1176 Y4.7055
G3 X0.117 Y4.6959 I0.1244 J-0.0121
G1 X0.087 Y3.2116
G3 X0.087 Y3.2091 I0.125 J-0.0025
G3 X0.0872 Y3.202 I0.125 J0
G1 X0.1713 Y1.7198
G3 X0.1722 Y1.7102 I0.1248 J0.0071
G1 X0.3699 Y0.2389
G3 X0.5512 Y0.1444 I0.1239 J0.0167
G1 X1.9691 Y0.8767
G1 X3.4137 Y1.5486
G1 X4.8849 Y2.1602
G1 X6.3801 Y2.7104
G1 X7.8968 Y3.1982
G1 X9.4324 Y3.6229
G1 X10.9843 Y3.9836
G1 X12.5497 Y4.2799
G1 X14.1261 Y4.5111
G1 X15.7106 Y4.6769
G1 X17.3007 Y4.777
G1 X18.8949 Y4.8113
G1 Z-0.6 F15
G1 X28.1821 Y4.8191 F20
G3 X28.1944 Y4.8198 I-0.0001 J0.125
G1 X28.2108 Y4.8214
G3 X28.2189 Y4.8225 I-0.0124 J0.1244
G1 X28.2351 Y4.8252
G3 X28.2432 Y4.8268 I-0.0205 J0.1233
G1 X28.2592 Y4.8305
G3 X28.2671 Y4.8326 I-0.0285 J0.1217
G1 X28.2829 Y4.8374
G3 X28.2906 Y4.8401 I-0.0364 J0.1196
G1 X28.3061 Y4.8459
G3 X28.3136 Y4.849 I-0.0441 J0.117
G1 X28.3286 Y4.8558
G3 X28.3359 Y4.8595 I-0.0517 J0.1138
G1 X28.3505 Y4.8672
G3 X28.3576 Y4.8713 I-0.059 J0.1102
G1 X28.3715 Y4.8801
G3 X28.3783 Y4.8846 I-0.0661 J0.1061
G1 X28.3917 Y4.8942
G3 X28.3982 Y4.8992 I-0.0729 J0.1015
G1 X28.411 Y4.9097
G3 X28.4199 Y4.9178 I-0.0794 J0.0966
G1 X28.7519 Y5.2496
G3 X28.7886 Y5.338 I-0.0884 J0.0884
G3 X28.7519 Y5.4264 I-0.125 J0
G1 X28.3618 Y5.8159
G3 X28.3302 Y5.8388 I-0.0883 J-0.0885
G3 X28.3618 Y5.8618 I-0.0569 J0.1113
G1 X31.4773 Y8.9822
G3 X31.5002 Y9.0138 I-0.0885 J0.0883
G3 X31.5232 Y8.9823 I0.1113 J0.0569
G1 X31.9133 Y8.5928
G3 X32.0901 Y8.593 I0.0883 J0.0885
G1 X32.4111 Y8.9152
G3 X32.4262 Y8.9335 I-0.0885 J0.0882
G1 X32.457 Y8.9791
G3 X32.4646 Y8.992 I-0.1036 J0.0699
G1 X32.4897 Y9.0409
G3 X32.4957 Y9.0546 I-0.1112 J0.057
G1 X32.5147 Y9.1062
G3 X32.5191 Y9.1206 I-0.1173 J0.0433
G1 X32.5318 Y9.174
G3 X32.5344 Y9.1888 I-0.1216 J0.029
G1 X32.5406 Y9.2434
G3 X32.5415 Y9.2576 I-0.1242 J0.0142
G1 X32.5415 Y9.2584
G1 X32.5411 Y9.3134
G3 X32.5401 Y9.3283 I-0.125 J-0.0008
G1 X32.5332 Y9.3829
G3 X32.5304 Y9.3976 I-0.124 J-0.0157
G1 X32.517 Y9.4509
G3 X32.5125 Y9.4652 I-0.1212 J-0.0305
G1 X32.4928 Y9.5165
G3 X32.4866 Y9.5302 I-0.1167 J-0.0447
G1 X32.461 Y9.5788
G3 X32.4532 Y9.5916 I-0.1105 J-0.0584
G1 X32.4219 Y9.6368
G3 X32.4126 Y9.6486 I-0.1027 J-0.0712
G1 X32.3761 Y9.6897
G3 X32.371 Y9.6951 I-0.0935 J-0.083
G1 X29.8655 Y12.1975
G3 X29.842 Y12.2159 I-0.0883 J-0.0884
G1 X29.5168 Y12.4135
G3 X29.5086 Y12.4181 I-0.0649 J-0.1068
G1 X29.1696 Y12.5909
G3 X29.1612 Y12.5949 I-0.0568 J-0.1114
G1 X28.8102 Y12.7421
G3 X28.8015 Y12.7454 I-0.0484 J-0.1153
G1 X28.4406 Y12.8661
G3 X28.4317 Y12.8687 I-0.0397 J-0.1185
G1 X28.0628 Y12.9624
G3 X28.0537 Y12.9643 I-0.0307 J-0.1212
G1 X27.6788 Y13.0303
G3 X27.6696 Y13.0315 I-0.0217 J-0.1231
G1 X27.2909 Y13.0695
G3 X27.2817 Y13.0701 I-0.0125 J-0.1244
G1 X26.9012 Y13.0798
G3 X26.8919 Y13.0796 I-0.0032 J-0.125
G1 X26.5118 Y13.0611
G3 X26.5025 Y13.0603 I0.0061 J-0.1249
G1 X26.1248 Y13.0135
G3 X26.1156 Y13.012 I0.0154 J-0.1241
G1 X25.7424 Y12.9373
G3 X25.7334 Y12.9352 I0.0245 J-0.1226
G1 X25.3665 Y12.8329
G1 X24.3836 Y12.5563
G1 X23.3881 Y12.3497
G1 X22.3807 Y12.2127
G1 X21.3662 Y12.1462
G1 X20.3495 Y12.1503
G1 X19.3356 Y12.2252
G1 X18.3293 Y12.3703
G1 X17.3355 Y12.5851
G1 X16.3591 Y12.8685
G1 X15.4048 Y13.219
G1 X14.4772 Y13.6351
G1 X13.7753 Y14.0114
G1 X13.7748 Y14.0117
G1 X13.5785 Y14.1158
G1 X10.3219 Y16.0064
G3 X10.3197 Y16.0077 I-0.0628 J-0.1081
G1 X10.1011 Y16.1288
G3 X10.0967 Y16.1311 I-0.0606 J-0.1093
G1 X9.8734 Y16.2434
G3 X9.8688 Y16.2456 I-0.0562 J-0.1117
G1 X9.6412 Y16.3488
G3 X9.6366 Y16.3508 I-0.0516 J-0.1138
G1 X9.405 Y16.4449
G3 X9.4004 Y16.4466 I-0.047 J-0.1158
G1 X9.1652 Y16.5313
G3 X9.1605 Y16.533 I-0.0424 J-0.1176
G1 X8.9221 Y16.6082
G3 X8.9173 Y16.6096 I-0.0376 J-0.1192
G1 X8.6761 Y16.6752
G3 X8.6713 Y16.6764 I-0.0328 J-0.1206
G1 X8.4277 Y16.7323
G3 X8.4228 Y16.7333 I-0.028 J-0.1218
G1 X8.1771 Y16.7794
G3 X8.1722 Y16.7803 I-0.0231 J-0.1229
G1 X7.9249 Y16.8165
G3 X7.9199 Y16.8171 I-0.0181 J-0.1237
G1 X7.6713 Y16.8434
G3 X7.6664 Y16.8439 I-0.0132 J-0.1243
G1 X7.4169 Y16.8602
G3 X7.4087 Y16.8604 I-0.0082 J-0.1247
G1 X5.4011 Y16.8589
G3 X5.3066 Y16.8156 I0.0001 J-0.125
G1 X4.3361 Y15.6921
G3 X4.3301 Y15.6846 I0.0946 J-0.0817
G1 X3.4488 Y14.4899
G3 X3.4434 Y14.482 I0.1006 J-0.0742
G1 X2.6565 Y13.2231
G3 X2.6517 Y13.2148 I0.106 J-0.0663
G1 X1.9639 Y11.8991
G3 X1.9598 Y11.8904 I0.1108 J-0.0579
G1 X1.3751 Y10.5259
G3 X1.3716 Y10.5169 I0.1149 J-0.0492
G1 X0.8935 Y9.1114
G3 X0.8908 Y9.1022 I0.1183 J-0.0403
G1 X0.522 Y7.6641
G3 X0.52 Y7.6547 I0.1211 J-0.031
G1 X0.2629 Y6.1926
G3 X0.2616 Y6.183 I0.1231 J-0.0216
G1 X0.1176 Y4.7055
G3 X0.117 Y4.6959 I0.1244 J-0.0121
G1 X0.087 Y3.2116
G3 X0.087 Y3.2091 I0.125 J-0.0025
G3 X0.0872 Y3.202 I0.125 J0
G1 X0.1713 Y1.7198
G3 X0.1722 Y1.7102 I0.1248 J0.0071
G1 X0.3699 Y0.2389
G3 X0.5512 Y0.1444 I0.1239 J0.0167
G1 X1.9691 Y0.8767
G1 X3.4137 Y1.5486
G1 X4.8849 Y2.1602
G1 X6.3801 Y2.7104
G1 X7.8968 Y3.1982
G1 X9.4324 Y3.6229
G1 X10.9843 Y3.9836
G1 X12.5497 Y4.2799
G1 X14.1261 Y4.5111
G1 X15.7106 Y4.6769
G1 X17.3007 Y4.777
G1 X18.8949 Y4.8113
G1 Z-0.7 F15
G1 X28.1821 Y4.8191 F20
G3 X28.1944 Y4.8198 I-0.0001 J0.125
G1 X28.2108 Y4.8214
G3 X28.2189 Y4.8225 I-0.0124 J0.1244
G1 X28.2351 Y4.8252
G3 X28.2432 Y4.8268 I-0.0205 J0.1233
G1 X28.2592 Y4.8305
G3 X28.2671 Y4.8326 I-0.0285 J0.1217
G1 X28.2829 Y4.8374
G3 X28.2906 Y4.8401 I-0.0364 J0.1196
G1 X28.3061 Y4.8459
G3 X28.3136 Y4.849 I-0.0441 J0.117
G1 X28.3286 Y4.8558
G3 X28.3359 Y4.8595 I-0.0517 J0.1138
G1 X28.3505 Y4.8672
G3 X28.3576 Y4.8713 I-0.059 J0.1102
G1 X28.3715 Y4.8801
G3 X28.3783 Y4.8846 I-0.0661 J0.1061
G1 X28.3917 Y4.8942
G3 X28.3982 Y4.8992 I-0.0729 J0.1015
G1 X28.411 Y4.9097
G3 X28.4199 Y4.9178 I-0.0794 J0.0966
G1 X28.7519 Y5.2496
G3 X28.7886 Y5.338 I-0.0884 J0.0884
G3 X28.7519 Y5.4264 I-0.125 J0
G1 X28.3618 Y5.8159
G3 X28.3302 Y5.8388 I-0.0883 J-0.0885
G3 X28.3618 Y5.8618 I-0.0569 J0.1113
G1 X31.4773 Y8.9822
G3 X31.5002 Y9.0138 I-0.0885 J0.0883
G3 X31.5232 Y8.9823 I0.1113 J0.0569
G1 X31.9133 Y8.5928
G3 X32.0901 Y8.593 I0.0883 J0.0885
G1 X32.4111 Y8.9152
G3 X32.4262 Y8.9335 I-0.0885 J0.0882
G1 X32.457 Y8.9791
G3 X32.4646 Y8.992 I-0.1036 J0.0699
G1 X32.4897 Y9.0409
G3 X32.4957 Y9.0546 I-0.1112 J0.057
G1 X32.5147 Y9.1062
G3 X32.5191 Y9.1206 I-0.1173 J0.0433
G1 X32.5318 Y9.174
G3 X32.5344 Y9.1888 I-0.1216 J0.029
G1 X32.5406 Y9.2434
G3 X32.5415 Y9.2576 I-0.1242 J0.0142
G1 X32.5415 Y9.2584
G1 X32.5411 Y9.3134
G3 X32.5401 Y9.3283 I-0.125 J-0.0008
G1 X32.5332 Y9.3829
G3 X32.5304 Y9.3976 I-0.124 J-0.0157
G1 X32.517 Y9.4509
G3 X32.5125 Y9.4652 I-0.1212 J-0.0305
G1 X32.4928 Y9.5165
G3 X32.4866 Y9.5302 I-0.1167 J-0.0447
G1 X32.461 Y9.5788
G3 X32.4532 Y9.5916 I-0.1105 J-0.0584
G1 X32.4219 Y9.6368
G3 X32.4126 Y9.6486 I-0.1027 J-0.0712
G1 X32.3761 Y9.6897
G3 X32.371 Y9.6951 I-0.0935 J-0.083
G1 X29.8655 Y12.1975
G3 X29.842 Y12.2159 I-0.0883 J-0.0884
G1 X29.5168 Y12.4135
G3 X29.5086 Y12.4181 I-0.0649 J-0.1068
G1 X29.1696 Y12.5909
G3 X29.1612 Y12.5949 I-0.0568 J-0.1114
G1 X28.8102 Y12.7421
G3 X28.8015 Y12.7454 I-0.0484 J-0.1153
G1 X28.4406 Y12.8661
G3 X28.4317 Y12.8687 I-0.0397 J-0.1185
G1 X28.0628 Y12.9624
G3 X28.0537 Y12.9643 I-0.0307 J-0.1212
G1 X27.6788 Y13.0303
G3 X27.6696 Y13.0315 I-0.0217 J-0.1231
G1 X27.2909 Y13.0695
G3 X27.2817 Y13.0701 I-0.0125 J-0.1244
G1 X26.9012 Y13.0798
G3 X26.8919 Y13.0796 I-0.0032 J-0.125
G1 X26.5118 Y13.0611
G3 X26.5025 Y13.0603 I0.0061 J-0.1249
G1 X26.1248 Y13.0135
G3 X26.1156 Y13.012 I0.0154 J-0.1241
G1 X25.7424 Y12.9373
G3 X25.7334 Y12.9352 I0.0245 J-0.1226
G1 X25.3665 Y12.8329
G1 X24.3836 Y12.5563
G1 X23.3881 Y12.3497
G1 X22.3807 Y12.2127
G1 X21.3662 Y12.1462
G1 X20.3495 Y12.1503
G1 X19.3356 Y12.2252
G1 X18.3293 Y12.3703
G1 X17.3355 Y12.5851
G1 X16.3591 Y12.8685
G1 X15.4048 Y13.219
G1 X14.4772 Y13.6351
G1 X13.7753 Y14.0114
G1 X13.7748 Y14.0117
G1 X13.5785 Y14.1158
G1 X10.3219 Y16.0064
G3 X10.3197 Y16.0077 I-0.0628 J-0.1081
G1 X10.1011 Y16.1288
G3 X10.0967 Y16.1311 I-0.0606 J-0.1093
G1 X9.8734 Y16.2434
G3 X9.8688 Y16.2456 I-0.0562 J-0.1117
G1 X9.6412 Y16.3488
G3 X9.6366 Y16.3508 I-0.0516 J-0.1138
G1 X9.405 Y16.4449
G3 X9.4004 Y16.4466 I-0.047 J-0.1158
G1 X9.1652 Y16.5313
G3 X9.1605 Y16.533 I-0.0424 J-0.1176
G1 X8.9221 Y16.6082
G3 X8.9173 Y16.6096 I-0.0376 J-0.1192
G1 X8.6761 Y16.6752
G3 X8.6713 Y16.6764 I-0.0328 J-0.1206
G1 X8.4277 Y16.7323
G3 X8.4228 Y16.7333 I-0.028 J-0.1218
G1 X8.1771 Y16.7794
G3 X8.1722 Y16.7803 I-0.0231 J-0.1229
G1 X7.9249 Y16.8165
G3 X7.9199 Y16.8171 I-0.0181 J-0.1237
G1 X7.6713 Y16.8434
G3 X7.6664 Y16.8439 I-0.0132 J-0.1243
G1 X7.4169 Y16.8602
G3 X7.4087 Y16.8604 I-0.0082 J-0.1247
G1 X5.4011 Y16.8589
G3 X5.3066 Y16.8156 I0.0001 J-0.125
G1 X4.3361 Y15.6921
G3 X4.3301 Y15.6846 I0.0946 J-0.0817
G1 X3.4488 Y14.4899
G3 X3.4434 Y14.482 I0.1006 J-0.0742
G1 X2.6565 Y13.2231
G3 X2.6517 Y13.2148 I0.106 J-0.0663
G1 X1.9639 Y11.8991
G3 X1.9598 Y11.8904 I0.1108 J-0.0579
G1 X1.3751 Y10.5259
G3 X1.3716 Y10.5169 I0.1149 J-0.0492
G1 X0.8935 Y9.1114
G3 X0.8908 Y9.1022 I0.1183 J-0.0403
G1 X0.522 Y7.6641
G3 X0.52 Y7.6547 I0.1211 J-0.031
G1 X0.2629 Y6.1926
G3 X0.2616 Y6.183 I0.1231 J-0.0216
G1 X0.1176 Y4.7055
G3 X0.117 Y4.6959 I0.1244 J-0.0121
G1 X0.087 Y3.2116
G3 X0.087 Y3.2091 I0.125 J-0.0025
G3 X0.0872 Y3.202 I0.125 J0
G1 X0.1713 Y1.7198
G3 X0.1722 Y1.7102 I0.1248 J0.0071
G1 X0.3699 Y0.2389
G3 X0.5512 Y0.1444 I0.1239 J0.0167
G1 X1.9691 Y0.8767
G1 X3.4137 Y1.5486
G1 X4.8849 Y2.1602
G1 X6.3801 Y2.7104
G1 X7.8968 Y3.1982
G1 X9.4324 Y3.6229
G1 X10.9843 Y3.9836
G1 X12.5497 Y4.2799
G1 X14.1261 Y4.5111
G1 X15.7106 Y4.6769
G1 X17.3007 Y4.777
G1 X18.8949 Y4.8113
G1 Z-0.8 F15
G1 X28.1821 Y4.8191 F20
G3 X28.1944 Y4.8198 I-0.0001 J0.125
G1 X28.2108 Y4.8214
G3 X28.2189 Y4.8225 I-0.0124 J0.1244
G1 X28.2351 Y4.8252
G3 X28.2432 Y4.8268 I-0.0205 J0.1233
G1 X28.2592 Y4.8305
G3 X28.2671 Y4.8326 I-0.0285 J0.1217
G1 X28.2829 Y4.8374
G3 X28.2906 Y4.8401 I-0.0364 J0.1196
G1 X28.3061 Y4.8459
G3 X28.3136 Y4.849 I-0.0441 J0.117
G1 X28.3286 Y4.8558
G3 X28.3359 Y4.8595 I-0.0517 J0.1138
G1 X28.3505 Y4.8672
G3 X28.3576 Y4.8713 I-0.059 J0.1102
G1 X28.3715 Y4.8801
G3 X28.3783 Y4.8846 I-0.0661 J0.1061
G1 X28.3917 Y4.8942
G3 X28.3982 Y4.8992 I-0.0729 J0.1015
G1 X28.411 Y4.9097
G3 X28.4199 Y4.9178 I-0.0794 J0.0966
G1 X28.7519 Y5.2496
G3 X28.7886 Y5.338 I-0.0884 J0.0884
G3 X28.7519 Y5.4264 I-0.125 J0
G1 X28.3618 Y5.8159
G3 X28.3302 Y5.8388 I-0.0883 J-0.0885
G3 X28.3618 Y5.8618 I-0.0569 J0.1113
G1 X31.4773 Y8.9822
G3 X31.5002 Y9.0138 I-0.0885 J0.0883
G3 X31.5232 Y8.9823 I0.1113 J0.0569
G1 X31.9133 Y8.5928
G3 X32.0901 Y8.593 I0.0883 J0.0885
G1 X32.4111 Y8.9152
G3 X32.4262 Y8.9335 I-0.0885 J0.0882
G1 X32.457 Y8.9791
G3 X32.4646 Y8.992 I-0.1036 J0.0699
G1 X32.4897 Y9.0409
G3 X32.4957 Y9.0546 I-0.1112 J0.057
G1 X32.5147 Y9.1062
G3 X32.5191 Y9.1206 I-0.1173 J0.0433
G1 X32.5318 Y9.174
G3 X32.5344 Y9.1888 I-0.1216 J0.029
G1 X32.5406 Y9.2434
G3 X32.5415 Y9.2576 I-0.1242 J0.0142
G1 X32.5415 Y9.2584
G1 X32.5411 Y9.3134
G3 X32.5401 Y9.3283 I-0.125 J-0.0008
G1 X32.5332 Y9.3829
G3 X32.5304 Y9.3976 I-0.124 J-0.0157
G1 X32.517 Y9.4509
G3 X32.5125 Y9.4652 I-0.1212 J-0.0305
G1 X32.4928 Y9.5165
G3 X32.4866 Y9.5302 I-0.1167 J-0.0447
G1 X32.461 Y9.5788
G3 X32.4532 Y9.5916 I-0.1105 J-0.0584
G1 X32.4219 Y9.6368
G3 X32.4126 Y9.6486 I-0.1027 J-0.0712
G1 X32.3761 Y9.6897
G3 X32.371 Y9.6951 I-0.0935 J-0.083
G1 X29.8655 Y12.1975
G3 X29.842 Y12.2159 I-0.0883 J-0.0884
G1 X29.5168 Y12.4135
G3 X29.5086 Y12.4181 I-0.0649 J-0.1068
G1 X29.1696 Y12.5909
G3 X29.1612 Y12.5949 I-0.0568 J-0.1114
G1 X28.8102 Y12.7421
G3 X28.8015 Y12.7454 I-0.0484 J-0.1153
G1 X28.4406 Y12.8661
G3 X28.4317 Y12.8687 I-0.0397 J-0.1185
G1 X28.0628 Y12.9624
G3 X28.0537 Y12.9643 I-0.0307 J-0.1212
G1 X27.6788 Y13.0303
G3 X27.6696 Y13.0315 I-0.0217 J-0.1231
G1 X27.2909 Y13.0695
G3 X27.2817 Y13.0701 I-0.0125 J-0.1244
G1 X26.9012 Y13.0798
G3 X26.8919 Y13.0796 I-0.0032 J-0.125
G1 X26.5118 Y13.0611
G3 X26.5025 Y13.0603 I0.0061 J-0.1249
G1 X26.1248 Y13.0135
G3 X26.1156 Y13.012 I0.0154 J-0.1241
G1 X25.7424 Y12.9373
G3 X25.7334 Y12.9352 I0.0245 J-0.1226
G1 X25.3665 Y12.8329
G1 X24.3836 Y12.5563
G1 X23.3881 Y12.3497
G1 X22.3807 Y12.2127
G1 X21.3662 Y12.1462
G1 X20.3495 Y12.1503
G1 X19.3356 Y12.2252
G1 X18.3293 Y12.3703
G1 X17.3355 Y12.5851
G1 X16.3591 Y12.8685
G1 X15.4048 Y13.219
G1 X14.4772 Y13.6351
G1 X13.7753 Y14.0114
G1 X13.7748 Y14.0117
G1 X13.5785 Y14.1158
G1 X10.3219 Y16.0064
G3 X10.3197 Y16.0077 I-0.0628 J-0.1081
G1 X10.1011 Y16.1288
G3 X10.0967 Y16.1311 I-0.0606 J-0.1093
G1 X9.8734 Y16.2434
G3 X9.8688 Y16.2456 I-0.0562 J-0.1117
G1 X9.6412 Y16.3488
G3 X9.6366 Y16.3508 I-0.0516 J-0.1138
G1 X9.405 Y16.4449
G3 X9.4004 Y16.4466 I-0.047 J-0.1158
G1 X9.1652 Y16.5313
G3 X9.1605 Y16.533 I-0.0424 J-0.1176
G1 X8.9221 Y16.6082
G3 X8.9173 Y16.6096 I-0.0376 J-0.1192
G1 X8.6761 Y16.6752
G3 X8.6713 Y16.6764 I-0.0328 J-0.1206
G1 X8.4277 Y16.7323
G3 X8.4228 Y16.7333 I-0.028 J-0.1218
G1 X8.1771 Y16.7794
G3 X8.1722 Y16.7803 I-0.0231 J-0.1229
G1 X7.9249 Y16.8165
G3 X7.9199 Y16.8171 I-0.0181 J-0.1237
G1 X7.6713 Y16.8434
G3 X7.6664 Y16.8439 I-0.0132 J-0.1243
G1 X7.4169 Y16.8602
G3 X7.4087 Y16.8604 I-0.0082 J-0.1247
G1 X5.4011 Y16.8589
G3 X5.3066 Y16.8156 I0.0001 J-0.125
G1 X4.3361 Y15.6921
G3 X4.3301 Y15.6846 I0.0946 J-0.0817
G1 X3.4488 Y14.4899
G3 X3.4434 Y14.482 I0.1006 J-0.0742
G1 X2.6565 Y13.2231
G3 X2.6517 Y13.2148 I0.106 J-0.0663
G1 X1.9639 Y11.8991
G3 X1.9598 Y11.8904 I0.1108 J-0.0579
G1 X1.3751 Y10.5259
G3 X1.3716 Y10.5169 I0.1149 J-0.0492
G1 X0.8935 Y9.1114
G3 X0.8908 Y9.1022 I0.1183 J-0.0403
G1 X0.522 Y7.6641
G3 X0.52 Y7.6547 I0.1211 J-0.031
G1 X0.2629 Y6.1926
G3 X0.2616 Y6.183 I0.1231 J-0.0216
G1 X0.1176 Y4.7055
G3 X0.117 Y4.6959 I0.1244 J-0.0121
G1 X0.087 Y3.2116
G3 X0.087 Y3.2091 I0.125 J-0.0025
G3 X0.0872 Y3.202 I0.125 J0
G1 X0.1713 Y1.7198
G3 X0.1722 Y1.7102 I0.1248 J0.0071
G1 X0.3699 Y0.2389
G3 X0.5512 Y0.1444 I0.1239 J0.0167
G1 X1.9691 Y0.8767
G1 X3.4137 Y1.5486
G1 X4.8849 Y2.1602
G1 X6.3801 Y2.7104
G1 X7.8968 Y3.1982
G1 X9.4324 Y3.6229
G1 X10.9843 Y3.9836
G1 X12.5497 Y4.2799
G1 X14.1261 Y4.5111
G1 X15.7106 Y4.6769
G1 X17.3007 Y4.777
G1 X18.8949 Y4.8113
G1 Z-0.85 F15
G1 X28.1821 Y4.8191 F20
G3 X28.1944 Y4.8198 I-0.0001 J0.125
G1 X28.2108 Y4.8214
G3 X28.2189 Y4.8225 I-0.0124 J0.1244
G1 X28.2351 Y4.8252
G3 X28.2432 Y4.8268 I-0.0205 J0.1233
G1 X28.2592 Y4.8305
G3 X28.2671 Y4.8326 I-0.0285 J0.1217
G1 X28.2829 Y4.8374
G3 X28.2906 Y4.8401 I-0.0364 J0.1196
G1 X28.3061 Y4.8459
G3 X28.3136 Y4.849 I-0.0441 J0.117
G1 X28.3286 Y4.8558
G3 X28.3359 Y4.8595 I-0.0517 J0.1138
G1 X28.3505 Y4.8672
G3 X28.3576 Y4.8713 I-0.059 J0.1102
G1 X28.3715 Y4.8801
G3 X28.3783 Y4.8846 I-0.0661 J0.1061
G1 X28.3917 Y4.8942
G3 X28.3982 Y4.8992 I-0.0729 J0.1015
G1 X28.411 Y4.9097
G3 X28.4199 Y4.9178 I-0.0794 J0.0966
G1 X28.7519 Y5.2496
G3 X28.7886 Y5.338 I-0.0884 J0.0884
G3 X28.7519 Y5.4264 I-0.125 J0
G1 X28.3618 Y5.8159
G3 X28.3302 Y5.8388 I-0.0883 J-0.0885
G3 X28.3618 Y5.8618 I-0.0569 J0.1113
G1 X31.4773 Y8.9822
G3 X31.5002 Y9.0138 I-0.0885 J0.0883
G3 X31.5232 Y8.9823 I0.1113 J0.0569
G1 X31.9133 Y8.5928
G3 X32.0901 Y8.593 I0.0883 J0.0885
G1 X32.4111 Y8.9152
G3 X32.4262 Y8.9335 I-0.0885 J0.0882
G1 X32.457 Y8.9791
G3 X32.4646 Y8.992 I-0.1036 J0.0699
G1 X32.4897 Y9.0409
G3 X32.4957 Y9.0546 I-0.1112 J0.057
G1 X32.5147 Y9.1062
G3 X32.5191 Y9.1206 I-0.1173 J0.0433
G1 X32.5318 Y9.174
G3 X32.5344 Y9.1888 I-0.1216 J0.029
G1 X32.5406 Y9.2434
G3 X32.5415 Y9.2576 I-0.1242 J0.0142
G1 X32.5415 Y9.2584
G1 X32.5411 Y9.3134
G3 X32.5401 Y9.3283 I-0.125 J-0.0008
G1 X32.5332 Y9.3829
G3 X32.5304 Y9.3976 I-0.124 J-0.0157
G1 X32.517 Y9.4509
G3 X32.5125 Y9.4652 I-0.1212 J-0.0305
G1 X32.4928 Y9.5165
G3 X32.4866 Y9.5302 I-0.1167 J-0.0447
G1 X32.461 Y9.5788
G3 X32.4532 Y9.5916 I-0.1105 J-0.0584
G1 X32.4219 Y9.6368
G3 X32.4126 Y9.6486 I-0.1027 J-0.0712
G1 X32.3761 Y9.6897
G3 X32.371 Y9.6951 I-0.0935 J-0.083
G1 X29.8655 Y12.1975
G3 X29.842 Y12.2159 I-0.0883 J-0.0884
G1 X29.5168 Y12.4135
G3 X29.5086 Y12.4181 I-0.0649 J-0.1068
G1 X29.1696 Y12.5909
G3 X29.1612 Y12.5949 I-0.0568 J-0.1114
G1 X28.8102 Y12.7421
G3 X28.8015 Y12.7454 I-0.0484 J-0.1153
G1 X28.4406 Y12.8661
G3 X28.4317 Y12.8687 I-0.0397 J-0.1185
G1 X28.0628 Y12.9624
G3 X28.0537 Y12.9643 I-0.0307 J-0.1212
G1 X27.6788 Y13.0303
G3 X27.6696 Y13.0315 I-0.0217 J-0.1231
G1 X27.2909 Y13.0695
G3 X27.2817 Y13.0701 I-0.0125 J-0.1244
G1 X26.9012 Y13.0798
G3 X26.8919 Y13.0796 I-0.0032 J-0.125
G1 X26.5118 Y13.0611
G3 X26.5025 Y13.0603 I0.0061 J-0.1249
G1 X26.1248 Y13.0135
G3 X26.1156 Y13.012 I0.0154 J-0.1241
G1 X25.7424 Y12.9373
G3 X25.7334 Y12.9352 I0.0245 J-0.1226
G1 X25.3665 Y12.8329
G1 X24.3836 Y12.5563
G1 X23.3881 Y12.3497
G1 X22.3807 Y12.2127
G1 X21.3662 Y12.1462
G1 X20.3495 Y12.1503
G1 X19.3356 Y12.2252
G1 X18.3293 Y12.3703
G1 X17.3355 Y12.5851
G1 X16.3591 Y12.8685
G1 X15.4048 Y13.219
G1 X14.4772 Y13.6351
G1 X13.7753 Y14.0114
G1 X13.7748 Y14.0117
G1 X13.5785 Y14.1158
G1 X10.3219 Y16.0064
G3 X10.3197 Y16.0077 I-0.0628 J-0.1081
G1 X10.1011 Y16.1288
G3 X10.0967 Y16.1311 I-0.0606 J-0.1093
G1 X9.8734 Y16.2434
G3 X9.8688 Y16.2456 I-0.0562 J-0.1117
G1 X9.6412 Y16.3488
G3 X9.6366 Y16.3508 I-0.0516 J-0.1138
G1 X9.405 Y16.4449
G3 X9.4004 Y16.4466 I-0.047 J-0.1158
G1 X9.1652 Y16.5313
G3 X9.1605 Y16.533 I-0.0424 J-0.1176
G1 X8.9221 Y16.6082
G3 X8.9173 Y16.6096 I-0.0376 J-0.1192
G1 X8.6761 Y16.6752
G3 X8.6713 Y16.6764 I-0.0328 J-0.1206
G1 X8.4277 Y16.7323
G3 X8.4228 Y16.7333 I-0.028 J-0.1218
G1 X8.1771 Y16.7794
G3 X8.1722 Y16.7803 I-0.0231 J-0.1229
G1 X7.9249 Y16.8165
G3 X7.9199 Y16.8171 I-0.0181 J-0.1237
G1 X7.6713 Y16.8434
G3 X7.6664 Y16.8439 I-0.0132 J-0.1243
G1 X7.4169 Y16.8602
G3 X7.4087 Y16.8604 I-0.0082 J-0.1247
G1 X5.4011 Y16.8589
G3 X5.3066 Y16.8156 I0.0001 J-0.125
G1 X4.3361 Y15.6921
G3 X4.3301 Y15.6846 I0.0946 J-0.0817
G1 X3.4488 Y14.4899
G3 X3.4434 Y14.482 I0.1006 J-0.0742
G1 X2.6565 Y13.2231
G3 X2.6517 Y13.2148 I0.106 J-0.0663
G1 X1.9639 Y11.8991
G3 X1.9598 Y11.8904 I0.1108 J-0.0579
G1 X1.3751 Y10.5259
G3 X1.3716 Y10.5169 I0.1149 J-0.0492
G1 X0.8935 Y9.1114
G3 X0.8908 Y9.1022 I0.1183 J-0.0403
G1 X0.522 Y7.6641
G3 X0.52 Y7.6547 I0.1211 J-0.031
G1 X0.2629 Y6.1926
G3 X0.2616 Y6.183 I0.1231 J-0.0216
G1 X0.1176 Y4.7055
G3 X0.117 Y4.6959 I0.1244 J-0.0121
G1 X0.087 Y3.2116
G3 X0.087 Y3.2091 I0.125 J-0.0025
G3 X0.0872 Y3.202 I0.125 J0
G1 X0.1713 Y1.7198
G3 X0.1722 Y1.7102 I0.1248 J0.0071
G1 X0.3699 Y0.2389
G3 X0.5512 Y0.1444 I0.1239 J0.0167
G1 X1.9691 Y0.8767
G1 X3.4137 Y1.5486
G1 X4.8849 Y2.1602
G1 X6.3801 Y2.7104
G1 X7.8968 Y3.1982
G1 X9.4324 Y3.6229
G1 X10.9843 Y3.9836
G1 X12.5497 Y4.2799
G1 X14.1261 Y4.5111
G1 X15.7106 Y4.6769
G1 X17.3007 Y4.777
G1 X18.8949 Y4.8113
G0 Z0.25
M5
M30
