(Generated by PartKam Version 0.05)

G20 G90 G40

(profile 1)
G0 Z0.25
T1 M6
G17
M3
G0 X-11.7263 Y0.5717
G1 Z-0.1 F30
G1 X-11.7268 Y0.5672 F20
G1 X-11.7263 Y0.5628
G1 X-11.7245 Y0.5586
G1 X-11.7218 Y0.555
G1 X-11.7182 Y0.5523
G1 X-11.7141 Y0.5506
G1 X-11.7096 Y0.55
G1 X-11.7051 Y0.5506
G1 X-11.701 Y0.5523
G1 X-11.6974 Y0.555
G1 X-11.6947 Y0.5586
G1 X-11.6929 Y0.5628
G1 X-11.6924 Y0.5672
G1 X-11.6929 Y0.5717
G1 X-11.6947 Y0.5759
G1 X-11.6974 Y0.5794
G1 X-11.701 Y0.5822
G1 X-11.7051 Y0.5839
G1 X-11.7096 Y0.5845
G1 X-11.7141 Y0.5839
G1 X-11.7182 Y0.5822
G1 X-11.7218 Y0.5794
G1 X-11.7245 Y0.5759
G1 X-11.7263 Y0.5717
G1 Z-0.2 F30
G1 X-11.7268 Y0.5672 F20
G1 X-11.7263 Y0.5628
G1 X-11.7245 Y0.5586
G1 X-11.7218 Y0.555
G1 X-11.7182 Y0.5523
G1 X-11.7141 Y0.5506
G1 X-11.7096 Y0.55
G1 X-11.7051 Y0.5506
G1 X-11.701 Y0.5523
G1 X-11.6974 Y0.555
G1 X-11.6947 Y0.5586
G1 X-11.6929 Y0.5628
G1 X-11.6924 Y0.5672
G1 X-11.6929 Y0.5717
G1 X-11.6947 Y0.5759
G1 X-11.6974 Y0.5794
G1 X-11.701 Y0.5822
G1 X-11.7051 Y0.5839
G1 X-11.7096 Y0.5845
G1 X-11.7141 Y0.5839
G1 X-11.7182 Y0.5822
G1 X-11.7218 Y0.5794
G1 X-11.7245 Y0.5759
G1 X-11.7263 Y0.5717
G1 Z-0.3 F30
G1 X-11.7268 Y0.5672 F20
G1 X-11.7263 Y0.5628
G1 X-11.7245 Y0.5586
G1 X-11.7218 Y0.555
G1 X-11.7182 Y0.5523
G1 X-11.7141 Y0.5506
G1 X-11.7096 Y0.55
G1 X-11.7051 Y0.5506
G1 X-11.701 Y0.5523
G1 X-11.6974 Y0.555
G1 X-11.6947 Y0.5586
G1 X-11.6929 Y0.5628
G1 X-11.6924 Y0.5672
G1 X-11.6929 Y0.5717
G1 X-11.6947 Y0.5759
G1 X-11.6974 Y0.5794
G1 X-11.701 Y0.5822
G1 X-11.7051 Y0.5839
G1 X-11.7096 Y0.5845
G1 X-11.7141 Y0.5839
G1 X-11.7182 Y0.5822
G1 X-11.7218 Y0.5794
G1 X-11.7245 Y0.5759
G1 X-11.7263 Y0.5717
G1 Z-0.4 F30
G1 X-11.7268 Y0.5672 F20
G1 X-11.7263 Y0.5628
G1 X-11.7245 Y0.5586
G1 X-11.7218 Y0.555
G1 X-11.7182 Y0.5523
G1 X-11.7141 Y0.5506
G1 X-11.7096 Y0.55
G1 X-11.7051 Y0.5506
G1 X-11.701 Y0.5523
G1 X-11.6974 Y0.555
G1 X-11.6947 Y0.5586
G1 X-11.6929 Y0.5628
G1 X-11.6924 Y0.5672
G1 X-11.6929 Y0.5717
G1 X-11.6947 Y0.5759
G1 X-11.6974 Y0.5794
G1 X-11.701 Y0.5822
G1 X-11.7051 Y0.5839
G1 X-11.7096 Y0.5845
G1 X-11.7141 Y0.5839
G1 X-11.7182 Y0.5822
G1 X-11.7218 Y0.5794
G1 X-11.7245 Y0.5759
G1 X-11.7263 Y0.5717
G1 Z-0.5 F30
G1 X-11.7268 Y0.5672 F20
G1 X-11.7263 Y0.5628
G1 X-11.7245 Y0.5586
G1 X-11.7218 Y0.555
G1 X-11.7182 Y0.5523
G1 X-11.7141 Y0.5506
G1 X-11.7096 Y0.55
G1 X-11.7051 Y0.5506
G1 X-11.701 Y0.5523
G1 X-11.6974 Y0.555
G1 X-11.6947 Y0.5586
G1 X-11.6929 Y0.5628
G1 X-11.6924 Y0.5672
G1 X-11.6929 Y0.5717
G1 X-11.6947 Y0.5759
G1 X-11.6974 Y0.5794
G1 X-11.701 Y0.5822
G1 X-11.7051 Y0.5839
G1 X-11.7096 Y0.5845
G1 X-11.7141 Y0.5839
G1 X-11.7182 Y0.5822
G1 X-11.7218 Y0.5794
G1 X-11.7245 Y0.5759
G1 X-11.7263 Y0.5717
G1 Z-0.6 F30
G1 X-11.7268 Y0.5672 F20
G1 X-11.7263 Y0.5628
G1 X-11.7245 Y0.5586
G1 X-11.7218 Y0.555
G1 X-11.7182 Y0.5523
G1 X-11.7141 Y0.5506
G1 X-11.7096 Y0.55
G1 X-11.7051 Y0.5506
G1 X-11.701 Y0.5523
G1 X-11.6974 Y0.555
G1 X-11.6947 Y0.5586
G1 X-11.6929 Y0.5628
G1 X-11.6924 Y0.5672
G1 X-11.6929 Y0.5717
G1 X-11.6947 Y0.5759
G1 X-11.6974 Y0.5794
G1 X-11.701 Y0.5822
G1 X-11.7051 Y0.5839
G1 X-11.7096 Y0.5845
G1 X-11.7141 Y0.5839
G1 X-11.7182 Y0.5822
G1 X-11.7218 Y0.5794
G1 X-11.7245 Y0.5759
G1 X-11.7263 Y0.5717
G1 Z-0.7 F30
G1 X-11.7268 Y0.5672 F20
G1 X-11.7263 Y0.5628
G1 X-11.7245 Y0.5586
G1 X-11.7218 Y0.555
G1 X-11.7182 Y0.5523
G1 X-11.7141 Y0.5506
G1 X-11.7096 Y0.55
G1 X-11.7051 Y0.5506
G1 X-11.701 Y0.5523
G1 X-11.6974 Y0.555
G1 X-11.6947 Y0.5586
G1 X-11.6929 Y0.5628
G1 X-11.6924 Y0.5672
G1 X-11.6929 Y0.5717
G1 X-11.6947 Y0.5759
G1 X-11.6974 Y0.5794
G1 X-11.701 Y0.5822
G1 X-11.7051 Y0.5839
G1 X-11.7096 Y0.5845
G1 X-11.7141 Y0.5839
G1 X-11.7182 Y0.5822
G1 X-11.7218 Y0.5794
G1 X-11.7245 Y0.5759
G1 X-11.7263 Y0.5717
G1 Z-0.8 F30
G1 X-11.7268 Y0.5672 F20
G1 X-11.7263 Y0.5628
G1 X-11.7245 Y0.5586
G1 X-11.7218 Y0.555
G1 X-11.7182 Y0.5523
G1 X-11.7141 Y0.5506
G1 X-11.7096 Y0.55
G1 X-11.7051 Y0.5506
G1 X-11.701 Y0.5523
G1 X-11.6974 Y0.555
G1 X-11.6947 Y0.5586
G1 X-11.6929 Y0.5628
G1 X-11.6924 Y0.5672
G1 X-11.6929 Y0.5717
G1 X-11.6947 Y0.5759
G1 X-11.6974 Y0.5794
G1 X-11.701 Y0.5822
G1 X-11.7051 Y0.5839
G1 X-11.7096 Y0.5845
G1 X-11.7141 Y0.5839
G1 X-11.7182 Y0.5822
G1 X-11.7218 Y0.5794
G1 X-11.7245 Y0.5759
G1 X-11.7263 Y0.5717
G1 Z-0.85 F30
G1 X-11.7268 Y0.5672 F20
G1 X-11.7263 Y0.5628
G1 X-11.7245 Y0.5586
G1 X-11.7218 Y0.555
G1 X-11.7182 Y0.5523
G1 X-11.7141 Y0.5506
G1 X-11.7096 Y0.55
G1 X-11.7051 Y0.5506
G1 X-11.701 Y0.5523
G1 X-11.6974 Y0.555
G1 X-11.6947 Y0.5586
G1 X-11.6929 Y0.5628
G1 X-11.6924 Y0.5672
G1 X-11.6929 Y0.5717
G1 X-11.6947 Y0.5759
G1 X-11.6974 Y0.5794
G1 X-11.701 Y0.5822
G1 X-11.7051 Y0.5839
G1 X-11.7096 Y0.5845
G1 X-11.7141 Y0.5839
G1 X-11.7182 Y0.5822
G1 X-11.7218 Y0.5794
G1 X-11.7245 Y0.5759
G1 X-11.7263 Y0.5717
G0 Z0.25
G0 X-6.9897 Y0.5839
G1 Z-0.1 F30
G1 X-6.9938 Y0.5822 F20
G1 X-6.9974 Y0.5794
G1 X-7.0001 Y0.5759
G1 X-7.0018 Y0.5717
G1 X-7.0024 Y0.5672
G1 X-7.0018 Y0.5628
G1 X-7.0001 Y0.5586
G1 X-6.9974 Y0.555
G1 X-6.9938 Y0.5523
G1 X-6.9897 Y0.5506
G1 X-6.9852 Y0.55
G1 X-6.9807 Y0.5506
G1 X-6.9766 Y0.5523
G1 X-6.973 Y0.555
G1 X-6.9703 Y0.5586
G1 X-6.9685 Y0.5628
G1 X-6.9679 Y0.5672
G1 X-6.9685 Y0.5717
G1 X-6.9703 Y0.5759
G1 X-6.973 Y0.5794
G1 X-6.9766 Y0.5822
G1 X-6.9807 Y0.5839
G1 X-6.9852 Y0.5845
G1 X-6.9897 Y0.5839
G1 Z-0.2 F30
G1 X-6.9938 Y0.5822 F20
G1 X-6.9974 Y0.5794
G1 X-7.0001 Y0.5759
G1 X-7.0018 Y0.5717
G1 X-7.0024 Y0.5672
G1 X-7.0018 Y0.5628
G1 X-7.0001 Y0.5586
G1 X-6.9974 Y0.555
G1 X-6.9938 Y0.5523
G1 X-6.9897 Y0.5506
G1 X-6.9852 Y0.55
G1 X-6.9807 Y0.5506
G1 X-6.9766 Y0.5523
G1 X-6.973 Y0.555
G1 X-6.9703 Y0.5586
G1 X-6.9685 Y0.5628
G1 X-6.9679 Y0.5672
G1 X-6.9685 Y0.5717
G1 X-6.9703 Y0.5759
G1 X-6.973 Y0.5794
G1 X-6.9766 Y0.5822
G1 X-6.9807 Y0.5839
G1 X-6.9852 Y0.5845
G1 X-6.9897 Y0.5839
G1 Z-0.3 F30
G1 X-6.9938 Y0.5822 F20
G1 X-6.9974 Y0.5794
G1 X-7.0001 Y0.5759
G1 X-7.0018 Y0.5717
G1 X-7.0024 Y0.5672
G1 X-7.0018 Y0.5628
G1 X-7.0001 Y0.5586
G1 X-6.9974 Y0.555
G1 X-6.9938 Y0.5523
G1 X-6.9897 Y0.5506
G1 X-6.9852 Y0.55
G1 X-6.9807 Y0.5506
G1 X-6.9766 Y0.5523
G1 X-6.973 Y0.555
G1 X-6.9703 Y0.5586
G1 X-6.9685 Y0.5628
G1 X-6.9679 Y0.5672
G1 X-6.9685 Y0.5717
G1 X-6.9703 Y0.5759
G1 X-6.973 Y0.5794
G1 X-6.9766 Y0.5822
G1 X-6.9807 Y0.5839
G1 X-6.9852 Y0.5845
G1 X-6.9897 Y0.5839
G1 Z-0.4 F30
G1 X-6.9938 Y0.5822 F20
G1 X-6.9974 Y0.5794
G1 X-7.0001 Y0.5759
G1 X-7.0018 Y0.5717
G1 X-7.0024 Y0.5672
G1 X-7.0018 Y0.5628
G1 X-7.0001 Y0.5586
G1 X-6.9974 Y0.555
G1 X-6.9938 Y0.5523
G1 X-6.9897 Y0.5506
G1 X-6.9852 Y0.55
G1 X-6.9807 Y0.5506
G1 X-6.9766 Y0.5523
G1 X-6.973 Y0.555
G1 X-6.9703 Y0.5586
G1 X-6.9685 Y0.5628
G1 X-6.9679 Y0.5672
G1 X-6.9685 Y0.5717
G1 X-6.9703 Y0.5759
G1 X-6.973 Y0.5794
G1 X-6.9766 Y0.5822
G1 X-6.9807 Y0.5839
G1 X-6.9852 Y0.5845
G1 X-6.9897 Y0.5839
G1 Z-0.5 F30
G1 X-6.9938 Y0.5822 F20
G1 X-6.9974 Y0.5794
G1 X-7.0001 Y0.5759
G1 X-7.0018 Y0.5717
G1 X-7.0024 Y0.5672
G1 X-7.0018 Y0.5628
G1 X-7.0001 Y0.5586
G1 X-6.9974 Y0.555
G1 X-6.9938 Y0.5523
G1 X-6.9897 Y0.5506
G1 X-6.9852 Y0.55
G1 X-6.9807 Y0.5506
G1 X-6.9766 Y0.5523
G1 X-6.973 Y0.555
G1 X-6.9703 Y0.5586
G1 X-6.9685 Y0.5628
G1 X-6.9679 Y0.5672
G1 X-6.9685 Y0.5717
G1 X-6.9703 Y0.5759
G1 X-6.973 Y0.5794
G1 X-6.9766 Y0.5822
G1 X-6.9807 Y0.5839
G1 X-6.9852 Y0.5845
G1 X-6.9897 Y0.5839
G1 Z-0.6 F30
G1 X-6.9938 Y0.5822 F20
G1 X-6.9974 Y0.5794
G1 X-7.0001 Y0.5759
G1 X-7.0018 Y0.5717
G1 X-7.0024 Y0.5672
G1 X-7.0018 Y0.5628
G1 X-7.0001 Y0.5586
G1 X-6.9974 Y0.555
G1 X-6.9938 Y0.5523
G1 X-6.9897 Y0.5506
G1 X-6.9852 Y0.55
G1 X-6.9807 Y0.5506
G1 X-6.9766 Y0.5523
G1 X-6.973 Y0.555
G1 X-6.9703 Y0.5586
G1 X-6.9685 Y0.5628
G1 X-6.9679 Y0.5672
G1 X-6.9685 Y0.5717
G1 X-6.9703 Y0.5759
G1 X-6.973 Y0.5794
G1 X-6.9766 Y0.5822
G1 X-6.9807 Y0.5839
G1 X-6.9852 Y0.5845
G1 X-6.9897 Y0.5839
G1 Z-0.7 F30
G1 X-6.9938 Y0.5822 F20
G1 X-6.9974 Y0.5794
G1 X-7.0001 Y0.5759
G1 X-7.0018 Y0.5717
G1 X-7.0024 Y0.5672
G1 X-7.0018 Y0.5628
G1 X-7.0001 Y0.5586
G1 X-6.9974 Y0.555
G1 X-6.9938 Y0.5523
G1 X-6.9897 Y0.5506
G1 X-6.9852 Y0.55
G1 X-6.9807 Y0.5506
G1 X-6.9766 Y0.5523
G1 X-6.973 Y0.555
G1 X-6.9703 Y0.5586
G1 X-6.9685 Y0.5628
G1 X-6.9679 Y0.5672
G1 X-6.9685 Y0.5717
G1 X-6.9703 Y0.5759
G1 X-6.973 Y0.5794
G1 X-6.9766 Y0.5822
G1 X-6.9807 Y0.5839
G1 X-6.9852 Y0.5845
G1 X-6.9897 Y0.5839
G1 Z-0.8 F30
G1 X-6.9938 Y0.5822 F20
G1 X-6.9974 Y0.5794
G1 X-7.0001 Y0.5759
G1 X-7.0018 Y0.5717
G1 X-7.0024 Y0.5672
G1 X-7.0018 Y0.5628
G1 X-7.0001 Y0.5586
G1 X-6.9974 Y0.555
G1 X-6.9938 Y0.5523
G1 X-6.9897 Y0.5506
G1 X-6.9852 Y0.55
G1 X-6.9807 Y0.5506
G1 X-6.9766 Y0.5523
G1 X-6.973 Y0.555
G1 X-6.9703 Y0.5586
G1 X-6.9685 Y0.5628
G1 X-6.9679 Y0.5672
G1 X-6.9685 Y0.5717
G1 X-6.9703 Y0.5759
G1 X-6.973 Y0.5794
G1 X-6.9766 Y0.5822
G1 X-6.9807 Y0.5839
G1 X-6.9852 Y0.5845
G1 X-6.9897 Y0.5839
G1 Z-0.85 F30
G1 X-6.9938 Y0.5822 F20
G1 X-6.9974 Y0.5794
G1 X-7.0001 Y0.5759
G1 X-7.0018 Y0.5717
G1 X-7.0024 Y0.5672
G1 X-7.0018 Y0.5628
G1 X-7.0001 Y0.5586
G1 X-6.9974 Y0.555
G1 X-6.9938 Y0.5523
G1 X-6.9897 Y0.5506
G1 X-6.9852 Y0.55
G1 X-6.9807 Y0.5506
G1 X-6.9766 Y0.5523
G1 X-6.973 Y0.555
G1 X-6.9703 Y0.5586
G1 X-6.9685 Y0.5628
G1 X-6.9679 Y0.5672
G1 X-6.9685 Y0.5717
G1 X-6.9703 Y0.5759
G1 X-6.973 Y0.5794
G1 X-6.9766 Y0.5822
G1 X-6.9807 Y0.5839
G1 X-6.9852 Y0.5845
G1 X-6.9897 Y0.5839
G0 Z0.25
G0 X-5.3584 Y0.5799
G1 Z-0.1 F30
G1 X-5.3628 Y0.5805 F20
G1 X-5.3673 Y0.5799
G1 X-5.3714 Y0.5782
G1 X-5.375 Y0.5754
G1 X-5.3778 Y0.5718
G1 X-5.3795 Y0.5677
G1 X-5.3801 Y0.5632
G1 X-5.3795 Y0.5588
G1 X-5.3778 Y0.5546
G1 X-5.375 Y0.551
G1 X-5.3714 Y0.5483
G1 X-5.3673 Y0.5466
G1 X-5.3628 Y0.546
G1 X-5.3584 Y0.5466
G1 X-5.3542 Y0.5483
G1 X-5.3506 Y0.551
G1 X-5.3479 Y0.5546
G1 X-5.3462 Y0.5588
G1 X-5.3456 Y0.5632
G1 X-5.3462 Y0.5677
G1 X-5.3479 Y0.5718
G1 X-5.3506 Y0.5754
G1 X-5.3542 Y0.5782
G1 X-5.3584 Y0.5799
G1 Z-0.2 F30
G1 X-5.3628 Y0.5805 F20
G1 X-5.3673 Y0.5799
G1 X-5.3714 Y0.5782
G1 X-5.375 Y0.5754
G1 X-5.3778 Y0.5718
G1 X-5.3795 Y0.5677
G1 X-5.3801 Y0.5632
G1 X-5.3795 Y0.5588
G1 X-5.3778 Y0.5546
G1 X-5.375 Y0.551
G1 X-5.3714 Y0.5483
G1 X-5.3673 Y0.5466
G1 X-5.3628 Y0.546
G1 X-5.3584 Y0.5466
G1 X-5.3542 Y0.5483
G1 X-5.3506 Y0.551
G1 X-5.3479 Y0.5546
G1 X-5.3462 Y0.5588
G1 X-5.3456 Y0.5632
G1 X-5.3462 Y0.5677
G1 X-5.3479 Y0.5718
G1 X-5.3506 Y0.5754
G1 X-5.3542 Y0.5782
G1 X-5.3584 Y0.5799
G1 Z-0.3 F30
G1 X-5.3628 Y0.5805 F20
G1 X-5.3673 Y0.5799
G1 X-5.3714 Y0.5782
G1 X-5.375 Y0.5754
G1 X-5.3778 Y0.5718
G1 X-5.3795 Y0.5677
G1 X-5.3801 Y0.5632
G1 X-5.3795 Y0.5588
G1 X-5.3778 Y0.5546
G1 X-5.375 Y0.551
G1 X-5.3714 Y0.5483
G1 X-5.3673 Y0.5466
G1 X-5.3628 Y0.546
G1 X-5.3584 Y0.5466
G1 X-5.3542 Y0.5483
G1 X-5.3506 Y0.551
G1 X-5.3479 Y0.5546
G1 X-5.3462 Y0.5588
G1 X-5.3456 Y0.5632
G1 X-5.3462 Y0.5677
G1 X-5.3479 Y0.5718
G1 X-5.3506 Y0.5754
G1 X-5.3542 Y0.5782
G1 X-5.3584 Y0.5799
G1 Z-0.4 F30
G1 X-5.3628 Y0.5805 F20
G1 X-5.3673 Y0.5799
G1 X-5.3714 Y0.5782
G1 X-5.375 Y0.5754
G1 X-5.3778 Y0.5718
G1 X-5.3795 Y0.5677
G1 X-5.3801 Y0.5632
G1 X-5.3795 Y0.5588
G1 X-5.3778 Y0.5546
G1 X-5.375 Y0.551
G1 X-5.3714 Y0.5483
G1 X-5.3673 Y0.5466
G1 X-5.3628 Y0.546
G1 X-5.3584 Y0.5466
G1 X-5.3542 Y0.5483
G1 X-5.3506 Y0.551
G1 X-5.3479 Y0.5546
G1 X-5.3462 Y0.5588
G1 X-5.3456 Y0.5632
G1 X-5.3462 Y0.5677
G1 X-5.3479 Y0.5718
G1 X-5.3506 Y0.5754
G1 X-5.3542 Y0.5782
G1 X-5.3584 Y0.5799
G1 Z-0.5 F30
G1 X-5.3628 Y0.5805 F20
G1 X-5.3673 Y0.5799
G1 X-5.3714 Y0.5782
G1 X-5.375 Y0.5754
G1 X-5.3778 Y0.5718
G1 X-5.3795 Y0.5677
G1 X-5.3801 Y0.5632
G1 X-5.3795 Y0.5588
G1 X-5.3778 Y0.5546
G1 X-5.375 Y0.551
G1 X-5.3714 Y0.5483
G1 X-5.3673 Y0.5466
G1 X-5.3628 Y0.546
G1 X-5.3584 Y0.5466
G1 X-5.3542 Y0.5483
G1 X-5.3506 Y0.551
G1 X-5.3479 Y0.5546
G1 X-5.3462 Y0.5588
G1 X-5.3456 Y0.5632
G1 X-5.3462 Y0.5677
G1 X-5.3479 Y0.5718
G1 X-5.3506 Y0.5754
G1 X-5.3542 Y0.5782
G1 X-5.3584 Y0.5799
G1 Z-0.6 F30
G1 X-5.3628 Y0.5805 F20
G1 X-5.3673 Y0.5799
G1 X-5.3714 Y0.5782
G1 X-5.375 Y0.5754
G1 X-5.3778 Y0.5718
G1 X-5.3795 Y0.5677
G1 X-5.3801 Y0.5632
G1 X-5.3795 Y0.5588
G1 X-5.3778 Y0.5546
G1 X-5.375 Y0.551
G1 X-5.3714 Y0.5483
G1 X-5.3673 Y0.5466
G1 X-5.3628 Y0.546
G1 X-5.3584 Y0.5466
G1 X-5.3542 Y0.5483
G1 X-5.3506 Y0.551
G1 X-5.3479 Y0.5546
G1 X-5.3462 Y0.5588
G1 X-5.3456 Y0.5632
G1 X-5.3462 Y0.5677
G1 X-5.3479 Y0.5718
G1 X-5.3506 Y0.5754
G1 X-5.3542 Y0.5782
G1 X-5.3584 Y0.5799
G1 Z-0.7 F30
G1 X-5.3628 Y0.5805 F20
G1 X-5.3673 Y0.5799
G1 X-5.3714 Y0.5782
G1 X-5.375 Y0.5754
G1 X-5.3778 Y0.5718
G1 X-5.3795 Y0.5677
G1 X-5.3801 Y0.5632
G1 X-5.3795 Y0.5588
G1 X-5.3778 Y0.5546
G1 X-5.375 Y0.551
G1 X-5.3714 Y0.5483
G1 X-5.3673 Y0.5466
G1 X-5.3628 Y0.546
G1 X-5.3584 Y0.5466
G1 X-5.3542 Y0.5483
G1 X-5.3506 Y0.551
G1 X-5.3479 Y0.5546
G1 X-5.3462 Y0.5588
G1 X-5.3456 Y0.5632
G1 X-5.3462 Y0.5677
G1 X-5.3479 Y0.5718
G1 X-5.3506 Y0.5754
G1 X-5.3542 Y0.5782
G1 X-5.3584 Y0.5799
G1 Z-0.8 F30
G1 X-5.3628 Y0.5805 F20
G1 X-5.3673 Y0.5799
G1 X-5.3714 Y0.5782
G1 X-5.375 Y0.5754
G1 X-5.3778 Y0.5718
G1 X-5.3795 Y0.5677
G1 X-5.3801 Y0.5632
G1 X-5.3795 Y0.5588
G1 X-5.3778 Y0.5546
G1 X-5.375 Y0.551
G1 X-5.3714 Y0.5483
G1 X-5.3673 Y0.5466
G1 X-5.3628 Y0.546
G1 X-5.3584 Y0.5466
G1 X-5.3542 Y0.5483
G1 X-5.3506 Y0.551
G1 X-5.3479 Y0.5546
G1 X-5.3462 Y0.5588
G1 X-5.3456 Y0.5632
G1 X-5.3462 Y0.5677
G1 X-5.3479 Y0.5718
G1 X-5.3506 Y0.5754
G1 X-5.3542 Y0.5782
G1 X-5.3584 Y0.5799
G1 Z-0.85 F30
G1 X-5.3628 Y0.5805 F20
G1 X-5.3673 Y0.5799
G1 X-5.3714 Y0.5782
G1 X-5.375 Y0.5754
G1 X-5.3778 Y0.5718
G1 X-5.3795 Y0.5677
G1 X-5.3801 Y0.5632
G1 X-5.3795 Y0.5588
G1 X-5.3778 Y0.5546
G1 X-5.375 Y0.551
G1 X-5.3714 Y0.5483
G1 X-5.3673 Y0.5466
G1 X-5.3628 Y0.546
G1 X-5.3584 Y0.5466
G1 X-5.3542 Y0.5483
G1 X-5.3506 Y0.551
G1 X-5.3479 Y0.5546
G1 X-5.3462 Y0.5588
G1 X-5.3456 Y0.5632
G1 X-5.3462 Y0.5677
G1 X-5.3479 Y0.5718
G1 X-5.3506 Y0.5754
G1 X-5.3542 Y0.5782
G1 X-5.3584 Y0.5799
G0 Z0.25
G0 X-0.634 Y0.5466
G1 Z-0.1 F30
G1 X-0.6298 Y0.5483 F20
G1 X-0.6262 Y0.551
G1 X-0.6235 Y0.5546
G1 X-0.6218 Y0.5588
G1 X-0.6212 Y0.5632
G1 X-0.6218 Y0.5677
G1 X-0.6235 Y0.5718
G1 X-0.6262 Y0.5754
G1 X-0.6298 Y0.5782
G1 X-0.634 Y0.5799
G1 X-0.6384 Y0.5805
G1 X-0.6429 Y0.5799
G1 X-0.647 Y0.5782
G1 X-0.6506 Y0.5754
G1 X-0.6534 Y0.5718
G1 X-0.6551 Y0.5677
G1 X-0.6557 Y0.5632
G1 X-0.6551 Y0.5588
G1 X-0.6534 Y0.5546
G1 X-0.6506 Y0.551
G1 X-0.647 Y0.5483
G1 X-0.6429 Y0.5466
G1 X-0.6384 Y0.546
G1 X-0.634 Y0.5466
G1 Z-0.2 F30
G1 X-0.6298 Y0.5483 F20
G1 X-0.6262 Y0.551
G1 X-0.6235 Y0.5546
G1 X-0.6218 Y0.5588
G1 X-0.6212 Y0.5632
G1 X-0.6218 Y0.5677
G1 X-0.6235 Y0.5718
G1 X-0.6262 Y0.5754
G1 X-0.6298 Y0.5782
G1 X-0.634 Y0.5799
G1 X-0.6384 Y0.5805
G1 X-0.6429 Y0.5799
G1 X-0.647 Y0.5782
G1 X-0.6506 Y0.5754
G1 X-0.6534 Y0.5718
G1 X-0.6551 Y0.5677
G1 X-0.6557 Y0.5632
G1 X-0.6551 Y0.5588
G1 X-0.6534 Y0.5546
G1 X-0.6506 Y0.551
G1 X-0.647 Y0.5483
G1 X-0.6429 Y0.5466
G1 X-0.6384 Y0.546
G1 X-0.634 Y0.5466
G1 Z-0.3 F30
G1 X-0.6298 Y0.5483 F20
G1 X-0.6262 Y0.551
G1 X-0.6235 Y0.5546
G1 X-0.6218 Y0.5588
G1 X-0.6212 Y0.5632
G1 X-0.6218 Y0.5677
G1 X-0.6235 Y0.5718
G1 X-0.6262 Y0.5754
G1 X-0.6298 Y0.5782
G1 X-0.634 Y0.5799
G1 X-0.6384 Y0.5805
G1 X-0.6429 Y0.5799
G1 X-0.647 Y0.5782
G1 X-0.6506 Y0.5754
G1 X-0.6534 Y0.5718
G1 X-0.6551 Y0.5677
G1 X-0.6557 Y0.5632
G1 X-0.6551 Y0.5588
G1 X-0.6534 Y0.5546
G1 X-0.6506 Y0.551
G1 X-0.647 Y0.5483
G1 X-0.6429 Y0.5466
G1 X-0.6384 Y0.546
G1 X-0.634 Y0.5466
G1 Z-0.4 F30
G1 X-0.6298 Y0.5483 F20
G1 X-0.6262 Y0.551
G1 X-0.6235 Y0.5546
G1 X-0.6218 Y0.5588
G1 X-0.6212 Y0.5632
G1 X-0.6218 Y0.5677
G1 X-0.6235 Y0.5718
G1 X-0.6262 Y0.5754
G1 X-0.6298 Y0.5782
G1 X-0.634 Y0.5799
G1 X-0.6384 Y0.5805
G1 X-0.6429 Y0.5799
G1 X-0.647 Y0.5782
G1 X-0.6506 Y0.5754
G1 X-0.6534 Y0.5718
G1 X-0.6551 Y0.5677
G1 X-0.6557 Y0.5632
G1 X-0.6551 Y0.5588
G1 X-0.6534 Y0.5546
G1 X-0.6506 Y0.551
G1 X-0.647 Y0.5483
G1 X-0.6429 Y0.5466
G1 X-0.6384 Y0.546
G1 X-0.634 Y0.5466
G1 Z-0.5 F30
G1 X-0.6298 Y0.5483 F20
G1 X-0.6262 Y0.551
G1 X-0.6235 Y0.5546
G1 X-0.6218 Y0.5588
G1 X-0.6212 Y0.5632
G1 X-0.6218 Y0.5677
G1 X-0.6235 Y0.5718
G1 X-0.6262 Y0.5754
G1 X-0.6298 Y0.5782
G1 X-0.634 Y0.5799
G1 X-0.6384 Y0.5805
G1 X-0.6429 Y0.5799
G1 X-0.647 Y0.5782
G1 X-0.6506 Y0.5754
G1 X-0.6534 Y0.5718
G1 X-0.6551 Y0.5677
G1 X-0.6557 Y0.5632
G1 X-0.6551 Y0.5588
G1 X-0.6534 Y0.5546
G1 X-0.6506 Y0.551
G1 X-0.647 Y0.5483
G1 X-0.6429 Y0.5466
G1 X-0.6384 Y0.546
G1 X-0.634 Y0.5466
G1 Z-0.6 F30
G1 X-0.6298 Y0.5483 F20
G1 X-0.6262 Y0.551
G1 X-0.6235 Y0.5546
G1 X-0.6218 Y0.5588
G1 X-0.6212 Y0.5632
G1 X-0.6218 Y0.5677
G1 X-0.6235 Y0.5718
G1 X-0.6262 Y0.5754
G1 X-0.6298 Y0.5782
G1 X-0.634 Y0.5799
G1 X-0.6384 Y0.5805
G1 X-0.6429 Y0.5799
G1 X-0.647 Y0.5782
G1 X-0.6506 Y0.5754
G1 X-0.6534 Y0.5718
G1 X-0.6551 Y0.5677
G1 X-0.6557 Y0.5632
G1 X-0.6551 Y0.5588
G1 X-0.6534 Y0.5546
G1 X-0.6506 Y0.551
G1 X-0.647 Y0.5483
G1 X-0.6429 Y0.5466
G1 X-0.6384 Y0.546
G1 X-0.634 Y0.5466
G1 Z-0.7 F30
G1 X-0.6298 Y0.5483 F20
G1 X-0.6262 Y0.551
G1 X-0.6235 Y0.5546
G1 X-0.6218 Y0.5588
G1 X-0.6212 Y0.5632
G1 X-0.6218 Y0.5677
G1 X-0.6235 Y0.5718
G1 X-0.6262 Y0.5754
G1 X-0.6298 Y0.5782
G1 X-0.634 Y0.5799
G1 X-0.6384 Y0.5805
G1 X-0.6429 Y0.5799
G1 X-0.647 Y0.5782
G1 X-0.6506 Y0.5754
G1 X-0.6534 Y0.5718
G1 X-0.6551 Y0.5677
G1 X-0.6557 Y0.5632
G1 X-0.6551 Y0.5588
G1 X-0.6534 Y0.5546
G1 X-0.6506 Y0.551
G1 X-0.647 Y0.5483
G1 X-0.6429 Y0.5466
G1 X-0.6384 Y0.546
G1 X-0.634 Y0.5466
G1 Z-0.8 F30
G1 X-0.6298 Y0.5483 F20
G1 X-0.6262 Y0.551
G1 X-0.6235 Y0.5546
G1 X-0.6218 Y0.5588
G1 X-0.6212 Y0.5632
G1 X-0.6218 Y0.5677
G1 X-0.6235 Y0.5718
G1 X-0.6262 Y0.5754
G1 X-0.6298 Y0.5782
G1 X-0.634 Y0.5799
G1 X-0.6384 Y0.5805
G1 X-0.6429 Y0.5799
G1 X-0.647 Y0.5782
G1 X-0.6506 Y0.5754
G1 X-0.6534 Y0.5718
G1 X-0.6551 Y0.5677
G1 X-0.6557 Y0.5632
G1 X-0.6551 Y0.5588
G1 X-0.6534 Y0.5546
G1 X-0.6506 Y0.551
G1 X-0.647 Y0.5483
G1 X-0.6429 Y0.5466
G1 X-0.6384 Y0.546
G1 X-0.634 Y0.5466
G1 Z-0.85 F30
G1 X-0.6298 Y0.5483 F20
G1 X-0.6262 Y0.551
G1 X-0.6235 Y0.5546
G1 X-0.6218 Y0.5588
G1 X-0.6212 Y0.5632
G1 X-0.6218 Y0.5677
G1 X-0.6235 Y0.5718
G1 X-0.6262 Y0.5754
G1 X-0.6298 Y0.5782
G1 X-0.634 Y0.5799
G1 X-0.6384 Y0.5805
G1 X-0.6429 Y0.5799
G1 X-0.647 Y0.5782
G1 X-0.6506 Y0.5754
G1 X-0.6534 Y0.5718
G1 X-0.6551 Y0.5677
G1 X-0.6557 Y0.5632
G1 X-0.6551 Y0.5588
G1 X-0.6534 Y0.5546
G1 X-0.6506 Y0.551
G1 X-0.647 Y0.5483
G1 X-0.6429 Y0.5466
G1 X-0.6384 Y0.546
G1 X-0.634 Y0.5466

(profile 2)
G0 Z0.25
T0 M6
G0 X-0.6384 Y1.2788
G1 Z-0.1 F30
G1 X-5.3628 Y1.2788 F20
G3 X-5.371 Y1.2785 I0 J-0.125
G1 X-5.4481 Y1.2735
G3 X-5.4643 Y1.2713 I0.0082 J-0.1247
G1 X-5.5401 Y1.2563
G3 X-5.5559 Y1.252 I0.0244 J-0.1226
G1 X-5.629 Y1.2272
G3 X-5.6441 Y1.2209 I0.0402 J-0.1184
G1 X-5.7134 Y1.1868
G3 X-5.7275 Y1.1786 I0.0553 J-0.1121
G1 X-5.7918 Y1.1357
G3 X-5.8047 Y1.1257 I0.0694 J-0.1039
G1 X-5.8628 Y1.0748
G3 X-5.8744 Y1.0632 I0.0824 J-0.094
G1 X-5.9253 Y1.0051
G3 X-5.9353 Y0.9922 I0.094 J-0.0824
G1 X-5.9782 Y0.9279
G3 X-5.9864 Y0.9138 I0.1039 J-0.0694
G1 X-6.0205 Y0.8445
G3 X-6.0268 Y0.8294 I0.1121 J-0.0553
G1 X-6.0516 Y0.7563
G3 X-6.0559 Y0.7405 I0.1184 J-0.0402
G1 X-6.0709 Y0.6647
G3 X-6.0731 Y0.6485 I0.1226 J-0.0244
G1 X-6.0781 Y0.5714
G3 X-6.0784 Y0.5632 I0.1247 J-0.0082
G3 X-6.0781 Y0.5551 I0.125 J0
G1 X-6.0731 Y0.478
G3 X-6.0709 Y0.4618 I0.1247 J0.0082
G1 X-6.0559 Y0.386
G3 X-6.0516 Y0.3702 I0.1226 J0.0244
G1 X-6.0268 Y0.2971
G3 X-6.0205 Y0.2819 I0.1184 J0.0402
G1 X-5.9864 Y0.2127
G3 X-5.9782 Y0.1985 I0.1121 J0.0553
G1 X-5.9353 Y0.1343
G3 X-5.9253 Y0.1213 I0.1039 J0.0694
G1 X-5.8744 Y0.0632
G3 X-5.8628 Y0.0517 I0.094 J0.0824
G1 X-5.8047 Y0.0007
G3 X-5.7918 Y-0.0092 I0.0824 J0.094
G1 X-5.7275 Y-0.0521
G3 X-5.7134 Y-0.0603 I0.0694 J0.1039
G1 X-5.6441 Y-0.0945
G3 X-5.629 Y-0.1007 I0.0553 J0.1121
G1 X-5.5559 Y-0.1256
G3 X-5.5401 Y-0.1298 I0.0402 J0.1184
G1 X-5.4643 Y-0.1449
G3 X-5.4481 Y-0.147 I0.0244 J0.1226
G1 X-5.371 Y-0.1521
G3 X-5.3628 Y-0.1523 I0.0082 J0.1247
G1 X-0.6384 Y-0.1523
G3 X-0.6302 Y-0.1521 I0 J0.125
G1 X-0.5532 Y-0.147
G3 X-0.5369 Y-0.1449 I-0.0082 J0.1247
G1 X-0.4612 Y-0.1298
G3 X-0.4454 Y-0.1256 I-0.0244 J0.1226
G1 X-0.3722 Y-0.1007
G3 X-0.3571 Y-0.0945 I-0.0402 J0.1184
G1 X-0.2879 Y-0.0603
G3 X-0.2737 Y-0.0521 I-0.0553 J0.1121
G1 X-0.2095 Y-0.0092
G3 X-0.1965 Y0.0007 I-0.0694 J0.1039
G1 X-0.1384 Y0.0517
G3 X-0.1269 Y0.0632 I-0.0824 J0.094
G1 X-0.0759 Y0.1213
G3 X-0.066 Y0.1343 I-0.094 J0.0824
G1 X-0.0231 Y0.1985
G3 X-0.0149 Y0.2127 I-0.1039 J0.0694
G1 X0.0193 Y0.2819
G3 X0.0255 Y0.2971 I-0.1121 J0.0553
G1 X0.0504 Y0.3702
G3 X0.0546 Y0.386 I-0.1184 J0.0402
G1 X0.0697 Y0.4618
G3 X0.0718 Y0.478 I-0.1226 J0.0244
G1 X0.0769 Y0.5551
G3 X0.0771 Y0.5632 I-0.1247 J0.0082
G3 X0.0769 Y0.5714 I-0.125 J0
G1 X0.0718 Y0.6485
G3 X0.0697 Y0.6647 I-0.1247 J-0.0082
G1 X0.0546 Y0.7405
G3 X0.0504 Y0.7563 I-0.1226 J-0.0244
G1 X0.0255 Y0.8294
G3 X0.0193 Y0.8445 I-0.1184 J-0.0402
G1 X-0.0149 Y0.9138
G3 X-0.0231 Y0.9279 I-0.1121 J-0.0553
G1 X-0.066 Y0.9922
G3 X-0.0759 Y1.0051 I-0.1039 J-0.0694
G1 X-0.1269 Y1.0632
G3 X-0.1384 Y1.0748 I-0.094 J-0.0824
G1 X-0.1965 Y1.1257
G3 X-0.2095 Y1.1357 I-0.0824 J-0.094
G1 X-0.2737 Y1.1786
G3 X-0.2879 Y1.1868 I-0.0694 J-0.1039
G1 X-0.3571 Y1.2209
G3 X-0.3722 Y1.2272 I-0.0553 J-0.1121
G1 X-0.4454 Y1.252
G3 X-0.4612 Y1.2563 I-0.0402 J-0.1184
G1 X-0.5369 Y1.2713
G3 X-0.5532 Y1.2735 I-0.0244 J-0.1226
G1 X-0.6302 Y1.2785
G3 X-0.6384 Y1.2788 I-0.0082 J-0.1247
G1 Z-0.2 F30
G1 X-5.3628 Y1.2788 F20
G3 X-5.371 Y1.2785 I0 J-0.125
G1 X-5.4481 Y1.2735
G3 X-5.4643 Y1.2713 I0.0082 J-0.1247
G1 X-5.5401 Y1.2563
G3 X-5.5559 Y1.252 I0.0244 J-0.1226
G1 X-5.629 Y1.2272
G3 X-5.6441 Y1.2209 I0.0402 J-0.1184
G1 X-5.7134 Y1.1868
G3 X-5.7275 Y1.1786 I0.0553 J-0.1121
G1 X-5.7918 Y1.1357
G3 X-5.8047 Y1.1257 I0.0694 J-0.1039
G1 X-5.8628 Y1.0748
G3 X-5.8744 Y1.0632 I0.0824 J-0.094
G1 X-5.9253 Y1.0051
G3 X-5.9353 Y0.9922 I0.094 J-0.0824
G1 X-5.9782 Y0.9279
G3 X-5.9864 Y0.9138 I0.1039 J-0.0694
G1 X-6.0205 Y0.8445
G3 X-6.0268 Y0.8294 I0.1121 J-0.0553
G1 X-6.0516 Y0.7563
G3 X-6.0559 Y0.7405 I0.1184 J-0.0402
G1 X-6.0709 Y0.6647
G3 X-6.0731 Y0.6485 I0.1226 J-0.0244
G1 X-6.0781 Y0.5714
G3 X-6.0784 Y0.5632 I0.1247 J-0.0082
G3 X-6.0781 Y0.5551 I0.125 J0
G1 X-6.0731 Y0.478
G3 X-6.0709 Y0.4618 I0.1247 J0.0082
G1 X-6.0559 Y0.386
G3 X-6.0516 Y0.3702 I0.1226 J0.0244
G1 X-6.0268 Y0.2971
G3 X-6.0205 Y0.2819 I0.1184 J0.0402
G1 X-5.9864 Y0.2127
G3 X-5.9782 Y0.1985 I0.1121 J0.0553
G1 X-5.9353 Y0.1343
G3 X-5.9253 Y0.1213 I0.1039 J0.0694
G1 X-5.8744 Y0.0632
G3 X-5.8628 Y0.0517 I0.094 J0.0824
G1 X-5.8047 Y0.0007
G3 X-5.7918 Y-0.0092 I0.0824 J0.094
G1 X-5.7275 Y-0.0521
G3 X-5.7134 Y-0.0603 I0.0694 J0.1039
G1 X-5.6441 Y-0.0945
G3 X-5.629 Y-0.1007 I0.0553 J0.1121
G1 X-5.5559 Y-0.1256
G3 X-5.5401 Y-0.1298 I0.0402 J0.1184
G1 X-5.4643 Y-0.1449
G3 X-5.4481 Y-0.147 I0.0244 J0.1226
G1 X-5.371 Y-0.1521
G3 X-5.3628 Y-0.1523 I0.0082 J0.1247
G1 X-0.6384 Y-0.1523
G3 X-0.6302 Y-0.1521 I0 J0.125
G1 X-0.5532 Y-0.147
G3 X-0.5369 Y-0.1449 I-0.0082 J0.1247
G1 X-0.4612 Y-0.1298
G3 X-0.4454 Y-0.1256 I-0.0244 J0.1226
G1 X-0.3722 Y-0.1007
G3 X-0.3571 Y-0.0945 I-0.0402 J0.1184
G1 X-0.2879 Y-0.0603
G3 X-0.2737 Y-0.0521 I-0.0553 J0.1121
G1 X-0.2095 Y-0.0092
G3 X-0.1965 Y0.0007 I-0.0694 J0.1039
G1 X-0.1384 Y0.0517
G3 X-0.1269 Y0.0632 I-0.0824 J0.094
G1 X-0.0759 Y0.1213
G3 X-0.066 Y0.1343 I-0.094 J0.0824
G1 X-0.0231 Y0.1985
G3 X-0.0149 Y0.2127 I-0.1039 J0.0694
G1 X0.0193 Y0.2819
G3 X0.0255 Y0.2971 I-0.1121 J0.0553
G1 X0.0504 Y0.3702
G3 X0.0546 Y0.386 I-0.1184 J0.0402
G1 X0.0697 Y0.4618
G3 X0.0718 Y0.478 I-0.1226 J0.0244
G1 X0.0769 Y0.5551
G3 X0.0771 Y0.5632 I-0.1247 J0.0082
G3 X0.0769 Y0.5714 I-0.125 J0
G1 X0.0718 Y0.6485
G3 X0.0697 Y0.6647 I-0.1247 J-0.0082
G1 X0.0546 Y0.7405
G3 X0.0504 Y0.7563 I-0.1226 J-0.0244
G1 X0.0255 Y0.8294
G3 X0.0193 Y0.8445 I-0.1184 J-0.0402
G1 X-0.0149 Y0.9138
G3 X-0.0231 Y0.9279 I-0.1121 J-0.0553
G1 X-0.066 Y0.9922
G3 X-0.0759 Y1.0051 I-0.1039 J-0.0694
G1 X-0.1269 Y1.0632
G3 X-0.1384 Y1.0748 I-0.094 J-0.0824
G1 X-0.1965 Y1.1257
G3 X-0.2095 Y1.1357 I-0.0824 J-0.094
G1 X-0.2737 Y1.1786
G3 X-0.2879 Y1.1868 I-0.0694 J-0.1039
G1 X-0.3571 Y1.2209
G3 X-0.3722 Y1.2272 I-0.0553 J-0.1121
G1 X-0.4454 Y1.252
G3 X-0.4612 Y1.2563 I-0.0402 J-0.1184
G1 X-0.5369 Y1.2713
G3 X-0.5532 Y1.2735 I-0.0244 J-0.1226
G1 X-0.6302 Y1.2785
G3 X-0.6384 Y1.2788 I-0.0082 J-0.1247
G1 Z-0.3 F30
G1 X-5.3628 Y1.2788 F20
G3 X-5.371 Y1.2785 I0 J-0.125
G1 X-5.4481 Y1.2735
G3 X-5.4643 Y1.2713 I0.0082 J-0.1247
G1 X-5.5401 Y1.2563
G3 X-5.5559 Y1.252 I0.0244 J-0.1226
G1 X-5.629 Y1.2272
G3 X-5.6441 Y1.2209 I0.0402 J-0.1184
G1 X-5.7134 Y1.1868
G3 X-5.7275 Y1.1786 I0.0553 J-0.1121
G1 X-5.7918 Y1.1357
G3 X-5.8047 Y1.1257 I0.0694 J-0.1039
G1 X-5.8628 Y1.0748
G3 X-5.8744 Y1.0632 I0.0824 J-0.094
G1 X-5.9253 Y1.0051
G3 X-5.9353 Y0.9922 I0.094 J-0.0824
G1 X-5.9782 Y0.9279
G3 X-5.9864 Y0.9138 I0.1039 J-0.0694
G1 X-6.0205 Y0.8445
G3 X-6.0268 Y0.8294 I0.1121 J-0.0553
G1 X-6.0516 Y0.7563
G3 X-6.0559 Y0.7405 I0.1184 J-0.0402
G1 X-6.0709 Y0.6647
G3 X-6.0731 Y0.6485 I0.1226 J-0.0244
G1 X-6.0781 Y0.5714
G3 X-6.0784 Y0.5632 I0.1247 J-0.0082
G3 X-6.0781 Y0.5551 I0.125 J0
G1 X-6.0731 Y0.478
G3 X-6.0709 Y0.4618 I0.1247 J0.0082
G1 X-6.0559 Y0.386
G3 X-6.0516 Y0.3702 I0.1226 J0.0244
G1 X-6.0268 Y0.2971
G3 X-6.0205 Y0.2819 I0.1184 J0.0402
G1 X-5.9864 Y0.2127
G3 X-5.9782 Y0.1985 I0.1121 J0.0553
G1 X-5.9353 Y0.1343
G3 X-5.9253 Y0.1213 I0.1039 J0.0694
G1 X-5.8744 Y0.0632
G3 X-5.8628 Y0.0517 I0.094 J0.0824
G1 X-5.8047 Y0.0007
G3 X-5.7918 Y-0.0092 I0.0824 J0.094
G1 X-5.7275 Y-0.0521
G3 X-5.7134 Y-0.0603 I0.0694 J0.1039
G1 X-5.6441 Y-0.0945
G3 X-5.629 Y-0.1007 I0.0553 J0.1121
G1 X-5.5559 Y-0.1256
G3 X-5.5401 Y-0.1298 I0.0402 J0.1184
G1 X-5.4643 Y-0.1449
G3 X-5.4481 Y-0.147 I0.0244 J0.1226
G1 X-5.371 Y-0.1521
G3 X-5.3628 Y-0.1523 I0.0082 J0.1247
G1 X-0.6384 Y-0.1523
G3 X-0.6302 Y-0.1521 I0 J0.125
G1 X-0.5532 Y-0.147
G3 X-0.5369 Y-0.1449 I-0.0082 J0.1247
G1 X-0.4612 Y-0.1298
G3 X-0.4454 Y-0.1256 I-0.0244 J0.1226
G1 X-0.3722 Y-0.1007
G3 X-0.3571 Y-0.0945 I-0.0402 J0.1184
G1 X-0.2879 Y-0.0603
G3 X-0.2737 Y-0.0521 I-0.0553 J0.1121
G1 X-0.2095 Y-0.0092
G3 X-0.1965 Y0.0007 I-0.0694 J0.1039
G1 X-0.1384 Y0.0517
G3 X-0.1269 Y0.0632 I-0.0824 J0.094
G1 X-0.0759 Y0.1213
G3 X-0.066 Y0.1343 I-0.094 J0.0824
G1 X-0.0231 Y0.1985
G3 X-0.0149 Y0.2127 I-0.1039 J0.0694
G1 X0.0193 Y0.2819
G3 X0.0255 Y0.2971 I-0.1121 J0.0553
G1 X0.0504 Y0.3702
G3 X0.0546 Y0.386 I-0.1184 J0.0402
G1 X0.0697 Y0.4618
G3 X0.0718 Y0.478 I-0.1226 J0.0244
G1 X0.0769 Y0.5551
G3 X0.0771 Y0.5632 I-0.1247 J0.0082
G3 X0.0769 Y0.5714 I-0.125 J0
G1 X0.0718 Y0.6485
G3 X0.0697 Y0.6647 I-0.1247 J-0.0082
G1 X0.0546 Y0.7405
G3 X0.0504 Y0.7563 I-0.1226 J-0.0244
G1 X0.0255 Y0.8294
G3 X0.0193 Y0.8445 I-0.1184 J-0.0402
G1 X-0.0149 Y0.9138
G3 X-0.0231 Y0.9279 I-0.1121 J-0.0553
G1 X-0.066 Y0.9922
G3 X-0.0759 Y1.0051 I-0.1039 J-0.0694
G1 X-0.1269 Y1.0632
G3 X-0.1384 Y1.0748 I-0.094 J-0.0824
G1 X-0.1965 Y1.1257
G3 X-0.2095 Y1.1357 I-0.0824 J-0.094
G1 X-0.2737 Y1.1786
G3 X-0.2879 Y1.1868 I-0.0694 J-0.1039
G1 X-0.3571 Y1.2209
G3 X-0.3722 Y1.2272 I-0.0553 J-0.1121
G1 X-0.4454 Y1.252
G3 X-0.4612 Y1.2563 I-0.0402 J-0.1184
G1 X-0.5369 Y1.2713
G3 X-0.5532 Y1.2735 I-0.0244 J-0.1226
G1 X-0.6302 Y1.2785
G3 X-0.6384 Y1.2788 I-0.0082 J-0.1247
G1 Z-0.4 F30
G1 X-5.3628 Y1.2788 F20
G3 X-5.371 Y1.2785 I0 J-0.125
G1 X-5.4481 Y1.2735
G3 X-5.4643 Y1.2713 I0.0082 J-0.1247
G1 X-5.5401 Y1.2563
G3 X-5.5559 Y1.252 I0.0244 J-0.1226
G1 X-5.629 Y1.2272
G3 X-5.6441 Y1.2209 I0.0402 J-0.1184
G1 X-5.7134 Y1.1868
G3 X-5.7275 Y1.1786 I0.0553 J-0.1121
G1 X-5.7918 Y1.1357
G3 X-5.8047 Y1.1257 I0.0694 J-0.1039
G1 X-5.8628 Y1.0748
G3 X-5.8744 Y1.0632 I0.0824 J-0.094
G1 X-5.9253 Y1.0051
G3 X-5.9353 Y0.9922 I0.094 J-0.0824
G1 X-5.9782 Y0.9279
G3 X-5.9864 Y0.9138 I0.1039 J-0.0694
G1 X-6.0205 Y0.8445
G3 X-6.0268 Y0.8294 I0.1121 J-0.0553
G1 X-6.0516 Y0.7563
G3 X-6.0559 Y0.7405 I0.1184 J-0.0402
G1 X-6.0709 Y0.6647
G3 X-6.0731 Y0.6485 I0.1226 J-0.0244
G1 X-6.0781 Y0.5714
G3 X-6.0784 Y0.5632 I0.1247 J-0.0082
G3 X-6.0781 Y0.5551 I0.125 J0
G1 X-6.0731 Y0.478
G3 X-6.0709 Y0.4618 I0.1247 J0.0082
G1 X-6.0559 Y0.386
G3 X-6.0516 Y0.3702 I0.1226 J0.0244
G1 X-6.0268 Y0.2971
G3 X-6.0205 Y0.2819 I0.1184 J0.0402
G1 X-5.9864 Y0.2127
G3 X-5.9782 Y0.1985 I0.1121 J0.0553
G1 X-5.9353 Y0.1343
G3 X-5.9253 Y0.1213 I0.1039 J0.0694
G1 X-5.8744 Y0.0632
G3 X-5.8628 Y0.0517 I0.094 J0.0824
G1 X-5.8047 Y0.0007
G3 X-5.7918 Y-0.0092 I0.0824 J0.094
G1 X-5.7275 Y-0.0521
G3 X-5.7134 Y-0.0603 I0.0694 J0.1039
G1 X-5.6441 Y-0.0945
G3 X-5.629 Y-0.1007 I0.0553 J0.1121
G1 X-5.5559 Y-0.1256
G3 X-5.5401 Y-0.1298 I0.0402 J0.1184
G1 X-5.4643 Y-0.1449
G3 X-5.4481 Y-0.147 I0.0244 J0.1226
G1 X-5.371 Y-0.1521
G3 X-5.3628 Y-0.1523 I0.0082 J0.1247
G1 X-0.6384 Y-0.1523
G3 X-0.6302 Y-0.1521 I0 J0.125
G1 X-0.5532 Y-0.147
G3 X-0.5369 Y-0.1449 I-0.0082 J0.1247
G1 X-0.4612 Y-0.1298
G3 X-0.4454 Y-0.1256 I-0.0244 J0.1226
G1 X-0.3722 Y-0.1007
G3 X-0.3571 Y-0.0945 I-0.0402 J0.1184
G1 X-0.2879 Y-0.0603
G3 X-0.2737 Y-0.0521 I-0.0553 J0.1121
G1 X-0.2095 Y-0.0092
G3 X-0.1965 Y0.0007 I-0.0694 J0.1039
G1 X-0.1384 Y0.0517
G3 X-0.1269 Y0.0632 I-0.0824 J0.094
G1 X-0.0759 Y0.1213
G3 X-0.066 Y0.1343 I-0.094 J0.0824
G1 X-0.0231 Y0.1985
G3 X-0.0149 Y0.2127 I-0.1039 J0.0694
G1 X0.0193 Y0.2819
G3 X0.0255 Y0.2971 I-0.1121 J0.0553
G1 X0.0504 Y0.3702
G3 X0.0546 Y0.386 I-0.1184 J0.0402
G1 X0.0697 Y0.4618
G3 X0.0718 Y0.478 I-0.1226 J0.0244
G1 X0.0769 Y0.5551
G3 X0.0771 Y0.5632 I-0.1247 J0.0082
G3 X0.0769 Y0.5714 I-0.125 J0
G1 X0.0718 Y0.6485
G3 X0.0697 Y0.6647 I-0.1247 J-0.0082
G1 X0.0546 Y0.7405
G3 X0.0504 Y0.7563 I-0.1226 J-0.0244
G1 X0.0255 Y0.8294
G3 X0.0193 Y0.8445 I-0.1184 J-0.0402
G1 X-0.0149 Y0.9138
G3 X-0.0231 Y0.9279 I-0.1121 J-0.0553
G1 X-0.066 Y0.9922
G3 X-0.0759 Y1.0051 I-0.1039 J-0.0694
G1 X-0.1269 Y1.0632
G3 X-0.1384 Y1.0748 I-0.094 J-0.0824
G1 X-0.1965 Y1.1257
G3 X-0.2095 Y1.1357 I-0.0824 J-0.094
G1 X-0.2737 Y1.1786
G3 X-0.2879 Y1.1868 I-0.0694 J-0.1039
G1 X-0.3571 Y1.2209
G3 X-0.3722 Y1.2272 I-0.0553 J-0.1121
G1 X-0.4454 Y1.252
G3 X-0.4612 Y1.2563 I-0.0402 J-0.1184
G1 X-0.5369 Y1.2713
G3 X-0.5532 Y1.2735 I-0.0244 J-0.1226
G1 X-0.6302 Y1.2785
G3 X-0.6384 Y1.2788 I-0.0082 J-0.1247
G1 Z-0.5 F30
G1 X-5.3628 Y1.2788 F20
G3 X-5.371 Y1.2785 I0 J-0.125
G1 X-5.4481 Y1.2735
G3 X-5.4643 Y1.2713 I0.0082 J-0.1247
G1 X-5.5401 Y1.2563
G3 X-5.5559 Y1.252 I0.0244 J-0.1226
G1 X-5.629 Y1.2272
G3 X-5.6441 Y1.2209 I0.0402 J-0.1184
G1 X-5.7134 Y1.1868
G3 X-5.7275 Y1.1786 I0.0553 J-0.1121
G1 X-5.7918 Y1.1357
G3 X-5.8047 Y1.1257 I0.0694 J-0.1039
G1 X-5.8628 Y1.0748
G3 X-5.8744 Y1.0632 I0.0824 J-0.094
G1 X-5.9253 Y1.0051
G3 X-5.9353 Y0.9922 I0.094 J-0.0824
G1 X-5.9782 Y0.9279
G3 X-5.9864 Y0.9138 I0.1039 J-0.0694
G1 X-6.0205 Y0.8445
G3 X-6.0268 Y0.8294 I0.1121 J-0.0553
G1 X-6.0516 Y0.7563
G3 X-6.0559 Y0.7405 I0.1184 J-0.0402
G1 X-6.0709 Y0.6647
G3 X-6.0731 Y0.6485 I0.1226 J-0.0244
G1 X-6.0781 Y0.5714
G3 X-6.0784 Y0.5632 I0.1247 J-0.0082
G3 X-6.0781 Y0.5551 I0.125 J0
G1 X-6.0731 Y0.478
G3 X-6.0709 Y0.4618 I0.1247 J0.0082
G1 X-6.0559 Y0.386
G3 X-6.0516 Y0.3702 I0.1226 J0.0244
G1 X-6.0268 Y0.2971
G3 X-6.0205 Y0.2819 I0.1184 J0.0402
G1 X-5.9864 Y0.2127
G3 X-5.9782 Y0.1985 I0.1121 J0.0553
G1 X-5.9353 Y0.1343
G3 X-5.9253 Y0.1213 I0.1039 J0.0694
G1 X-5.8744 Y0.0632
G3 X-5.8628 Y0.0517 I0.094 J0.0824
G1 X-5.8047 Y0.0007
G3 X-5.7918 Y-0.0092 I0.0824 J0.094
G1 X-5.7275 Y-0.0521
G3 X-5.7134 Y-0.0603 I0.0694 J0.1039
G1 X-5.6441 Y-0.0945
G3 X-5.629 Y-0.1007 I0.0553 J0.1121
G1 X-5.5559 Y-0.1256
G3 X-5.5401 Y-0.1298 I0.0402 J0.1184
G1 X-5.4643 Y-0.1449
G3 X-5.4481 Y-0.147 I0.0244 J0.1226
G1 X-5.371 Y-0.1521
G3 X-5.3628 Y-0.1523 I0.0082 J0.1247
G1 X-0.6384 Y-0.1523
G3 X-0.6302 Y-0.1521 I0 J0.125
G1 X-0.5532 Y-0.147
G3 X-0.5369 Y-0.1449 I-0.0082 J0.1247
G1 X-0.4612 Y-0.1298
G3 X-0.4454 Y-0.1256 I-0.0244 J0.1226
G1 X-0.3722 Y-0.1007
G3 X-0.3571 Y-0.0945 I-0.0402 J0.1184
G1 X-0.2879 Y-0.0603
G3 X-0.2737 Y-0.0521 I-0.0553 J0.1121
G1 X-0.2095 Y-0.0092
G3 X-0.1965 Y0.0007 I-0.0694 J0.1039
G1 X-0.1384 Y0.0517
G3 X-0.1269 Y0.0632 I-0.0824 J0.094
G1 X-0.0759 Y0.1213
G3 X-0.066 Y0.1343 I-0.094 J0.0824
G1 X-0.0231 Y0.1985
G3 X-0.0149 Y0.2127 I-0.1039 J0.0694
G1 X0.0193 Y0.2819
G3 X0.0255 Y0.2971 I-0.1121 J0.0553
G1 X0.0504 Y0.3702
G3 X0.0546 Y0.386 I-0.1184 J0.0402
G1 X0.0697 Y0.4618
G3 X0.0718 Y0.478 I-0.1226 J0.0244
G1 X0.0769 Y0.5551
G3 X0.0771 Y0.5632 I-0.1247 J0.0082
G3 X0.0769 Y0.5714 I-0.125 J0
G1 X0.0718 Y0.6485
G3 X0.0697 Y0.6647 I-0.1247 J-0.0082
G1 X0.0546 Y0.7405
G3 X0.0504 Y0.7563 I-0.1226 J-0.0244
G1 X0.0255 Y0.8294
G3 X0.0193 Y0.8445 I-0.1184 J-0.0402
G1 X-0.0149 Y0.9138
G3 X-0.0231 Y0.9279 I-0.1121 J-0.0553
G1 X-0.066 Y0.9922
G3 X-0.0759 Y1.0051 I-0.1039 J-0.0694
G1 X-0.1269 Y1.0632
G3 X-0.1384 Y1.0748 I-0.094 J-0.0824
G1 X-0.1965 Y1.1257
G3 X-0.2095 Y1.1357 I-0.0824 J-0.094
G1 X-0.2737 Y1.1786
G3 X-0.2879 Y1.1868 I-0.0694 J-0.1039
G1 X-0.3571 Y1.2209
G3 X-0.3722 Y1.2272 I-0.0553 J-0.1121
G1 X-0.4454 Y1.252
G3 X-0.4612 Y1.2563 I-0.0402 J-0.1184
G1 X-0.5369 Y1.2713
G3 X-0.5532 Y1.2735 I-0.0244 J-0.1226
G1 X-0.6302 Y1.2785
G3 X-0.6384 Y1.2788 I-0.0082 J-0.1247
G1 Z-0.6 F30
G1 X-5.3628 Y1.2788 F20
G3 X-5.371 Y1.2785 I0 J-0.125
G1 X-5.4481 Y1.2735
G3 X-5.4643 Y1.2713 I0.0082 J-0.1247
G1 X-5.5401 Y1.2563
G3 X-5.5559 Y1.252 I0.0244 J-0.1226
G1 X-5.629 Y1.2272
G3 X-5.6441 Y1.2209 I0.0402 J-0.1184
G1 X-5.7134 Y1.1868
G3 X-5.7275 Y1.1786 I0.0553 J-0.1121
G1 X-5.7918 Y1.1357
G3 X-5.8047 Y1.1257 I0.0694 J-0.1039
G1 X-5.8628 Y1.0748
G3 X-5.8744 Y1.0632 I0.0824 J-0.094
G1 X-5.9253 Y1.0051
G3 X-5.9353 Y0.9922 I0.094 J-0.0824
G1 X-5.9782 Y0.9279
G3 X-5.9864 Y0.9138 I0.1039 J-0.0694
G1 X-6.0205 Y0.8445
G3 X-6.0268 Y0.8294 I0.1121 J-0.0553
G1 X-6.0516 Y0.7563
G3 X-6.0559 Y0.7405 I0.1184 J-0.0402
G1 X-6.0709 Y0.6647
G3 X-6.0731 Y0.6485 I0.1226 J-0.0244
G1 X-6.0781 Y0.5714
G3 X-6.0784 Y0.5632 I0.1247 J-0.0082
G3 X-6.0781 Y0.5551 I0.125 J0
G1 X-6.0731 Y0.478
G3 X-6.0709 Y0.4618 I0.1247 J0.0082
G1 X-6.0559 Y0.386
G3 X-6.0516 Y0.3702 I0.1226 J0.0244
G1 X-6.0268 Y0.2971
G3 X-6.0205 Y0.2819 I0.1184 J0.0402
G1 X-5.9864 Y0.2127
G3 X-5.9782 Y0.1985 I0.1121 J0.0553
G1 X-5.9353 Y0.1343
G3 X-5.9253 Y0.1213 I0.1039 J0.0694
G1 X-5.8744 Y0.0632
G3 X-5.8628 Y0.0517 I0.094 J0.0824
G1 X-5.8047 Y0.0007
G3 X-5.7918 Y-0.0092 I0.0824 J0.094
G1 X-5.7275 Y-0.0521
G3 X-5.7134 Y-0.0603 I0.0694 J0.1039
G1 X-5.6441 Y-0.0945
G3 X-5.629 Y-0.1007 I0.0553 J0.1121
G1 X-5.5559 Y-0.1256
G3 X-5.5401 Y-0.1298 I0.0402 J0.1184
G1 X-5.4643 Y-0.1449
G3 X-5.4481 Y-0.147 I0.0244 J0.1226
G1 X-5.371 Y-0.1521
G3 X-5.3628 Y-0.1523 I0.0082 J0.1247
G1 X-0.6384 Y-0.1523
G3 X-0.6302 Y-0.1521 I0 J0.125
G1 X-0.5532 Y-0.147
G3 X-0.5369 Y-0.1449 I-0.0082 J0.1247
G1 X-0.4612 Y-0.1298
G3 X-0.4454 Y-0.1256 I-0.0244 J0.1226
G1 X-0.3722 Y-0.1007
G3 X-0.3571 Y-0.0945 I-0.0402 J0.1184
G1 X-0.2879 Y-0.0603
G3 X-0.2737 Y-0.0521 I-0.0553 J0.1121
G1 X-0.2095 Y-0.0092
G3 X-0.1965 Y0.0007 I-0.0694 J0.1039
G1 X-0.1384 Y0.0517
G3 X-0.1269 Y0.0632 I-0.0824 J0.094
G1 X-0.0759 Y0.1213
G3 X-0.066 Y0.1343 I-0.094 J0.0824
G1 X-0.0231 Y0.1985
G3 X-0.0149 Y0.2127 I-0.1039 J0.0694
G1 X0.0193 Y0.2819
G3 X0.0255 Y0.2971 I-0.1121 J0.0553
G1 X0.0504 Y0.3702
G3 X0.0546 Y0.386 I-0.1184 J0.0402
G1 X0.0697 Y0.4618
G3 X0.0718 Y0.478 I-0.1226 J0.0244
G1 X0.0769 Y0.5551
G3 X0.0771 Y0.5632 I-0.1247 J0.0082
G3 X0.0769 Y0.5714 I-0.125 J0
G1 X0.0718 Y0.6485
G3 X0.0697 Y0.6647 I-0.1247 J-0.0082
G1 X0.0546 Y0.7405
G3 X0.0504 Y0.7563 I-0.1226 J-0.0244
G1 X0.0255 Y0.8294
G3 X0.0193 Y0.8445 I-0.1184 J-0.0402
G1 X-0.0149 Y0.9138
G3 X-0.0231 Y0.9279 I-0.1121 J-0.0553
G1 X-0.066 Y0.9922
G3 X-0.0759 Y1.0051 I-0.1039 J-0.0694
G1 X-0.1269 Y1.0632
G3 X-0.1384 Y1.0748 I-0.094 J-0.0824
G1 X-0.1965 Y1.1257
G3 X-0.2095 Y1.1357 I-0.0824 J-0.094
G1 X-0.2737 Y1.1786
G3 X-0.2879 Y1.1868 I-0.0694 J-0.1039
G1 X-0.3571 Y1.2209
G3 X-0.3722 Y1.2272 I-0.0553 J-0.1121
G1 X-0.4454 Y1.252
G3 X-0.4612 Y1.2563 I-0.0402 J-0.1184
G1 X-0.5369 Y1.2713
G3 X-0.5532 Y1.2735 I-0.0244 J-0.1226
G1 X-0.6302 Y1.2785
G3 X-0.6384 Y1.2788 I-0.0082 J-0.1247
G1 Z-0.7 F30
G1 X-5.3628 Y1.2788 F20
G3 X-5.371 Y1.2785 I0 J-0.125
G1 X-5.4481 Y1.2735
G3 X-5.4643 Y1.2713 I0.0082 J-0.1247
G1 X-5.5401 Y1.2563
G3 X-5.5559 Y1.252 I0.0244 J-0.1226
G1 X-5.629 Y1.2272
G3 X-5.6441 Y1.2209 I0.0402 J-0.1184
G1 X-5.7134 Y1.1868
G3 X-5.7275 Y1.1786 I0.0553 J-0.1121
G1 X-5.7918 Y1.1357
G3 X-5.8047 Y1.1257 I0.0694 J-0.1039
G1 X-5.8628 Y1.0748
G3 X-5.8744 Y1.0632 I0.0824 J-0.094
G1 X-5.9253 Y1.0051
G3 X-5.9353 Y0.9922 I0.094 J-0.0824
G1 X-5.9782 Y0.9279
G3 X-5.9864 Y0.9138 I0.1039 J-0.0694
G1 X-6.0205 Y0.8445
G3 X-6.0268 Y0.8294 I0.1121 J-0.0553
G1 X-6.0516 Y0.7563
G3 X-6.0559 Y0.7405 I0.1184 J-0.0402
G1 X-6.0709 Y0.6647
G3 X-6.0731 Y0.6485 I0.1226 J-0.0244
G1 X-6.0781 Y0.5714
G3 X-6.0784 Y0.5632 I0.1247 J-0.0082
G3 X-6.0781 Y0.5551 I0.125 J0
G1 X-6.0731 Y0.478
G3 X-6.0709 Y0.4618 I0.1247 J0.0082
G1 X-6.0559 Y0.386
G3 X-6.0516 Y0.3702 I0.1226 J0.0244
G1 X-6.0268 Y0.2971
G3 X-6.0205 Y0.2819 I0.1184 J0.0402
G1 X-5.9864 Y0.2127
G3 X-5.9782 Y0.1985 I0.1121 J0.0553
G1 X-5.9353 Y0.1343
G3 X-5.9253 Y0.1213 I0.1039 J0.0694
G1 X-5.8744 Y0.0632
G3 X-5.8628 Y0.0517 I0.094 J0.0824
G1 X-5.8047 Y0.0007
G3 X-5.7918 Y-0.0092 I0.0824 J0.094
G1 X-5.7275 Y-0.0521
G3 X-5.7134 Y-0.0603 I0.0694 J0.1039
G1 X-5.6441 Y-0.0945
G3 X-5.629 Y-0.1007 I0.0553 J0.1121
G1 X-5.5559 Y-0.1256
G3 X-5.5401 Y-0.1298 I0.0402 J0.1184
G1 X-5.4643 Y-0.1449
G3 X-5.4481 Y-0.147 I0.0244 J0.1226
G1 X-5.371 Y-0.1521
G3 X-5.3628 Y-0.1523 I0.0082 J0.1247
G1 X-0.6384 Y-0.1523
G3 X-0.6302 Y-0.1521 I0 J0.125
G1 X-0.5532 Y-0.147
G3 X-0.5369 Y-0.1449 I-0.0082 J0.1247
G1 X-0.4612 Y-0.1298
G3 X-0.4454 Y-0.1256 I-0.0244 J0.1226
G1 X-0.3722 Y-0.1007
G3 X-0.3571 Y-0.0945 I-0.0402 J0.1184
G1 X-0.2879 Y-0.0603
G3 X-0.2737 Y-0.0521 I-0.0553 J0.1121
G1 X-0.2095 Y-0.0092
G3 X-0.1965 Y0.0007 I-0.0694 J0.1039
G1 X-0.1384 Y0.0517
G3 X-0.1269 Y0.0632 I-0.0824 J0.094
G1 X-0.0759 Y0.1213
G3 X-0.066 Y0.1343 I-0.094 J0.0824
G1 X-0.0231 Y0.1985
G3 X-0.0149 Y0.2127 I-0.1039 J0.0694
G1 X0.0193 Y0.2819
G3 X0.0255 Y0.2971 I-0.1121 J0.0553
G1 X0.0504 Y0.3702
G3 X0.0546 Y0.386 I-0.1184 J0.0402
G1 X0.0697 Y0.4618
G3 X0.0718 Y0.478 I-0.1226 J0.0244
G1 X0.0769 Y0.5551
G3 X0.0771 Y0.5632 I-0.1247 J0.0082
G3 X0.0769 Y0.5714 I-0.125 J0
G1 X0.0718 Y0.6485
G3 X0.0697 Y0.6647 I-0.1247 J-0.0082
G1 X0.0546 Y0.7405
G3 X0.0504 Y0.7563 I-0.1226 J-0.0244
G1 X0.0255 Y0.8294
G3 X0.0193 Y0.8445 I-0.1184 J-0.0402
G1 X-0.0149 Y0.9138
G3 X-0.0231 Y0.9279 I-0.1121 J-0.0553
G1 X-0.066 Y0.9922
G3 X-0.0759 Y1.0051 I-0.1039 J-0.0694
G1 X-0.1269 Y1.0632
G3 X-0.1384 Y1.0748 I-0.094 J-0.0824
G1 X-0.1965 Y1.1257
G3 X-0.2095 Y1.1357 I-0.0824 J-0.094
G1 X-0.2737 Y1.1786
G3 X-0.2879 Y1.1868 I-0.0694 J-0.1039
G1 X-0.3571 Y1.2209
G3 X-0.3722 Y1.2272 I-0.0553 J-0.1121
G1 X-0.4454 Y1.252
G3 X-0.4612 Y1.2563 I-0.0402 J-0.1184
G1 X-0.5369 Y1.2713
G3 X-0.5532 Y1.2735 I-0.0244 J-0.1226
G1 X-0.6302 Y1.2785
G3 X-0.6384 Y1.2788 I-0.0082 J-0.1247
G1 Z-0.8 F30
G1 X-5.3628 Y1.2788 F20
G3 X-5.371 Y1.2785 I0 J-0.125
G1 X-5.4481 Y1.2735
G3 X-5.4643 Y1.2713 I0.0082 J-0.1247
G1 X-5.5401 Y1.2563
G3 X-5.5559 Y1.252 I0.0244 J-0.1226
G1 X-5.629 Y1.2272
G3 X-5.6441 Y1.2209 I0.0402 J-0.1184
G1 X-5.7134 Y1.1868
G3 X-5.7275 Y1.1786 I0.0553 J-0.1121
G1 X-5.7918 Y1.1357
G3 X-5.8047 Y1.1257 I0.0694 J-0.1039
G1 X-5.8628 Y1.0748
G3 X-5.8744 Y1.0632 I0.0824 J-0.094
G1 X-5.9253 Y1.0051
G3 X-5.9353 Y0.9922 I0.094 J-0.0824
G1 X-5.9782 Y0.9279
G3 X-5.9864 Y0.9138 I0.1039 J-0.0694
G1 X-6.0205 Y0.8445
G3 X-6.0268 Y0.8294 I0.1121 J-0.0553
G1 X-6.0516 Y0.7563
G3 X-6.0559 Y0.7405 I0.1184 J-0.0402
G1 X-6.0709 Y0.6647
G3 X-6.0731 Y0.6485 I0.1226 J-0.0244
G1 X-6.0781 Y0.5714
G3 X-6.0784 Y0.5632 I0.1247 J-0.0082
G3 X-6.0781 Y0.5551 I0.125 J0
G1 X-6.0731 Y0.478
G3 X-6.0709 Y0.4618 I0.1247 J0.0082
G1 X-6.0559 Y0.386
G3 X-6.0516 Y0.3702 I0.1226 J0.0244
G1 X-6.0268 Y0.2971
G3 X-6.0205 Y0.2819 I0.1184 J0.0402
G1 X-5.9864 Y0.2127
G3 X-5.9782 Y0.1985 I0.1121 J0.0553
G1 X-5.9353 Y0.1343
G3 X-5.9253 Y0.1213 I0.1039 J0.0694
G1 X-5.8744 Y0.0632
G3 X-5.8628 Y0.0517 I0.094 J0.0824
G1 X-5.8047 Y0.0007
G3 X-5.7918 Y-0.0092 I0.0824 J0.094
G1 X-5.7275 Y-0.0521
G3 X-5.7134 Y-0.0603 I0.0694 J0.1039
G1 X-5.6441 Y-0.0945
G3 X-5.629 Y-0.1007 I0.0553 J0.1121
G1 X-5.5559 Y-0.1256
G3 X-5.5401 Y-0.1298 I0.0402 J0.1184
G1 X-5.4643 Y-0.1449
G3 X-5.4481 Y-0.147 I0.0244 J0.1226
G1 X-5.371 Y-0.1521
G3 X-5.3628 Y-0.1523 I0.0082 J0.1247
G1 X-0.6384 Y-0.1523
G3 X-0.6302 Y-0.1521 I0 J0.125
G1 X-0.5532 Y-0.147
G3 X-0.5369 Y-0.1449 I-0.0082 J0.1247
G1 X-0.4612 Y-0.1298
G3 X-0.4454 Y-0.1256 I-0.0244 J0.1226
G1 X-0.3722 Y-0.1007
G3 X-0.3571 Y-0.0945 I-0.0402 J0.1184
G1 X-0.2879 Y-0.0603
G3 X-0.2737 Y-0.0521 I-0.0553 J0.1121
G1 X-0.2095 Y-0.0092
G3 X-0.1965 Y0.0007 I-0.0694 J0.1039
G1 X-0.1384 Y0.0517
G3 X-0.1269 Y0.0632 I-0.0824 J0.094
G1 X-0.0759 Y0.1213
G3 X-0.066 Y0.1343 I-0.094 J0.0824
G1 X-0.0231 Y0.1985
G3 X-0.0149 Y0.2127 I-0.1039 J0.0694
G1 X0.0193 Y0.2819
G3 X0.0255 Y0.2971 I-0.1121 J0.0553
G1 X0.0504 Y0.3702
G3 X0.0546 Y0.386 I-0.1184 J0.0402
G1 X0.0697 Y0.4618
G3 X0.0718 Y0.478 I-0.1226 J0.0244
G1 X0.0769 Y0.5551
G3 X0.0771 Y0.5632 I-0.1247 J0.0082
G3 X0.0769 Y0.5714 I-0.125 J0
G1 X0.0718 Y0.6485
G3 X0.0697 Y0.6647 I-0.1247 J-0.0082
G1 X0.0546 Y0.7405
G3 X0.0504 Y0.7563 I-0.1226 J-0.0244
G1 X0.0255 Y0.8294
G3 X0.0193 Y0.8445 I-0.1184 J-0.0402
G1 X-0.0149 Y0.9138
G3 X-0.0231 Y0.9279 I-0.1121 J-0.0553
G1 X-0.066 Y0.9922
G3 X-0.0759 Y1.0051 I-0.1039 J-0.0694
G1 X-0.1269 Y1.0632
G3 X-0.1384 Y1.0748 I-0.094 J-0.0824
G1 X-0.1965 Y1.1257
G3 X-0.2095 Y1.1357 I-0.0824 J-0.094
G1 X-0.2737 Y1.1786
G3 X-0.2879 Y1.1868 I-0.0694 J-0.1039
G1 X-0.3571 Y1.2209
G3 X-0.3722 Y1.2272 I-0.0553 J-0.1121
G1 X-0.4454 Y1.252
G3 X-0.4612 Y1.2563 I-0.0402 J-0.1184
G1 X-0.5369 Y1.2713
G3 X-0.5532 Y1.2735 I-0.0244 J-0.1226
G1 X-0.6302 Y1.2785
G3 X-0.6384 Y1.2788 I-0.0082 J-0.1247
G1 Z-0.85 F30
G1 X-5.3628 Y1.2788 F20
G3 X-5.371 Y1.2785 I0 J-0.125
G1 X-5.4481 Y1.2735
G3 X-5.4643 Y1.2713 I0.0082 J-0.1247
G1 X-5.5401 Y1.2563
G3 X-5.5559 Y1.252 I0.0244 J-0.1226
G1 X-5.629 Y1.2272
G3 X-5.6441 Y1.2209 I0.0402 J-0.1184
G1 X-5.7134 Y1.1868
G3 X-5.7275 Y1.1786 I0.0553 J-0.1121
G1 X-5.7918 Y1.1357
G3 X-5.8047 Y1.1257 I0.0694 J-0.1039
G1 X-5.8628 Y1.0748
G3 X-5.8744 Y1.0632 I0.0824 J-0.094
G1 X-5.9253 Y1.0051
G3 X-5.9353 Y0.9922 I0.094 J-0.0824
G1 X-5.9782 Y0.9279
G3 X-5.9864 Y0.9138 I0.1039 J-0.0694
G1 X-6.0205 Y0.8445
G3 X-6.0268 Y0.8294 I0.1121 J-0.0553
G1 X-6.0516 Y0.7563
G3 X-6.0559 Y0.7405 I0.1184 J-0.0402
G1 X-6.0709 Y0.6647
G3 X-6.0731 Y0.6485 I0.1226 J-0.0244
G1 X-6.0781 Y0.5714
G3 X-6.0784 Y0.5632 I0.1247 J-0.0082
G3 X-6.0781 Y0.5551 I0.125 J0
G1 X-6.0731 Y0.478
G3 X-6.0709 Y0.4618 I0.1247 J0.0082
G1 X-6.0559 Y0.386
G3 X-6.0516 Y0.3702 I0.1226 J0.0244
G1 X-6.0268 Y0.2971
G3 X-6.0205 Y0.2819 I0.1184 J0.0402
G1 X-5.9864 Y0.2127
G3 X-5.9782 Y0.1985 I0.1121 J0.0553
G1 X-5.9353 Y0.1343
G3 X-5.9253 Y0.1213 I0.1039 J0.0694
G1 X-5.8744 Y0.0632
G3 X-5.8628 Y0.0517 I0.094 J0.0824
G1 X-5.8047 Y0.0007
G3 X-5.7918 Y-0.0092 I0.0824 J0.094
G1 X-5.7275 Y-0.0521
G3 X-5.7134 Y-0.0603 I0.0694 J0.1039
G1 X-5.6441 Y-0.0945
G3 X-5.629 Y-0.1007 I0.0553 J0.1121
G1 X-5.5559 Y-0.1256
G3 X-5.5401 Y-0.1298 I0.0402 J0.1184
G1 X-5.4643 Y-0.1449
G3 X-5.4481 Y-0.147 I0.0244 J0.1226
G1 X-5.371 Y-0.1521
G3 X-5.3628 Y-0.1523 I0.0082 J0.1247
G1 X-0.6384 Y-0.1523
G3 X-0.6302 Y-0.1521 I0 J0.125
G1 X-0.5532 Y-0.147
G3 X-0.5369 Y-0.1449 I-0.0082 J0.1247
G1 X-0.4612 Y-0.1298
G3 X-0.4454 Y-0.1256 I-0.0244 J0.1226
G1 X-0.3722 Y-0.1007
G3 X-0.3571 Y-0.0945 I-0.0402 J0.1184
G1 X-0.2879 Y-0.0603
G3 X-0.2737 Y-0.0521 I-0.0553 J0.1121
G1 X-0.2095 Y-0.0092
G3 X-0.1965 Y0.0007 I-0.0694 J0.1039
G1 X-0.1384 Y0.0517
G3 X-0.1269 Y0.0632 I-0.0824 J0.094
G1 X-0.0759 Y0.1213
G3 X-0.066 Y0.1343 I-0.094 J0.0824
G1 X-0.0231 Y0.1985
G3 X-0.0149 Y0.2127 I-0.1039 J0.0694
G1 X0.0193 Y0.2819
G3 X0.0255 Y0.2971 I-0.1121 J0.0553
G1 X0.0504 Y0.3702
G3 X0.0546 Y0.386 I-0.1184 J0.0402
G1 X0.0697 Y0.4618
G3 X0.0718 Y0.478 I-0.1226 J0.0244
G1 X0.0769 Y0.5551
G3 X0.0771 Y0.5632 I-0.1247 J0.0082
G3 X0.0769 Y0.5714 I-0.125 J0
G1 X0.0718 Y0.6485
G3 X0.0697 Y0.6647 I-0.1247 J-0.0082
G1 X0.0546 Y0.7405
G3 X0.0504 Y0.7563 I-0.1226 J-0.0244
G1 X0.0255 Y0.8294
G3 X0.0193 Y0.8445 I-0.1184 J-0.0402
G1 X-0.0149 Y0.9138
G3 X-0.0231 Y0.9279 I-0.1121 J-0.0553
G1 X-0.066 Y0.9922
G3 X-0.0759 Y1.0051 I-0.1039 J-0.0694
G1 X-0.1269 Y1.0632
G3 X-0.1384 Y1.0748 I-0.094 J-0.0824
G1 X-0.1965 Y1.1257
G3 X-0.2095 Y1.1357 I-0.0824 J-0.094
G1 X-0.2737 Y1.1786
G3 X-0.2879 Y1.1868 I-0.0694 J-0.1039
G1 X-0.3571 Y1.2209
G3 X-0.3722 Y1.2272 I-0.0553 J-0.1121
G1 X-0.4454 Y1.252
G3 X-0.4612 Y1.2563 I-0.0402 J-0.1184
G1 X-0.5369 Y1.2713
G3 X-0.5532 Y1.2735 I-0.0244 J-0.1226
G1 X-0.6302 Y1.2785
G3 X-0.6384 Y1.2788 I-0.0082 J-0.1247
G0 Z0.25
G0 X-11.7096 Y-0.1483
G1 Z-0.1 F30
G1 X-6.9852 Y-0.1483 F20
G3 X-6.977 Y-0.148 I0 J0.125
G1 X-6.8999 Y-0.143
G3 X-6.8837 Y-0.1409 I-0.0082 J0.1247
G1 X-6.808 Y-0.1258
G3 X-6.7922 Y-0.1216 I-0.0244 J0.1226
G1 X-6.719 Y-0.0967
G3 X-6.7039 Y-0.0905 I-0.0402 J0.1184
G1 X-6.6346 Y-0.0563
G3 X-6.6205 Y-0.0481 I-0.0553 J0.1121
G1 X-6.5562 Y-0.0052
G3 X-6.5433 Y0.0047 I-0.0694 J0.1039
G1 X-6.4852 Y0.0557
G3 X-6.4736 Y0.0672 I-0.0824 J0.094
G1 X-6.4227 Y0.1253
G3 X-6.4127 Y0.1383 I-0.094 J0.0824
G1 X-6.3698 Y0.2025
G3 X-6.3616 Y0.2167 I-0.1039 J0.0694
G1 X-6.3275 Y0.286
G3 X-6.3212 Y0.3011 I-0.1121 J0.0553
G1 X-6.2964 Y0.3742
G3 X-6.2922 Y0.39 I-0.1184 J0.0402
G1 X-6.2771 Y0.4658
G3 X-6.275 Y0.482 I-0.1226 J0.0244
G1 X-6.2699 Y0.5591
G3 X-6.2696 Y0.5672 I-0.1247 J0.0082
G3 X-6.2699 Y0.5754 I-0.125 J0
G1 X-6.275 Y0.6525
G3 X-6.2771 Y0.6687 I-0.1247 J-0.0082
G1 X-6.2922 Y0.7445
G3 X-6.2964 Y0.7603 I-0.1226 J-0.0244
G1 X-6.3212 Y0.8334
G3 X-6.3275 Y0.8485 I-0.1184 J-0.0402
G1 X-6.3616 Y0.9178
G3 X-6.3698 Y0.932 I-0.1121 J-0.0553
G1 X-6.4127 Y0.9962
G3 X-6.4227 Y1.0092 I-0.1039 J-0.0694
G1 X-6.4736 Y1.0672
G3 X-6.4852 Y1.0788 I-0.094 J-0.0824
G1 X-6.5433 Y1.1297
G3 X-6.5562 Y1.1397 I-0.0824 J-0.094
G1 X-6.6205 Y1.1826
G3 X-6.6346 Y1.1908 I-0.0694 J-0.1039
G1 X-6.7039 Y1.2249
G3 X-6.719 Y1.2312 I-0.0553 J-0.1121
G1 X-6.7922 Y1.256
G3 X-6.808 Y1.2603 I-0.0402 J-0.1184
G1 X-6.8837 Y1.2753
G3 X-6.8999 Y1.2775 I-0.0244 J-0.1226
G1 X-6.977 Y1.2825
G3 X-6.9852 Y1.2828 I-0.0082 J-0.1247
G1 X-11.7096 Y1.2828
G3 X-11.7178 Y1.2825 I0 J-0.125
G1 X-11.7949 Y1.2775
G3 X-11.8111 Y1.2753 I0.0082 J-0.1247
G1 X-11.8868 Y1.2603
G3 X-11.9026 Y1.256 I0.0244 J-0.1226
G1 X-11.9758 Y1.2312
G3 X-11.9909 Y1.2249 I0.0402 J-0.1184
G1 X-12.0602 Y1.1908
G3 X-12.0743 Y1.1826 I0.0553 J-0.1121
G1 X-12.1385 Y1.1397
G3 X-12.1515 Y1.1297 I0.0694 J-0.1039
G1 X-12.2096 Y1.0788
G3 X-12.2212 Y1.0672 I0.0824 J-0.094
G1 X-12.2721 Y1.0092
G3 X-12.282 Y0.9962 I0.094 J-0.0824
G1 X-12.325 Y0.932
G3 X-12.3331 Y0.9178 I0.1039 J-0.0694
G1 X-12.3673 Y0.8485
G3 X-12.3736 Y0.8334 I0.1121 J-0.0553
G1 X-12.3984 Y0.7603
G3 X-12.4026 Y0.7445 I0.1184 J-0.0402
G1 X-12.4177 Y0.6687
G3 X-12.4198 Y0.6525 I0.1226 J-0.0244
G1 X-12.4249 Y0.5754
G3 X-12.4251 Y0.5672 I0.1247 J-0.0082
G3 X-12.4249 Y0.5591 I0.125 J0
G1 X-12.4198 Y0.482
G3 X-12.4177 Y0.4658 I0.1247 J0.0082
G1 X-12.4026 Y0.39
G3 X-12.3984 Y0.3742 I0.1226 J0.0244
G1 X-12.3736 Y0.3011
G3 X-12.3673 Y0.286 I0.1184 J0.0402
G1 X-12.3331 Y0.2167
G3 X-12.325 Y0.2025 I0.1121 J0.0553
G1 X-12.282 Y0.1383
G3 X-12.2721 Y0.1253 I0.1039 J0.0694
G1 X-12.2212 Y0.0672
G3 X-12.2096 Y0.0557 I0.094 J0.0824
G1 X-12.1515 Y0.0047
G3 X-12.1385 Y-0.0052 I0.0824 J0.094
G1 X-12.0743 Y-0.0481
G3 X-12.0602 Y-0.0563 I0.0694 J0.1039
G1 X-11.9909 Y-0.0905
G3 X-11.9758 Y-0.0967 I0.0553 J0.1121
G1 X-11.9026 Y-0.1216
G3 X-11.8868 Y-0.1258 I0.0402 J0.1184
G1 X-11.8111 Y-0.1409
G3 X-11.7949 Y-0.143 I0.0244 J0.1226
G1 X-11.7178 Y-0.148
G3 X-11.7096 Y-0.1483 I0.0082 J0.1247
G1 Z-0.2 F30
G1 X-6.9852 Y-0.1483 F20
G3 X-6.977 Y-0.148 I0 J0.125
G1 X-6.8999 Y-0.143
G3 X-6.8837 Y-0.1409 I-0.0082 J0.1247
G1 X-6.808 Y-0.1258
G3 X-6.7922 Y-0.1216 I-0.0244 J0.1226
G1 X-6.719 Y-0.0967
G3 X-6.7039 Y-0.0905 I-0.0402 J0.1184
G1 X-6.6346 Y-0.0563
G3 X-6.6205 Y-0.0481 I-0.0553 J0.1121
G1 X-6.5562 Y-0.0052
G3 X-6.5433 Y0.0047 I-0.0694 J0.1039
G1 X-6.4852 Y0.0557
G3 X-6.4736 Y0.0672 I-0.0824 J0.094
G1 X-6.4227 Y0.1253
G3 X-6.4127 Y0.1383 I-0.094 J0.0824
G1 X-6.3698 Y0.2025
G3 X-6.3616 Y0.2167 I-0.1039 J0.0694
G1 X-6.3275 Y0.286
G3 X-6.3212 Y0.3011 I-0.1121 J0.0553
G1 X-6.2964 Y0.3742
G3 X-6.2922 Y0.39 I-0.1184 J0.0402
G1 X-6.2771 Y0.4658
G3 X-6.275 Y0.482 I-0.1226 J0.0244
G1 X-6.2699 Y0.5591
G3 X-6.2696 Y0.5672 I-0.1247 J0.0082
G3 X-6.2699 Y0.5754 I-0.125 J0
G1 X-6.275 Y0.6525
G3 X-6.2771 Y0.6687 I-0.1247 J-0.0082
G1 X-6.2922 Y0.7445
G3 X-6.2964 Y0.7603 I-0.1226 J-0.0244
G1 X-6.3212 Y0.8334
G3 X-6.3275 Y0.8485 I-0.1184 J-0.0402
G1 X-6.3616 Y0.9178
G3 X-6.3698 Y0.932 I-0.1121 J-0.0553
G1 X-6.4127 Y0.9962
G3 X-6.4227 Y1.0092 I-0.1039 J-0.0694
G1 X-6.4736 Y1.0672
G3 X-6.4852 Y1.0788 I-0.094 J-0.0824
G1 X-6.5433 Y1.1297
G3 X-6.5562 Y1.1397 I-0.0824 J-0.094
G1 X-6.6205 Y1.1826
G3 X-6.6346 Y1.1908 I-0.0694 J-0.1039
G1 X-6.7039 Y1.2249
G3 X-6.719 Y1.2312 I-0.0553 J-0.1121
G1 X-6.7922 Y1.256
G3 X-6.808 Y1.2603 I-0.0402 J-0.1184
G1 X-6.8837 Y1.2753
G3 X-6.8999 Y1.2775 I-0.0244 J-0.1226
G1 X-6.977 Y1.2825
G3 X-6.9852 Y1.2828 I-0.0082 J-0.1247
G1 X-11.7096 Y1.2828
G3 X-11.7178 Y1.2825 I0 J-0.125
G1 X-11.7949 Y1.2775
G3 X-11.8111 Y1.2753 I0.0082 J-0.1247
G1 X-11.8868 Y1.2603
G3 X-11.9026 Y1.256 I0.0244 J-0.1226
G1 X-11.9758 Y1.2312
G3 X-11.9909 Y1.2249 I0.0402 J-0.1184
G1 X-12.0602 Y1.1908
G3 X-12.0743 Y1.1826 I0.0553 J-0.1121
G1 X-12.1385 Y1.1397
G3 X-12.1515 Y1.1297 I0.0694 J-0.1039
G1 X-12.2096 Y1.0788
G3 X-12.2212 Y1.0672 I0.0824 J-0.094
G1 X-12.2721 Y1.0092
G3 X-12.282 Y0.9962 I0.094 J-0.0824
G1 X-12.325 Y0.932
G3 X-12.3331 Y0.9178 I0.1039 J-0.0694
G1 X-12.3673 Y0.8485
G3 X-12.3736 Y0.8334 I0.1121 J-0.0553
G1 X-12.3984 Y0.7603
G3 X-12.4026 Y0.7445 I0.1184 J-0.0402
G1 X-12.4177 Y0.6687
G3 X-12.4198 Y0.6525 I0.1226 J-0.0244
G1 X-12.4249 Y0.5754
G3 X-12.4251 Y0.5672 I0.1247 J-0.0082
G3 X-12.4249 Y0.5591 I0.125 J0
G1 X-12.4198 Y0.482
G3 X-12.4177 Y0.4658 I0.1247 J0.0082
G1 X-12.4026 Y0.39
G3 X-12.3984 Y0.3742 I0.1226 J0.0244
G1 X-12.3736 Y0.3011
G3 X-12.3673 Y0.286 I0.1184 J0.0402
G1 X-12.3331 Y0.2167
G3 X-12.325 Y0.2025 I0.1121 J0.0553
G1 X-12.282 Y0.1383
G3 X-12.2721 Y0.1253 I0.1039 J0.0694
G1 X-12.2212 Y0.0672
G3 X-12.2096 Y0.0557 I0.094 J0.0824
G1 X-12.1515 Y0.0047
G3 X-12.1385 Y-0.0052 I0.0824 J0.094
G1 X-12.0743 Y-0.0481
G3 X-12.0602 Y-0.0563 I0.0694 J0.1039
G1 X-11.9909 Y-0.0905
G3 X-11.9758 Y-0.0967 I0.0553 J0.1121
G1 X-11.9026 Y-0.1216
G3 X-11.8868 Y-0.1258 I0.0402 J0.1184
G1 X-11.8111 Y-0.1409
G3 X-11.7949 Y-0.143 I0.0244 J0.1226
G1 X-11.7178 Y-0.148
G3 X-11.7096 Y-0.1483 I0.0082 J0.1247
G1 Z-0.3 F30
G1 X-6.9852 Y-0.1483 F20
G3 X-6.977 Y-0.148 I0 J0.125
G1 X-6.8999 Y-0.143
G3 X-6.8837 Y-0.1409 I-0.0082 J0.1247
G1 X-6.808 Y-0.1258
G3 X-6.7922 Y-0.1216 I-0.0244 J0.1226
G1 X-6.719 Y-0.0967
G3 X-6.7039 Y-0.0905 I-0.0402 J0.1184
G1 X-6.6346 Y-0.0563
G3 X-6.6205 Y-0.0481 I-0.0553 J0.1121
G1 X-6.5562 Y-0.0052
G3 X-6.5433 Y0.0047 I-0.0694 J0.1039
G1 X-6.4852 Y0.0557
G3 X-6.4736 Y0.0672 I-0.0824 J0.094
G1 X-6.4227 Y0.1253
G3 X-6.4127 Y0.1383 I-0.094 J0.0824
G1 X-6.3698 Y0.2025
G3 X-6.3616 Y0.2167 I-0.1039 J0.0694
G1 X-6.3275 Y0.286
G3 X-6.3212 Y0.3011 I-0.1121 J0.0553
G1 X-6.2964 Y0.3742
G3 X-6.2922 Y0.39 I-0.1184 J0.0402
G1 X-6.2771 Y0.4658
G3 X-6.275 Y0.482 I-0.1226 J0.0244
G1 X-6.2699 Y0.5591
G3 X-6.2696 Y0.5672 I-0.1247 J0.0082
G3 X-6.2699 Y0.5754 I-0.125 J0
G1 X-6.275 Y0.6525
G3 X-6.2771 Y0.6687 I-0.1247 J-0.0082
G1 X-6.2922 Y0.7445
G3 X-6.2964 Y0.7603 I-0.1226 J-0.0244
G1 X-6.3212 Y0.8334
G3 X-6.3275 Y0.8485 I-0.1184 J-0.0402
G1 X-6.3616 Y0.9178
G3 X-6.3698 Y0.932 I-0.1121 J-0.0553
G1 X-6.4127 Y0.9962
G3 X-6.4227 Y1.0092 I-0.1039 J-0.0694
G1 X-6.4736 Y1.0672
G3 X-6.4852 Y1.0788 I-0.094 J-0.0824
G1 X-6.5433 Y1.1297
G3 X-6.5562 Y1.1397 I-0.0824 J-0.094
G1 X-6.6205 Y1.1826
G3 X-6.6346 Y1.1908 I-0.0694 J-0.1039
G1 X-6.7039 Y1.2249
G3 X-6.719 Y1.2312 I-0.0553 J-0.1121
G1 X-6.7922 Y1.256
G3 X-6.808 Y1.2603 I-0.0402 J-0.1184
G1 X-6.8837 Y1.2753
G3 X-6.8999 Y1.2775 I-0.0244 J-0.1226
G1 X-6.977 Y1.2825
G3 X-6.9852 Y1.2828 I-0.0082 J-0.1247
G1 X-11.7096 Y1.2828
G3 X-11.7178 Y1.2825 I0 J-0.125
G1 X-11.7949 Y1.2775
G3 X-11.8111 Y1.2753 I0.0082 J-0.1247
G1 X-11.8868 Y1.2603
G3 X-11.9026 Y1.256 I0.0244 J-0.1226
G1 X-11.9758 Y1.2312
G3 X-11.9909 Y1.2249 I0.0402 J-0.1184
G1 X-12.0602 Y1.1908
G3 X-12.0743 Y1.1826 I0.0553 J-0.1121
G1 X-12.1385 Y1.1397
G3 X-12.1515 Y1.1297 I0.0694 J-0.1039
G1 X-12.2096 Y1.0788
G3 X-12.2212 Y1.0672 I0.0824 J-0.094
G1 X-12.2721 Y1.0092
G3 X-12.282 Y0.9962 I0.094 J-0.0824
G1 X-12.325 Y0.932
G3 X-12.3331 Y0.9178 I0.1039 J-0.0694
G1 X-12.3673 Y0.8485
G3 X-12.3736 Y0.8334 I0.1121 J-0.0553
G1 X-12.3984 Y0.7603
G3 X-12.4026 Y0.7445 I0.1184 J-0.0402
G1 X-12.4177 Y0.6687
G3 X-12.4198 Y0.6525 I0.1226 J-0.0244
G1 X-12.4249 Y0.5754
G3 X-12.4251 Y0.5672 I0.1247 J-0.0082
G3 X-12.4249 Y0.5591 I0.125 J0
G1 X-12.4198 Y0.482
G3 X-12.4177 Y0.4658 I0.1247 J0.0082
G1 X-12.4026 Y0.39
G3 X-12.3984 Y0.3742 I0.1226 J0.0244
G1 X-12.3736 Y0.3011
G3 X-12.3673 Y0.286 I0.1184 J0.0402
G1 X-12.3331 Y0.2167
G3 X-12.325 Y0.2025 I0.1121 J0.0553
G1 X-12.282 Y0.1383
G3 X-12.2721 Y0.1253 I0.1039 J0.0694
G1 X-12.2212 Y0.0672
G3 X-12.2096 Y0.0557 I0.094 J0.0824
G1 X-12.1515 Y0.0047
G3 X-12.1385 Y-0.0052 I0.0824 J0.094
G1 X-12.0743 Y-0.0481
G3 X-12.0602 Y-0.0563 I0.0694 J0.1039
G1 X-11.9909 Y-0.0905
G3 X-11.9758 Y-0.0967 I0.0553 J0.1121
G1 X-11.9026 Y-0.1216
G3 X-11.8868 Y-0.1258 I0.0402 J0.1184
G1 X-11.8111 Y-0.1409
G3 X-11.7949 Y-0.143 I0.0244 J0.1226
G1 X-11.7178 Y-0.148
G3 X-11.7096 Y-0.1483 I0.0082 J0.1247
G1 Z-0.4 F30
G1 X-6.9852 Y-0.1483 F20
G3 X-6.977 Y-0.148 I0 J0.125
G1 X-6.8999 Y-0.143
G3 X-6.8837 Y-0.1409 I-0.0082 J0.1247
G1 X-6.808 Y-0.1258
G3 X-6.7922 Y-0.1216 I-0.0244 J0.1226
G1 X-6.719 Y-0.0967
G3 X-6.7039 Y-0.0905 I-0.0402 J0.1184
G1 X-6.6346 Y-0.0563
G3 X-6.6205 Y-0.0481 I-0.0553 J0.1121
G1 X-6.5562 Y-0.0052
G3 X-6.5433 Y0.0047 I-0.0694 J0.1039
G1 X-6.4852 Y0.0557
G3 X-6.4736 Y0.0672 I-0.0824 J0.094
G1 X-6.4227 Y0.1253
G3 X-6.4127 Y0.1383 I-0.094 J0.0824
G1 X-6.3698 Y0.2025
G3 X-6.3616 Y0.2167 I-0.1039 J0.0694
G1 X-6.3275 Y0.286
G3 X-6.3212 Y0.3011 I-0.1121 J0.0553
G1 X-6.2964 Y0.3742
G3 X-6.2922 Y0.39 I-0.1184 J0.0402
G1 X-6.2771 Y0.4658
G3 X-6.275 Y0.482 I-0.1226 J0.0244
G1 X-6.2699 Y0.5591
G3 X-6.2696 Y0.5672 I-0.1247 J0.0082
G3 X-6.2699 Y0.5754 I-0.125 J0
G1 X-6.275 Y0.6525
G3 X-6.2771 Y0.6687 I-0.1247 J-0.0082
G1 X-6.2922 Y0.7445
G3 X-6.2964 Y0.7603 I-0.1226 J-0.0244
G1 X-6.3212 Y0.8334
G3 X-6.3275 Y0.8485 I-0.1184 J-0.0402
G1 X-6.3616 Y0.9178
G3 X-6.3698 Y0.932 I-0.1121 J-0.0553
G1 X-6.4127 Y0.9962
G3 X-6.4227 Y1.0092 I-0.1039 J-0.0694
G1 X-6.4736 Y1.0672
G3 X-6.4852 Y1.0788 I-0.094 J-0.0824
G1 X-6.5433 Y1.1297
G3 X-6.5562 Y1.1397 I-0.0824 J-0.094
G1 X-6.6205 Y1.1826
G3 X-6.6346 Y1.1908 I-0.0694 J-0.1039
G1 X-6.7039 Y1.2249
G3 X-6.719 Y1.2312 I-0.0553 J-0.1121
G1 X-6.7922 Y1.256
G3 X-6.808 Y1.2603 I-0.0402 J-0.1184
G1 X-6.8837 Y1.2753
G3 X-6.8999 Y1.2775 I-0.0244 J-0.1226
G1 X-6.977 Y1.2825
G3 X-6.9852 Y1.2828 I-0.0082 J-0.1247
G1 X-11.7096 Y1.2828
G3 X-11.7178 Y1.2825 I0 J-0.125
G1 X-11.7949 Y1.2775
G3 X-11.8111 Y1.2753 I0.0082 J-0.1247
G1 X-11.8868 Y1.2603
G3 X-11.9026 Y1.256 I0.0244 J-0.1226
G1 X-11.9758 Y1.2312
G3 X-11.9909 Y1.2249 I0.0402 J-0.1184
G1 X-12.0602 Y1.1908
G3 X-12.0743 Y1.1826 I0.0553 J-0.1121
G1 X-12.1385 Y1.1397
G3 X-12.1515 Y1.1297 I0.0694 J-0.1039
G1 X-12.2096 Y1.0788
G3 X-12.2212 Y1.0672 I0.0824 J-0.094
G1 X-12.2721 Y1.0092
G3 X-12.282 Y0.9962 I0.094 J-0.0824
G1 X-12.325 Y0.932
G3 X-12.3331 Y0.9178 I0.1039 J-0.0694
G1 X-12.3673 Y0.8485
G3 X-12.3736 Y0.8334 I0.1121 J-0.0553
G1 X-12.3984 Y0.7603
G3 X-12.4026 Y0.7445 I0.1184 J-0.0402
G1 X-12.4177 Y0.6687
G3 X-12.4198 Y0.6525 I0.1226 J-0.0244
G1 X-12.4249 Y0.5754
G3 X-12.4251 Y0.5672 I0.1247 J-0.0082
G3 X-12.4249 Y0.5591 I0.125 J0
G1 X-12.4198 Y0.482
G3 X-12.4177 Y0.4658 I0.1247 J0.0082
G1 X-12.4026 Y0.39
G3 X-12.3984 Y0.3742 I0.1226 J0.0244
G1 X-12.3736 Y0.3011
G3 X-12.3673 Y0.286 I0.1184 J0.0402
G1 X-12.3331 Y0.2167
G3 X-12.325 Y0.2025 I0.1121 J0.0553
G1 X-12.282 Y0.1383
G3 X-12.2721 Y0.1253 I0.1039 J0.0694
G1 X-12.2212 Y0.0672
G3 X-12.2096 Y0.0557 I0.094 J0.0824
G1 X-12.1515 Y0.0047
G3 X-12.1385 Y-0.0052 I0.0824 J0.094
G1 X-12.0743 Y-0.0481
G3 X-12.0602 Y-0.0563 I0.0694 J0.1039
G1 X-11.9909 Y-0.0905
G3 X-11.9758 Y-0.0967 I0.0553 J0.1121
G1 X-11.9026 Y-0.1216
G3 X-11.8868 Y-0.1258 I0.0402 J0.1184
G1 X-11.8111 Y-0.1409
G3 X-11.7949 Y-0.143 I0.0244 J0.1226
G1 X-11.7178 Y-0.148
G3 X-11.7096 Y-0.1483 I0.0082 J0.1247
G1 Z-0.5 F30
G1 X-6.9852 Y-0.1483 F20
G3 X-6.977 Y-0.148 I0 J0.125
G1 X-6.8999 Y-0.143
G3 X-6.8837 Y-0.1409 I-0.0082 J0.1247
G1 X-6.808 Y-0.1258
G3 X-6.7922 Y-0.1216 I-0.0244 J0.1226
G1 X-6.719 Y-0.0967
G3 X-6.7039 Y-0.0905 I-0.0402 J0.1184
G1 X-6.6346 Y-0.0563
G3 X-6.6205 Y-0.0481 I-0.0553 J0.1121
G1 X-6.5562 Y-0.0052
G3 X-6.5433 Y0.0047 I-0.0694 J0.1039
G1 X-6.4852 Y0.0557
G3 X-6.4736 Y0.0672 I-0.0824 J0.094
G1 X-6.4227 Y0.1253
G3 X-6.4127 Y0.1383 I-0.094 J0.0824
G1 X-6.3698 Y0.2025
G3 X-6.3616 Y0.2167 I-0.1039 J0.0694
G1 X-6.3275 Y0.286
G3 X-6.3212 Y0.3011 I-0.1121 J0.0553
G1 X-6.2964 Y0.3742
G3 X-6.2922 Y0.39 I-0.1184 J0.0402
G1 X-6.2771 Y0.4658
G3 X-6.275 Y0.482 I-0.1226 J0.0244
G1 X-6.2699 Y0.5591
G3 X-6.2696 Y0.5672 I-0.1247 J0.0082
G3 X-6.2699 Y0.5754 I-0.125 J0
G1 X-6.275 Y0.6525
G3 X-6.2771 Y0.6687 I-0.1247 J-0.0082
G1 X-6.2922 Y0.7445
G3 X-6.2964 Y0.7603 I-0.1226 J-0.0244
G1 X-6.3212 Y0.8334
G3 X-6.3275 Y0.8485 I-0.1184 J-0.0402
G1 X-6.3616 Y0.9178
G3 X-6.3698 Y0.932 I-0.1121 J-0.0553
G1 X-6.4127 Y0.9962
G3 X-6.4227 Y1.0092 I-0.1039 J-0.0694
G1 X-6.4736 Y1.0672
G3 X-6.4852 Y1.0788 I-0.094 J-0.0824
G1 X-6.5433 Y1.1297
G3 X-6.5562 Y1.1397 I-0.0824 J-0.094
G1 X-6.6205 Y1.1826
G3 X-6.6346 Y1.1908 I-0.0694 J-0.1039
G1 X-6.7039 Y1.2249
G3 X-6.719 Y1.2312 I-0.0553 J-0.1121
G1 X-6.7922 Y1.256
G3 X-6.808 Y1.2603 I-0.0402 J-0.1184
G1 X-6.8837 Y1.2753
G3 X-6.8999 Y1.2775 I-0.0244 J-0.1226
G1 X-6.977 Y1.2825
G3 X-6.9852 Y1.2828 I-0.0082 J-0.1247
G1 X-11.7096 Y1.2828
G3 X-11.7178 Y1.2825 I0 J-0.125
G1 X-11.7949 Y1.2775
G3 X-11.8111 Y1.2753 I0.0082 J-0.1247
G1 X-11.8868 Y1.2603
G3 X-11.9026 Y1.256 I0.0244 J-0.1226
G1 X-11.9758 Y1.2312
G3 X-11.9909 Y1.2249 I0.0402 J-0.1184
G1 X-12.0602 Y1.1908
G3 X-12.0743 Y1.1826 I0.0553 J-0.1121
G1 X-12.1385 Y1.1397
G3 X-12.1515 Y1.1297 I0.0694 J-0.1039
G1 X-12.2096 Y1.0788
G3 X-12.2212 Y1.0672 I0.0824 J-0.094
G1 X-12.2721 Y1.0092
G3 X-12.282 Y0.9962 I0.094 J-0.0824
G1 X-12.325 Y0.932
G3 X-12.3331 Y0.9178 I0.1039 J-0.0694
G1 X-12.3673 Y0.8485
G3 X-12.3736 Y0.8334 I0.1121 J-0.0553
G1 X-12.3984 Y0.7603
G3 X-12.4026 Y0.7445 I0.1184 J-0.0402
G1 X-12.4177 Y0.6687
G3 X-12.4198 Y0.6525 I0.1226 J-0.0244
G1 X-12.4249 Y0.5754
G3 X-12.4251 Y0.5672 I0.1247 J-0.0082
G3 X-12.4249 Y0.5591 I0.125 J0
G1 X-12.4198 Y0.482
G3 X-12.4177 Y0.4658 I0.1247 J0.0082
G1 X-12.4026 Y0.39
G3 X-12.3984 Y0.3742 I0.1226 J0.0244
G1 X-12.3736 Y0.3011
G3 X-12.3673 Y0.286 I0.1184 J0.0402
G1 X-12.3331 Y0.2167
G3 X-12.325 Y0.2025 I0.1121 J0.0553
G1 X-12.282 Y0.1383
G3 X-12.2721 Y0.1253 I0.1039 J0.0694
G1 X-12.2212 Y0.0672
G3 X-12.2096 Y0.0557 I0.094 J0.0824
G1 X-12.1515 Y0.0047
G3 X-12.1385 Y-0.0052 I0.0824 J0.094
G1 X-12.0743 Y-0.0481
G3 X-12.0602 Y-0.0563 I0.0694 J0.1039
G1 X-11.9909 Y-0.0905
G3 X-11.9758 Y-0.0967 I0.0553 J0.1121
G1 X-11.9026 Y-0.1216
G3 X-11.8868 Y-0.1258 I0.0402 J0.1184
G1 X-11.8111 Y-0.1409
G3 X-11.7949 Y-0.143 I0.0244 J0.1226
G1 X-11.7178 Y-0.148
G3 X-11.7096 Y-0.1483 I0.0082 J0.1247
G1 Z-0.6 F30
G1 X-6.9852 Y-0.1483 F20
G3 X-6.977 Y-0.148 I0 J0.125
G1 X-6.8999 Y-0.143
G3 X-6.8837 Y-0.1409 I-0.0082 J0.1247
G1 X-6.808 Y-0.1258
G3 X-6.7922 Y-0.1216 I-0.0244 J0.1226
G1 X-6.719 Y-0.0967
G3 X-6.7039 Y-0.0905 I-0.0402 J0.1184
G1 X-6.6346 Y-0.0563
G3 X-6.6205 Y-0.0481 I-0.0553 J0.1121
G1 X-6.5562 Y-0.0052
G3 X-6.5433 Y0.0047 I-0.0694 J0.1039
G1 X-6.4852 Y0.0557
G3 X-6.4736 Y0.0672 I-0.0824 J0.094
G1 X-6.4227 Y0.1253
G3 X-6.4127 Y0.1383 I-0.094 J0.0824
G1 X-6.3698 Y0.2025
G3 X-6.3616 Y0.2167 I-0.1039 J0.0694
G1 X-6.3275 Y0.286
G3 X-6.3212 Y0.3011 I-0.1121 J0.0553
G1 X-6.2964 Y0.3742
G3 X-6.2922 Y0.39 I-0.1184 J0.0402
G1 X-6.2771 Y0.4658
G3 X-6.275 Y0.482 I-0.1226 J0.0244
G1 X-6.2699 Y0.5591
G3 X-6.2696 Y0.5672 I-0.1247 J0.0082
G3 X-6.2699 Y0.5754 I-0.125 J0
G1 X-6.275 Y0.6525
G3 X-6.2771 Y0.6687 I-0.1247 J-0.0082
G1 X-6.2922 Y0.7445
G3 X-6.2964 Y0.7603 I-0.1226 J-0.0244
G1 X-6.3212 Y0.8334
G3 X-6.3275 Y0.8485 I-0.1184 J-0.0402
G1 X-6.3616 Y0.9178
G3 X-6.3698 Y0.932 I-0.1121 J-0.0553
G1 X-6.4127 Y0.9962
G3 X-6.4227 Y1.0092 I-0.1039 J-0.0694
G1 X-6.4736 Y1.0672
G3 X-6.4852 Y1.0788 I-0.094 J-0.0824
G1 X-6.5433 Y1.1297
G3 X-6.5562 Y1.1397 I-0.0824 J-0.094
G1 X-6.6205 Y1.1826
G3 X-6.6346 Y1.1908 I-0.0694 J-0.1039
G1 X-6.7039 Y1.2249
G3 X-6.719 Y1.2312 I-0.0553 J-0.1121
G1 X-6.7922 Y1.256
G3 X-6.808 Y1.2603 I-0.0402 J-0.1184
G1 X-6.8837 Y1.2753
G3 X-6.8999 Y1.2775 I-0.0244 J-0.1226
G1 X-6.977 Y1.2825
G3 X-6.9852 Y1.2828 I-0.0082 J-0.1247
G1 X-11.7096 Y1.2828
G3 X-11.7178 Y1.2825 I0 J-0.125
G1 X-11.7949 Y1.2775
G3 X-11.8111 Y1.2753 I0.0082 J-0.1247
G1 X-11.8868 Y1.2603
G3 X-11.9026 Y1.256 I0.0244 J-0.1226
G1 X-11.9758 Y1.2312
G3 X-11.9909 Y1.2249 I0.0402 J-0.1184
G1 X-12.0602 Y1.1908
G3 X-12.0743 Y1.1826 I0.0553 J-0.1121
G1 X-12.1385 Y1.1397
G3 X-12.1515 Y1.1297 I0.0694 J-0.1039
G1 X-12.2096 Y1.0788
G3 X-12.2212 Y1.0672 I0.0824 J-0.094
G1 X-12.2721 Y1.0092
G3 X-12.282 Y0.9962 I0.094 J-0.0824
G1 X-12.325 Y0.932
G3 X-12.3331 Y0.9178 I0.1039 J-0.0694
G1 X-12.3673 Y0.8485
G3 X-12.3736 Y0.8334 I0.1121 J-0.0553
G1 X-12.3984 Y0.7603
G3 X-12.4026 Y0.7445 I0.1184 J-0.0402
G1 X-12.4177 Y0.6687
G3 X-12.4198 Y0.6525 I0.1226 J-0.0244
G1 X-12.4249 Y0.5754
G3 X-12.4251 Y0.5672 I0.1247 J-0.0082
G3 X-12.4249 Y0.5591 I0.125 J0
G1 X-12.4198 Y0.482
G3 X-12.4177 Y0.4658 I0.1247 J0.0082
G1 X-12.4026 Y0.39
G3 X-12.3984 Y0.3742 I0.1226 J0.0244
G1 X-12.3736 Y0.3011
G3 X-12.3673 Y0.286 I0.1184 J0.0402
G1 X-12.3331 Y0.2167
G3 X-12.325 Y0.2025 I0.1121 J0.0553
G1 X-12.282 Y0.1383
G3 X-12.2721 Y0.1253 I0.1039 J0.0694
G1 X-12.2212 Y0.0672
G3 X-12.2096 Y0.0557 I0.094 J0.0824
G1 X-12.1515 Y0.0047
G3 X-12.1385 Y-0.0052 I0.0824 J0.094
G1 X-12.0743 Y-0.0481
G3 X-12.0602 Y-0.0563 I0.0694 J0.1039
G1 X-11.9909 Y-0.0905
G3 X-11.9758 Y-0.0967 I0.0553 J0.1121
G1 X-11.9026 Y-0.1216
G3 X-11.8868 Y-0.1258 I0.0402 J0.1184
G1 X-11.8111 Y-0.1409
G3 X-11.7949 Y-0.143 I0.0244 J0.1226
G1 X-11.7178 Y-0.148
G3 X-11.7096 Y-0.1483 I0.0082 J0.1247
G1 Z-0.7 F30
G1 X-6.9852 Y-0.1483 F20
G3 X-6.977 Y-0.148 I0 J0.125
G1 X-6.8999 Y-0.143
G3 X-6.8837 Y-0.1409 I-0.0082 J0.1247
G1 X-6.808 Y-0.1258
G3 X-6.7922 Y-0.1216 I-0.0244 J0.1226
G1 X-6.719 Y-0.0967
G3 X-6.7039 Y-0.0905 I-0.0402 J0.1184
G1 X-6.6346 Y-0.0563
G3 X-6.6205 Y-0.0481 I-0.0553 J0.1121
G1 X-6.5562 Y-0.0052
G3 X-6.5433 Y0.0047 I-0.0694 J0.1039
G1 X-6.4852 Y0.0557
G3 X-6.4736 Y0.0672 I-0.0824 J0.094
G1 X-6.4227 Y0.1253
G3 X-6.4127 Y0.1383 I-0.094 J0.0824
G1 X-6.3698 Y0.2025
G3 X-6.3616 Y0.2167 I-0.1039 J0.0694
G1 X-6.3275 Y0.286
G3 X-6.3212 Y0.3011 I-0.1121 J0.0553
G1 X-6.2964 Y0.3742
G3 X-6.2922 Y0.39 I-0.1184 J0.0402
G1 X-6.2771 Y0.4658
G3 X-6.275 Y0.482 I-0.1226 J0.0244
G1 X-6.2699 Y0.5591
G3 X-6.2696 Y0.5672 I-0.1247 J0.0082
G3 X-6.2699 Y0.5754 I-0.125 J0
G1 X-6.275 Y0.6525
G3 X-6.2771 Y0.6687 I-0.1247 J-0.0082
G1 X-6.2922 Y0.7445
G3 X-6.2964 Y0.7603 I-0.1226 J-0.0244
G1 X-6.3212 Y0.8334
G3 X-6.3275 Y0.8485 I-0.1184 J-0.0402
G1 X-6.3616 Y0.9178
G3 X-6.3698 Y0.932 I-0.1121 J-0.0553
G1 X-6.4127 Y0.9962
G3 X-6.4227 Y1.0092 I-0.1039 J-0.0694
G1 X-6.4736 Y1.0672
G3 X-6.4852 Y1.0788 I-0.094 J-0.0824
G1 X-6.5433 Y1.1297
G3 X-6.5562 Y1.1397 I-0.0824 J-0.094
G1 X-6.6205 Y1.1826
G3 X-6.6346 Y1.1908 I-0.0694 J-0.1039
G1 X-6.7039 Y1.2249
G3 X-6.719 Y1.2312 I-0.0553 J-0.1121
G1 X-6.7922 Y1.256
G3 X-6.808 Y1.2603 I-0.0402 J-0.1184
G1 X-6.8837 Y1.2753
G3 X-6.8999 Y1.2775 I-0.0244 J-0.1226
G1 X-6.977 Y1.2825
G3 X-6.9852 Y1.2828 I-0.0082 J-0.1247
G1 X-11.7096 Y1.2828
G3 X-11.7178 Y1.2825 I0 J-0.125
G1 X-11.7949 Y1.2775
G3 X-11.8111 Y1.2753 I0.0082 J-0.1247
G1 X-11.8868 Y1.2603
G3 X-11.9026 Y1.256 I0.0244 J-0.1226
G1 X-11.9758 Y1.2312
G3 X-11.9909 Y1.2249 I0.0402 J-0.1184
G1 X-12.0602 Y1.1908
G3 X-12.0743 Y1.1826 I0.0553 J-0.1121
G1 X-12.1385 Y1.1397
G3 X-12.1515 Y1.1297 I0.0694 J-0.1039
G1 X-12.2096 Y1.0788
G3 X-12.2212 Y1.0672 I0.0824 J-0.094
G1 X-12.2721 Y1.0092
G3 X-12.282 Y0.9962 I0.094 J-0.0824
G1 X-12.325 Y0.932
G3 X-12.3331 Y0.9178 I0.1039 J-0.0694
G1 X-12.3673 Y0.8485
G3 X-12.3736 Y0.8334 I0.1121 J-0.0553
G1 X-12.3984 Y0.7603
G3 X-12.4026 Y0.7445 I0.1184 J-0.0402
G1 X-12.4177 Y0.6687
G3 X-12.4198 Y0.6525 I0.1226 J-0.0244
G1 X-12.4249 Y0.5754
G3 X-12.4251 Y0.5672 I0.1247 J-0.0082
G3 X-12.4249 Y0.5591 I0.125 J0
G1 X-12.4198 Y0.482
G3 X-12.4177 Y0.4658 I0.1247 J0.0082
G1 X-12.4026 Y0.39
G3 X-12.3984 Y0.3742 I0.1226 J0.0244
G1 X-12.3736 Y0.3011
G3 X-12.3673 Y0.286 I0.1184 J0.0402
G1 X-12.3331 Y0.2167
G3 X-12.325 Y0.2025 I0.1121 J0.0553
G1 X-12.282 Y0.1383
G3 X-12.2721 Y0.1253 I0.1039 J0.0694
G1 X-12.2212 Y0.0672
G3 X-12.2096 Y0.0557 I0.094 J0.0824
G1 X-12.1515 Y0.0047
G3 X-12.1385 Y-0.0052 I0.0824 J0.094
G1 X-12.0743 Y-0.0481
G3 X-12.0602 Y-0.0563 I0.0694 J0.1039
G1 X-11.9909 Y-0.0905
G3 X-11.9758 Y-0.0967 I0.0553 J0.1121
G1 X-11.9026 Y-0.1216
G3 X-11.8868 Y-0.1258 I0.0402 J0.1184
G1 X-11.8111 Y-0.1409
G3 X-11.7949 Y-0.143 I0.0244 J0.1226
G1 X-11.7178 Y-0.148
G3 X-11.7096 Y-0.1483 I0.0082 J0.1247
G1 Z-0.8 F30
G1 X-6.9852 Y-0.1483 F20
G3 X-6.977 Y-0.148 I0 J0.125
G1 X-6.8999 Y-0.143
G3 X-6.8837 Y-0.1409 I-0.0082 J0.1247
G1 X-6.808 Y-0.1258
G3 X-6.7922 Y-0.1216 I-0.0244 J0.1226
G1 X-6.719 Y-0.0967
G3 X-6.7039 Y-0.0905 I-0.0402 J0.1184
G1 X-6.6346 Y-0.0563
G3 X-6.6205 Y-0.0481 I-0.0553 J0.1121
G1 X-6.5562 Y-0.0052
G3 X-6.5433 Y0.0047 I-0.0694 J0.1039
G1 X-6.4852 Y0.0557
G3 X-6.4736 Y0.0672 I-0.0824 J0.094
G1 X-6.4227 Y0.1253
G3 X-6.4127 Y0.1383 I-0.094 J0.0824
G1 X-6.3698 Y0.2025
G3 X-6.3616 Y0.2167 I-0.1039 J0.0694
G1 X-6.3275 Y0.286
G3 X-6.3212 Y0.3011 I-0.1121 J0.0553
G1 X-6.2964 Y0.3742
G3 X-6.2922 Y0.39 I-0.1184 J0.0402
G1 X-6.2771 Y0.4658
G3 X-6.275 Y0.482 I-0.1226 J0.0244
G1 X-6.2699 Y0.5591
G3 X-6.2696 Y0.5672 I-0.1247 J0.0082
G3 X-6.2699 Y0.5754 I-0.125 J0
G1 X-6.275 Y0.6525
G3 X-6.2771 Y0.6687 I-0.1247 J-0.0082
G1 X-6.2922 Y0.7445
G3 X-6.2964 Y0.7603 I-0.1226 J-0.0244
G1 X-6.3212 Y0.8334
G3 X-6.3275 Y0.8485 I-0.1184 J-0.0402
G1 X-6.3616 Y0.9178
G3 X-6.3698 Y0.932 I-0.1121 J-0.0553
G1 X-6.4127 Y0.9962
G3 X-6.4227 Y1.0092 I-0.1039 J-0.0694
G1 X-6.4736 Y1.0672
G3 X-6.4852 Y1.0788 I-0.094 J-0.0824
G1 X-6.5433 Y1.1297
G3 X-6.5562 Y1.1397 I-0.0824 J-0.094
G1 X-6.6205 Y1.1826
G3 X-6.6346 Y1.1908 I-0.0694 J-0.1039
G1 X-6.7039 Y1.2249
G3 X-6.719 Y1.2312 I-0.0553 J-0.1121
G1 X-6.7922 Y1.256
G3 X-6.808 Y1.2603 I-0.0402 J-0.1184
G1 X-6.8837 Y1.2753
G3 X-6.8999 Y1.2775 I-0.0244 J-0.1226
G1 X-6.977 Y1.2825
G3 X-6.9852 Y1.2828 I-0.0082 J-0.1247
G1 X-11.7096 Y1.2828
G3 X-11.7178 Y1.2825 I0 J-0.125
G1 X-11.7949 Y1.2775
G3 X-11.8111 Y1.2753 I0.0082 J-0.1247
G1 X-11.8868 Y1.2603
G3 X-11.9026 Y1.256 I0.0244 J-0.1226
G1 X-11.9758 Y1.2312
G3 X-11.9909 Y1.2249 I0.0402 J-0.1184
G1 X-12.0602 Y1.1908
G3 X-12.0743 Y1.1826 I0.0553 J-0.1121
G1 X-12.1385 Y1.1397
G3 X-12.1515 Y1.1297 I0.0694 J-0.1039
G1 X-12.2096 Y1.0788
G3 X-12.2212 Y1.0672 I0.0824 J-0.094
G1 X-12.2721 Y1.0092
G3 X-12.282 Y0.9962 I0.094 J-0.0824
G1 X-12.325 Y0.932
G3 X-12.3331 Y0.9178 I0.1039 J-0.0694
G1 X-12.3673 Y0.8485
G3 X-12.3736 Y0.8334 I0.1121 J-0.0553
G1 X-12.3984 Y0.7603
G3 X-12.4026 Y0.7445 I0.1184 J-0.0402
G1 X-12.4177 Y0.6687
G3 X-12.4198 Y0.6525 I0.1226 J-0.0244
G1 X-12.4249 Y0.5754
G3 X-12.4251 Y0.5672 I0.1247 J-0.0082
G3 X-12.4249 Y0.5591 I0.125 J0
G1 X-12.4198 Y0.482
G3 X-12.4177 Y0.4658 I0.1247 J0.0082
G1 X-12.4026 Y0.39
G3 X-12.3984 Y0.3742 I0.1226 J0.0244
G1 X-12.3736 Y0.3011
G3 X-12.3673 Y0.286 I0.1184 J0.0402
G1 X-12.3331 Y0.2167
G3 X-12.325 Y0.2025 I0.1121 J0.0553
G1 X-12.282 Y0.1383
G3 X-12.2721 Y0.1253 I0.1039 J0.0694
G1 X-12.2212 Y0.0672
G3 X-12.2096 Y0.0557 I0.094 J0.0824
G1 X-12.1515 Y0.0047
G3 X-12.1385 Y-0.0052 I0.0824 J0.094
G1 X-12.0743 Y-0.0481
G3 X-12.0602 Y-0.0563 I0.0694 J0.1039
G1 X-11.9909 Y-0.0905
G3 X-11.9758 Y-0.0967 I0.0553 J0.1121
G1 X-11.9026 Y-0.1216
G3 X-11.8868 Y-0.1258 I0.0402 J0.1184
G1 X-11.8111 Y-0.1409
G3 X-11.7949 Y-0.143 I0.0244 J0.1226
G1 X-11.7178 Y-0.148
G3 X-11.7096 Y-0.1483 I0.0082 J0.1247
G1 Z-0.85 F30
G1 X-6.9852 Y-0.1483 F20
G3 X-6.977 Y-0.148 I0 J0.125
G1 X-6.8999 Y-0.143
G3 X-6.8837 Y-0.1409 I-0.0082 J0.1247
G1 X-6.808 Y-0.1258
G3 X-6.7922 Y-0.1216 I-0.0244 J0.1226
G1 X-6.719 Y-0.0967
G3 X-6.7039 Y-0.0905 I-0.0402 J0.1184
G1 X-6.6346 Y-0.0563
G3 X-6.6205 Y-0.0481 I-0.0553 J0.1121
G1 X-6.5562 Y-0.0052
G3 X-6.5433 Y0.0047 I-0.0694 J0.1039
G1 X-6.4852 Y0.0557
G3 X-6.4736 Y0.0672 I-0.0824 J0.094
G1 X-6.4227 Y0.1253
G3 X-6.4127 Y0.1383 I-0.094 J0.0824
G1 X-6.3698 Y0.2025
G3 X-6.3616 Y0.2167 I-0.1039 J0.0694
G1 X-6.3275 Y0.286
G3 X-6.3212 Y0.3011 I-0.1121 J0.0553
G1 X-6.2964 Y0.3742
G3 X-6.2922 Y0.39 I-0.1184 J0.0402
G1 X-6.2771 Y0.4658
G3 X-6.275 Y0.482 I-0.1226 J0.0244
G1 X-6.2699 Y0.5591
G3 X-6.2696 Y0.5672 I-0.1247 J0.0082
G3 X-6.2699 Y0.5754 I-0.125 J0
G1 X-6.275 Y0.6525
G3 X-6.2771 Y0.6687 I-0.1247 J-0.0082
G1 X-6.2922 Y0.7445
G3 X-6.2964 Y0.7603 I-0.1226 J-0.0244
G1 X-6.3212 Y0.8334
G3 X-6.3275 Y0.8485 I-0.1184 J-0.0402
G1 X-6.3616 Y0.9178
G3 X-6.3698 Y0.932 I-0.1121 J-0.0553
G1 X-6.4127 Y0.9962
G3 X-6.4227 Y1.0092 I-0.1039 J-0.0694
G1 X-6.4736 Y1.0672
G3 X-6.4852 Y1.0788 I-0.094 J-0.0824
G1 X-6.5433 Y1.1297
G3 X-6.5562 Y1.1397 I-0.0824 J-0.094
G1 X-6.6205 Y1.1826
G3 X-6.6346 Y1.1908 I-0.0694 J-0.1039
G1 X-6.7039 Y1.2249
G3 X-6.719 Y1.2312 I-0.0553 J-0.1121
G1 X-6.7922 Y1.256
G3 X-6.808 Y1.2603 I-0.0402 J-0.1184
G1 X-6.8837 Y1.2753
G3 X-6.8999 Y1.2775 I-0.0244 J-0.1226
G1 X-6.977 Y1.2825
G3 X-6.9852 Y1.2828 I-0.0082 J-0.1247
G1 X-11.7096 Y1.2828
G3 X-11.7178 Y1.2825 I0 J-0.125
G1 X-11.7949 Y1.2775
G3 X-11.8111 Y1.2753 I0.0082 J-0.1247
G1 X-11.8868 Y1.2603
G3 X-11.9026 Y1.256 I0.0244 J-0.1226
G1 X-11.9758 Y1.2312
G3 X-11.9909 Y1.2249 I0.0402 J-0.1184
G1 X-12.0602 Y1.1908
G3 X-12.0743 Y1.1826 I0.0553 J-0.1121
G1 X-12.1385 Y1.1397
G3 X-12.1515 Y1.1297 I0.0694 J-0.1039
G1 X-12.2096 Y1.0788
G3 X-12.2212 Y1.0672 I0.0824 J-0.094
G1 X-12.2721 Y1.0092
G3 X-12.282 Y0.9962 I0.094 J-0.0824
G1 X-12.325 Y0.932
G3 X-12.3331 Y0.9178 I0.1039 J-0.0694
G1 X-12.3673 Y0.8485
G3 X-12.3736 Y0.8334 I0.1121 J-0.0553
G1 X-12.3984 Y0.7603
G3 X-12.4026 Y0.7445 I0.1184 J-0.0402
G1 X-12.4177 Y0.6687
G3 X-12.4198 Y0.6525 I0.1226 J-0.0244
G1 X-12.4249 Y0.5754
G3 X-12.4251 Y0.5672 I0.1247 J-0.0082
G3 X-12.4249 Y0.5591 I0.125 J0
G1 X-12.4198 Y0.482
G3 X-12.4177 Y0.4658 I0.1247 J0.0082
G1 X-12.4026 Y0.39
G3 X-12.3984 Y0.3742 I0.1226 J0.0244
G1 X-12.3736 Y0.3011
G3 X-12.3673 Y0.286 I0.1184 J0.0402
G1 X-12.3331 Y0.2167
G3 X-12.325 Y0.2025 I0.1121 J0.0553
G1 X-12.282 Y0.1383
G3 X-12.2721 Y0.1253 I0.1039 J0.0694
G1 X-12.2212 Y0.0672
G3 X-12.2096 Y0.0557 I0.094 J0.0824
G1 X-12.1515 Y0.0047
G3 X-12.1385 Y-0.0052 I0.0824 J0.094
G1 X-12.0743 Y-0.0481
G3 X-12.0602 Y-0.0563 I0.0694 J0.1039
G1 X-11.9909 Y-0.0905
G3 X-11.9758 Y-0.0967 I0.0553 J0.1121
G1 X-11.9026 Y-0.1216
G3 X-11.8868 Y-0.1258 I0.0402 J0.1184
G1 X-11.8111 Y-0.1409
G3 X-11.7949 Y-0.143 I0.0244 J0.1226
G1 X-11.7178 Y-0.148
G3 X-11.7096 Y-0.1483 I0.0082 J0.1247
G0 Z0.25
M5
M30
