(Generated by PartKam Version 0.05)

G20 G90 G40

(profile 1)
G0 Z0.25
T0 M6
G17
M3
G0 X-1.4143 Y8.3882
G1 Z-0.1 F30
G1 X-9.321 Y0.567 F20
G3 X-9.3581 Y0.4781 I0.0879 J-0.0889
G3 X-9.2309 Y0.3531 I0.125 J0
G1 X-0.653 Y0.5029
G3 X-0.5302 Y0.6278 I-0.0022 J0.125
G3 X-0.5307 Y0.6387 I-0.125 J0
G1 X-1.2018 Y8.3102
G3 X-1.4143 Y8.3882 I-0.1245 J-0.0109
G1 Z-0.2 F30
G1 X-9.321 Y0.567 F20
G3 X-9.3581 Y0.4781 I0.0879 J-0.0889
G3 X-9.2309 Y0.3531 I0.125 J0
G1 X-0.653 Y0.5029
G3 X-0.5302 Y0.6278 I-0.0022 J0.125
G3 X-0.5307 Y0.6387 I-0.125 J0
G1 X-1.2018 Y8.3102
G3 X-1.4143 Y8.3882 I-0.1245 J-0.0109
G1 Z-0.3 F30
G1 X-9.321 Y0.567 F20
G3 X-9.3581 Y0.4781 I0.0879 J-0.0889
G3 X-9.2309 Y0.3531 I0.125 J0
G1 X-0.653 Y0.5029
G3 X-0.5302 Y0.6278 I-0.0022 J0.125
G3 X-0.5307 Y0.6387 I-0.125 J0
G1 X-1.2018 Y8.3102
G3 X-1.4143 Y8.3882 I-0.1245 J-0.0109
G1 Z-0.4 F30
G1 X-9.321 Y0.567 F20
G3 X-9.3581 Y0.4781 I0.0879 J-0.0889
G3 X-9.2309 Y0.3531 I0.125 J0
G1 X-0.653 Y0.5029
G3 X-0.5302 Y0.6278 I-0.0022 J0.125
G3 X-0.5307 Y0.6387 I-0.125 J0
G1 X-1.2018 Y8.3102
G3 X-1.4143 Y8.3882 I-0.1245 J-0.0109
G1 Z-0.5 F30
G1 X-9.321 Y0.567 F20
G3 X-9.3581 Y0.4781 I0.0879 J-0.0889
G3 X-9.2309 Y0.3531 I0.125 J0
G1 X-0.653 Y0.5029
G3 X-0.5302 Y0.6278 I-0.0022 J0.125
G3 X-0.5307 Y0.6387 I-0.125 J0
G1 X-1.2018 Y8.3102
G3 X-1.4143 Y8.3882 I-0.1245 J-0.0109
G1 Z-0.6 F30
G1 X-9.321 Y0.567 F20
G3 X-9.3581 Y0.4781 I0.0879 J-0.0889
G3 X-9.2309 Y0.3531 I0.125 J0
G1 X-0.653 Y0.5029
G3 X-0.5302 Y0.6278 I-0.0022 J0.125
G3 X-0.5307 Y0.6387 I-0.125 J0
G1 X-1.2018 Y8.3102
G3 X-1.4143 Y8.3882 I-0.1245 J-0.0109
G1 Z-0.7 F30
G1 X-9.321 Y0.567 F20
G3 X-9.3581 Y0.4781 I0.0879 J-0.0889
G3 X-9.2309 Y0.3531 I0.125 J0
G1 X-0.653 Y0.5029
G3 X-0.5302 Y0.6278 I-0.0022 J0.125
G3 X-0.5307 Y0.6387 I-0.125 J0
G1 X-1.2018 Y8.3102
G3 X-1.4143 Y8.3882 I-0.1245 J-0.0109
G1 Z-0.8 F30
G1 X-9.321 Y0.567 F20
G3 X-9.3581 Y0.4781 I0.0879 J-0.0889
G3 X-9.2309 Y0.3531 I0.125 J0
G1 X-0.653 Y0.5029
G3 X-0.5302 Y0.6278 I-0.0022 J0.125
G3 X-0.5307 Y0.6387 I-0.125 J0
G1 X-1.2018 Y8.3102
G3 X-1.4143 Y8.3882 I-0.1245 J-0.0109
G1 Z-0.85 F30
G1 X-9.321 Y0.567 F20
G3 X-9.3581 Y0.4781 I0.0879 J-0.0889
G3 X-9.2309 Y0.3531 I0.125 J0
G1 X-0.653 Y0.5029
G3 X-0.5302 Y0.6278 I-0.0022 J0.125
G3 X-0.5307 Y0.6387 I-0.125 J0
G1 X-1.2018 Y8.3102
G3 X-1.4143 Y8.3882 I-0.1245 J-0.0109
G0 Z0.25
G0 X-11.4594 Y-0.3311
G1 Z-0.1 F30
G1 X-3.5526 Y7.4901 F20
G3 X-3.5155 Y7.579 I-0.0879 J0.0889
G3 X-3.6427 Y7.704 I-0.125 J0
G1 X-12.2206 Y7.5543
G3 X-12.3435 Y7.4293 I0.0022 J-0.125
G3 X-12.343 Y7.4184 I0.125 J0
G1 X-11.6718 Y-0.2531
G3 X-11.4594 Y-0.3311 I0.1245 J0.0109
G1 Z-0.2 F30
G1 X-3.5526 Y7.4901 F20
G3 X-3.5155 Y7.579 I-0.0879 J0.0889
G3 X-3.6427 Y7.704 I-0.125 J0
G1 X-12.2206 Y7.5543
G3 X-12.3435 Y7.4293 I0.0022 J-0.125
G3 X-12.343 Y7.4184 I0.125 J0
G1 X-11.6718 Y-0.2531
G3 X-11.4594 Y-0.3311 I0.1245 J0.0109
G1 Z-0.3 F30
G1 X-3.5526 Y7.4901 F20
G3 X-3.5155 Y7.579 I-0.0879 J0.0889
G3 X-3.6427 Y7.704 I-0.125 J0
G1 X-12.2206 Y7.5543
G3 X-12.3435 Y7.4293 I0.0022 J-0.125
G3 X-12.343 Y7.4184 I0.125 J0
G1 X-11.6718 Y-0.2531
G3 X-11.4594 Y-0.3311 I0.1245 J0.0109
G1 Z-0.4 F30
G1 X-3.5526 Y7.4901 F20
G3 X-3.5155 Y7.579 I-0.0879 J0.0889
G3 X-3.6427 Y7.704 I-0.125 J0
G1 X-12.2206 Y7.5543
G3 X-12.3435 Y7.4293 I0.0022 J-0.125
G3 X-12.343 Y7.4184 I0.125 J0
G1 X-11.6718 Y-0.2531
G3 X-11.4594 Y-0.3311 I0.1245 J0.0109
G1 Z-0.5 F30
G1 X-3.5526 Y7.4901 F20
G3 X-3.5155 Y7.579 I-0.0879 J0.0889
G3 X-3.6427 Y7.704 I-0.125 J0
G1 X-12.2206 Y7.5543
G3 X-12.3435 Y7.4293 I0.0022 J-0.125
G3 X-12.343 Y7.4184 I0.125 J0
G1 X-11.6718 Y-0.2531
G3 X-11.4594 Y-0.3311 I0.1245 J0.0109
G1 Z-0.6 F30
G1 X-3.5526 Y7.4901 F20
G3 X-3.5155 Y7.579 I-0.0879 J0.0889
G3 X-3.6427 Y7.704 I-0.125 J0
G1 X-12.2206 Y7.5543
G3 X-12.3435 Y7.4293 I0.0022 J-0.125
G3 X-12.343 Y7.4184 I0.125 J0
G1 X-11.6718 Y-0.2531
G3 X-11.4594 Y-0.3311 I0.1245 J0.0109
G1 Z-0.7 F30
G1 X-3.5526 Y7.4901 F20
G3 X-3.5155 Y7.579 I-0.0879 J0.0889
G3 X-3.6427 Y7.704 I-0.125 J0
G1 X-12.2206 Y7.5543
G3 X-12.3435 Y7.4293 I0.0022 J-0.125
G3 X-12.343 Y7.4184 I0.125 J0
G1 X-11.6718 Y-0.2531
G3 X-11.4594 Y-0.3311 I0.1245 J0.0109
G1 Z-0.8 F30
G1 X-3.5526 Y7.4901 F20
G3 X-3.5155 Y7.579 I-0.0879 J0.0889
G3 X-3.6427 Y7.704 I-0.125 J0
G1 X-12.2206 Y7.5543
G3 X-12.3435 Y7.4293 I0.0022 J-0.125
G3 X-12.343 Y7.4184 I0.125 J0
G1 X-11.6718 Y-0.2531
G3 X-11.4594 Y-0.3311 I0.1245 J0.0109
G1 Z-0.85 F30
G1 X-3.5526 Y7.4901 F20
G3 X-3.5155 Y7.579 I-0.0879 J0.0889
G3 X-3.6427 Y7.704 I-0.125 J0
G1 X-12.2206 Y7.5543
G3 X-12.3435 Y7.4293 I0.0022 J-0.125
G3 X-12.343 Y7.4184 I0.125 J0
G1 X-11.6718 Y-0.2531
G3 X-11.4594 Y-0.3311 I0.1245 J0.0109
G0 Z0.25
M5
M30
