(Generated by PartKam Version 0.05)

G20 G90 G40

(profile 1)
G0 Z0.25
T0 M6
G17
M3
G0 X30.5544 Y-4.8906
G1 Z-0.1 F30
G1 X15.8697 Y0.1657 F20
G3 X15.704 Y0.0475 I-0.0407 J-0.1182
G1 X15.704 Y-7.0541
G3 X15.829 Y-7.1791 I0.125 J0
G1 X25.0904 Y-7.1791
G3 X25.1166 Y-7.1763 I0 J0.125
G1 X30.5137 Y-7.1763
G3 X30.6387 Y-7.0513 I0 J0.125
G1 X30.6387 Y-5.0088
G3 X30.5544 Y-4.8906 I-0.125 J0
G1 Z-0.2 F30
G1 X15.8697 Y0.1657 F20
G3 X15.704 Y0.0475 I-0.0407 J-0.1182
G1 X15.704 Y-7.0541
G3 X15.829 Y-7.1791 I0.125 J0
G1 X25.0904 Y-7.1791
G3 X25.1166 Y-7.1763 I0 J0.125
G1 X30.5137 Y-7.1763
G3 X30.6387 Y-7.0513 I0 J0.125
G1 X30.6387 Y-5.0088
G3 X30.5544 Y-4.8906 I-0.125 J0
G1 Z-0.3 F30
G1 X15.8697 Y0.1657 F20
G3 X15.704 Y0.0475 I-0.0407 J-0.1182
G1 X15.704 Y-7.0541
G3 X15.829 Y-7.1791 I0.125 J0
G1 X25.0904 Y-7.1791
G3 X25.1166 Y-7.1763 I0 J0.125
G1 X30.5137 Y-7.1763
G3 X30.6387 Y-7.0513 I0 J0.125
G1 X30.6387 Y-5.0088
G3 X30.5544 Y-4.8906 I-0.125 J0
G1 Z-0.4 F30
G1 X15.8697 Y0.1657 F20
G3 X15.704 Y0.0475 I-0.0407 J-0.1182
G1 X15.704 Y-7.0541
G3 X15.829 Y-7.1791 I0.125 J0
G1 X25.0904 Y-7.1791
G3 X25.1166 Y-7.1763 I0 J0.125
G1 X30.5137 Y-7.1763
G3 X30.6387 Y-7.0513 I0 J0.125
G1 X30.6387 Y-5.0088
G3 X30.5544 Y-4.8906 I-0.125 J0
G1 Z-0.5 F30
G1 X15.8697 Y0.1657 F20
G3 X15.704 Y0.0475 I-0.0407 J-0.1182
G1 X15.704 Y-7.0541
G3 X15.829 Y-7.1791 I0.125 J0
G1 X25.0904 Y-7.1791
G3 X25.1166 Y-7.1763 I0 J0.125
G1 X30.5137 Y-7.1763
G3 X30.6387 Y-7.0513 I0 J0.125
G1 X30.6387 Y-5.0088
G3 X30.5544 Y-4.8906 I-0.125 J0
G1 Z-0.6 F30
G1 X15.8697 Y0.1657 F20
G3 X15.704 Y0.0475 I-0.0407 J-0.1182
G1 X15.704 Y-7.0541
G3 X15.829 Y-7.1791 I0.125 J0
G1 X25.0904 Y-7.1791
G3 X25.1166 Y-7.1763 I0 J0.125
G1 X30.5137 Y-7.1763
G3 X30.6387 Y-7.0513 I0 J0.125
G1 X30.6387 Y-5.0088
G3 X30.5544 Y-4.8906 I-0.125 J0
G1 Z-0.7 F30
G1 X15.8697 Y0.1657 F20
G3 X15.704 Y0.0475 I-0.0407 J-0.1182
G1 X15.704 Y-7.0541
G3 X15.829 Y-7.1791 I0.125 J0
G1 X25.0904 Y-7.1791
G3 X25.1166 Y-7.1763 I0 J0.125
G1 X30.5137 Y-7.1763
G3 X30.6387 Y-7.0513 I0 J0.125
G1 X30.6387 Y-5.0088
G3 X30.5544 Y-4.8906 I-0.125 J0
G1 Z-0.8 F30
G1 X15.8697 Y0.1657 F20
G3 X15.704 Y0.0475 I-0.0407 J-0.1182
G1 X15.704 Y-7.0541
G3 X15.829 Y-7.1791 I0.125 J0
G1 X25.0904 Y-7.1791
G3 X25.1166 Y-7.1763 I0 J0.125
G1 X30.5137 Y-7.1763
G3 X30.6387 Y-7.0513 I0 J0.125
G1 X30.6387 Y-5.0088
G3 X30.5544 Y-4.8906 I-0.125 J0
G1 Z-0.85 F30
G1 X15.8697 Y0.1657 F20
G3 X15.704 Y0.0475 I-0.0407 J-0.1182
G1 X15.704 Y-7.0541
G3 X15.829 Y-7.1791 I0.125 J0
G1 X25.0904 Y-7.1791
G3 X25.1166 Y-7.1763 I0 J0.125
G1 X30.5137 Y-7.1763
G3 X30.6387 Y-7.0513 I0 J0.125
G1 X30.6387 Y-5.0088
G3 X30.5544 Y-4.8906 I-0.125 J0
G0 Z0.25
G0 X-0.0182 Y-2.2554
G1 Z-0.1 F30
G1 X14.6665 Y-7.3117 F20
G3 X14.8322 Y-7.1935 I0.0407 J0.1182
G1 X14.8322 Y-0.0919
G3 X14.7072 Y0.0331 I-0.125 J0
G1 X5.4458 Y0.0331
G3 X5.4196 Y0.0303 I0 J-0.125
G1 X0.0225 Y0.0303
G3 X-0.1025 Y-0.0947 I0 J-0.125
G1 X-0.1025 Y-2.1372
G3 X-0.0182 Y-2.2554 I0.125 J0
G1 Z-0.2 F30
G1 X14.6665 Y-7.3117 F20
G3 X14.8322 Y-7.1935 I0.0407 J0.1182
G1 X14.8322 Y-0.0919
G3 X14.7072 Y0.0331 I-0.125 J0
G1 X5.4458 Y0.0331
G3 X5.4196 Y0.0303 I0 J-0.125
G1 X0.0225 Y0.0303
G3 X-0.1025 Y-0.0947 I0 J-0.125
G1 X-0.1025 Y-2.1372
G3 X-0.0182 Y-2.2554 I0.125 J0
G1 Z-0.3 F30
G1 X14.6665 Y-7.3117 F20
G3 X14.8322 Y-7.1935 I0.0407 J0.1182
G1 X14.8322 Y-0.0919
G3 X14.7072 Y0.0331 I-0.125 J0
G1 X5.4458 Y0.0331
G3 X5.4196 Y0.0303 I0 J-0.125
G1 X0.0225 Y0.0303
G3 X-0.1025 Y-0.0947 I0 J-0.125
G1 X-0.1025 Y-2.1372
G3 X-0.0182 Y-2.2554 I0.125 J0
G1 Z-0.4 F30
G1 X14.6665 Y-7.3117 F20
G3 X14.8322 Y-7.1935 I0.0407 J0.1182
G1 X14.8322 Y-0.0919
G3 X14.7072 Y0.0331 I-0.125 J0
G1 X5.4458 Y0.0331
G3 X5.4196 Y0.0303 I0 J-0.125
G1 X0.0225 Y0.0303
G3 X-0.1025 Y-0.0947 I0 J-0.125
G1 X-0.1025 Y-2.1372
G3 X-0.0182 Y-2.2554 I0.125 J0
G1 Z-0.5 F30
G1 X14.6665 Y-7.3117 F20
G3 X14.8322 Y-7.1935 I0.0407 J0.1182
G1 X14.8322 Y-0.0919
G3 X14.7072 Y0.0331 I-0.125 J0
G1 X5.4458 Y0.0331
G3 X5.4196 Y0.0303 I0 J-0.125
G1 X0.0225 Y0.0303
G3 X-0.1025 Y-0.0947 I0 J-0.125
G1 X-0.1025 Y-2.1372
G3 X-0.0182 Y-2.2554 I0.125 J0
G1 Z-0.6 F30
G1 X14.6665 Y-7.3117 F20
G3 X14.8322 Y-7.1935 I0.0407 J0.1182
G1 X14.8322 Y-0.0919
G3 X14.7072 Y0.0331 I-0.125 J0
G1 X5.4458 Y0.0331
G3 X5.4196 Y0.0303 I0 J-0.125
G1 X0.0225 Y0.0303
G3 X-0.1025 Y-0.0947 I0 J-0.125
G1 X-0.1025 Y-2.1372
G3 X-0.0182 Y-2.2554 I0.125 J0
G1 Z-0.7 F30
G1 X14.6665 Y-7.3117 F20
G3 X14.8322 Y-7.1935 I0.0407 J0.1182
G1 X14.8322 Y-0.0919
G3 X14.7072 Y0.0331 I-0.125 J0
G1 X5.4458 Y0.0331
G3 X5.4196 Y0.0303 I0 J-0.125
G1 X0.0225 Y0.0303
G3 X-0.1025 Y-0.0947 I0 J-0.125
G1 X-0.1025 Y-2.1372
G3 X-0.0182 Y-2.2554 I0.125 J0
G1 Z-0.8 F30
G1 X14.6665 Y-7.3117 F20
G3 X14.8322 Y-7.1935 I0.0407 J0.1182
G1 X14.8322 Y-0.0919
G3 X14.7072 Y0.0331 I-0.125 J0
G1 X5.4458 Y0.0331
G3 X5.4196 Y0.0303 I0 J-0.125
G1 X0.0225 Y0.0303
G3 X-0.1025 Y-0.0947 I0 J-0.125
G1 X-0.1025 Y-2.1372
G3 X-0.0182 Y-2.2554 I0.125 J0
G1 Z-0.85 F30
G1 X14.6665 Y-7.3117 F20
G3 X14.8322 Y-7.1935 I0.0407 J0.1182
G1 X14.8322 Y-0.0919
G3 X14.7072 Y0.0331 I-0.125 J0
G1 X5.4458 Y0.0331
G3 X5.4196 Y0.0303 I0 J-0.125
G1 X0.0225 Y0.0303
G3 X-0.1025 Y-0.0947 I0 J-0.125
G1 X-0.1025 Y-2.1372
G3 X-0.0182 Y-2.2554 I0.125 J0
G0 Z0.25
G0 X-3.4679 Y-5.8056
G1 Z-0.1 F30
G1 X1.5439 Y-5.8056 F20
G3 X1.6689 Y-5.6806 I0 J0.125
G1 X1.6689 Y-3.7121
G3 X1.6082 Y-3.6049 I-0.125 J0
G1 X-2.5633 Y-1.1041
G3 X-2.6275 Y-1.0863 I-0.0643 J-0.1072
G1 X-4.6655 Y-1.0863
G3 X-4.7905 Y-1.2113 I0 J-0.125
G3 X-4.7862 Y-1.2436 I0.125 J0
G1 X-3.5887 Y-5.713
G3 X-3.4679 Y-5.8056 I0.1207 J0.0324
G1 Z-0.2 F30
G1 X1.5439 Y-5.8056 F20
G3 X1.6689 Y-5.6806 I0 J0.125
G1 X1.6689 Y-3.7121
G3 X1.6082 Y-3.6049 I-0.125 J0
G1 X-2.5633 Y-1.1041
G3 X-2.6275 Y-1.0863 I-0.0643 J-0.1072
G1 X-4.6655 Y-1.0863
G3 X-4.7905 Y-1.2113 I0 J-0.125
G3 X-4.7862 Y-1.2436 I0.125 J0
G1 X-3.5887 Y-5.713
G3 X-3.4679 Y-5.8056 I0.1207 J0.0324
G1 Z-0.3 F30
G1 X1.5439 Y-5.8056 F20
G3 X1.6689 Y-5.6806 I0 J0.125
G1 X1.6689 Y-3.7121
G3 X1.6082 Y-3.6049 I-0.125 J0
G1 X-2.5633 Y-1.1041
G3 X-2.6275 Y-1.0863 I-0.0643 J-0.1072
G1 X-4.6655 Y-1.0863
G3 X-4.7905 Y-1.2113 I0 J-0.125
G3 X-4.7862 Y-1.2436 I0.125 J0
G1 X-3.5887 Y-5.713
G3 X-3.4679 Y-5.8056 I0.1207 J0.0324
G1 Z-0.4 F30
G1 X1.5439 Y-5.8056 F20
G3 X1.6689 Y-5.6806 I0 J0.125
G1 X1.6689 Y-3.7121
G3 X1.6082 Y-3.6049 I-0.125 J0
G1 X-2.5633 Y-1.1041
G3 X-2.6275 Y-1.0863 I-0.0643 J-0.1072
G1 X-4.6655 Y-1.0863
G3 X-4.7905 Y-1.2113 I0 J-0.125
G3 X-4.7862 Y-1.2436 I0.125 J0
G1 X-3.5887 Y-5.713
G3 X-3.4679 Y-5.8056 I0.1207 J0.0324
G1 Z-0.5 F30
G1 X1.5439 Y-5.8056 F20
G3 X1.6689 Y-5.6806 I0 J0.125
G1 X1.6689 Y-3.7121
G3 X1.6082 Y-3.6049 I-0.125 J0
G1 X-2.5633 Y-1.1041
G3 X-2.6275 Y-1.0863 I-0.0643 J-0.1072
G1 X-4.6655 Y-1.0863
G3 X-4.7905 Y-1.2113 I0 J-0.125
G3 X-4.7862 Y-1.2436 I0.125 J0
G1 X-3.5887 Y-5.713
G3 X-3.4679 Y-5.8056 I0.1207 J0.0324
G1 Z-0.6 F30
G1 X1.5439 Y-5.8056 F20
G3 X1.6689 Y-5.6806 I0 J0.125
G1 X1.6689 Y-3.7121
G3 X1.6082 Y-3.6049 I-0.125 J0
G1 X-2.5633 Y-1.1041
G3 X-2.6275 Y-1.0863 I-0.0643 J-0.1072
G1 X-4.6655 Y-1.0863
G3 X-4.7905 Y-1.2113 I0 J-0.125
G3 X-4.7862 Y-1.2436 I0.125 J0
G1 X-3.5887 Y-5.713
G3 X-3.4679 Y-5.8056 I0.1207 J0.0324
G1 Z-0.7 F30
G1 X1.5439 Y-5.8056 F20
G3 X1.6689 Y-5.6806 I0 J0.125
G1 X1.6689 Y-3.7121
G3 X1.6082 Y-3.6049 I-0.125 J0
G1 X-2.5633 Y-1.1041
G3 X-2.6275 Y-1.0863 I-0.0643 J-0.1072
G1 X-4.6655 Y-1.0863
G3 X-4.7905 Y-1.2113 I0 J-0.125
G3 X-4.7862 Y-1.2436 I0.125 J0
G1 X-3.5887 Y-5.713
G3 X-3.4679 Y-5.8056 I0.1207 J0.0324
G1 Z-0.8 F30
G1 X1.5439 Y-5.8056 F20
G3 X1.6689 Y-5.6806 I0 J0.125
G1 X1.6689 Y-3.7121
G3 X1.6082 Y-3.6049 I-0.125 J0
G1 X-2.5633 Y-1.1041
G3 X-2.6275 Y-1.0863 I-0.0643 J-0.1072
G1 X-4.6655 Y-1.0863
G3 X-4.7905 Y-1.2113 I0 J-0.125
G3 X-4.7862 Y-1.2436 I0.125 J0
G1 X-3.5887 Y-5.713
G3 X-3.4679 Y-5.8056 I0.1207 J0.0324
G1 Z-0.85 F30
G1 X1.5439 Y-5.8056 F20
G3 X1.6689 Y-5.6806 I0 J0.125
G1 X1.6689 Y-3.7121
G3 X1.6082 Y-3.6049 I-0.125 J0
G1 X-2.5633 Y-1.1041
G3 X-2.6275 Y-1.0863 I-0.0643 J-0.1072
G1 X-4.6655 Y-1.0863
G3 X-4.7905 Y-1.2113 I0 J-0.125
G3 X-4.7862 Y-1.2436 I0.125 J0
G1 X-3.5887 Y-5.713
G3 X-3.4679 Y-5.8056 I0.1207 J0.0324
G0 Z0.25
G0 X34.7385 Y-1.968
G1 Z-0.1 F30
G1 X29.7267 Y-1.968 F20
G3 X29.6017 Y-2.093 I0 J-0.125
G1 X29.6017 Y-4.0615
G3 X29.6624 Y-4.1687 I0.125 J0
G1 X33.8338 Y-6.6696
G3 X33.8981 Y-6.6874 I0.0643 J0.1072
G1 X35.9361 Y-6.6874
G3 X36.0611 Y-6.5624 I0 J0.125
G3 X36.0568 Y-6.53 I-0.125 J0
G1 X34.8593 Y-2.0607
G3 X34.7385 Y-1.968 I-0.1207 J-0.0324
G1 Z-0.2 F30
G1 X29.7267 Y-1.968 F20
G3 X29.6017 Y-2.093 I0 J-0.125
G1 X29.6017 Y-4.0615
G3 X29.6624 Y-4.1687 I0.125 J0
G1 X33.8338 Y-6.6696
G3 X33.8981 Y-6.6874 I0.0643 J0.1072
G1 X35.9361 Y-6.6874
G3 X36.0611 Y-6.5624 I0 J0.125
G3 X36.0568 Y-6.53 I-0.125 J0
G1 X34.8593 Y-2.0607
G3 X34.7385 Y-1.968 I-0.1207 J-0.0324
G1 Z-0.3 F30
G1 X29.7267 Y-1.968 F20
G3 X29.6017 Y-2.093 I0 J-0.125
G1 X29.6017 Y-4.0615
G3 X29.6624 Y-4.1687 I0.125 J0
G1 X33.8338 Y-6.6696
G3 X33.8981 Y-6.6874 I0.0643 J0.1072
G1 X35.9361 Y-6.6874
G3 X36.0611 Y-6.5624 I0 J0.125
G3 X36.0568 Y-6.53 I-0.125 J0
G1 X34.8593 Y-2.0607
G3 X34.7385 Y-1.968 I-0.1207 J-0.0324
G1 Z-0.4 F30
G1 X29.7267 Y-1.968 F20
G3 X29.6017 Y-2.093 I0 J-0.125
G1 X29.6017 Y-4.0615
G3 X29.6624 Y-4.1687 I0.125 J0
G1 X33.8338 Y-6.6696
G3 X33.8981 Y-6.6874 I0.0643 J0.1072
G1 X35.9361 Y-6.6874
G3 X36.0611 Y-6.5624 I0 J0.125
G3 X36.0568 Y-6.53 I-0.125 J0
G1 X34.8593 Y-2.0607
G3 X34.7385 Y-1.968 I-0.1207 J-0.0324
G1 Z-0.5 F30
G1 X29.7267 Y-1.968 F20
G3 X29.6017 Y-2.093 I0 J-0.125
G1 X29.6017 Y-4.0615
G3 X29.6624 Y-4.1687 I0.125 J0
G1 X33.8338 Y-6.6696
G3 X33.8981 Y-6.6874 I0.0643 J0.1072
G1 X35.9361 Y-6.6874
G3 X36.0611 Y-6.5624 I0 J0.125
G3 X36.0568 Y-6.53 I-0.125 J0
G1 X34.8593 Y-2.0607
G3 X34.7385 Y-1.968 I-0.1207 J-0.0324
G1 Z-0.6 F30
G1 X29.7267 Y-1.968 F20
G3 X29.6017 Y-2.093 I0 J-0.125
G1 X29.6017 Y-4.0615
G3 X29.6624 Y-4.1687 I0.125 J0
G1 X33.8338 Y-6.6696
G3 X33.8981 Y-6.6874 I0.0643 J0.1072
G1 X35.9361 Y-6.6874
G3 X36.0611 Y-6.5624 I0 J0.125
G3 X36.0568 Y-6.53 I-0.125 J0
G1 X34.8593 Y-2.0607
G3 X34.7385 Y-1.968 I-0.1207 J-0.0324
G1 Z-0.7 F30
G1 X29.7267 Y-1.968 F20
G3 X29.6017 Y-2.093 I0 J-0.125
G1 X29.6017 Y-4.0615
G3 X29.6624 Y-4.1687 I0.125 J0
G1 X33.8338 Y-6.6696
G3 X33.8981 Y-6.6874 I0.0643 J0.1072
G1 X35.9361 Y-6.6874
G3 X36.0611 Y-6.5624 I0 J0.125
G3 X36.0568 Y-6.53 I-0.125 J0
G1 X34.8593 Y-2.0607
G3 X34.7385 Y-1.968 I-0.1207 J-0.0324
G1 Z-0.8 F30
G1 X29.7267 Y-1.968 F20
G3 X29.6017 Y-2.093 I0 J-0.125
G1 X29.6017 Y-4.0615
G3 X29.6624 Y-4.1687 I0.125 J0
G1 X33.8338 Y-6.6696
G3 X33.8981 Y-6.6874 I0.0643 J0.1072
G1 X35.9361 Y-6.6874
G3 X36.0611 Y-6.5624 I0 J0.125
G3 X36.0568 Y-6.53 I-0.125 J0
G1 X34.8593 Y-2.0607
G3 X34.7385 Y-1.968 I-0.1207 J-0.0324
G1 Z-0.85 F30
G1 X29.7267 Y-1.968 F20
G3 X29.6017 Y-2.093 I0 J-0.125
G1 X29.6017 Y-4.0615
G3 X29.6624 Y-4.1687 I0.125 J0
G1 X33.8338 Y-6.6696
G3 X33.8981 Y-6.6874 I0.0643 J0.1072
G1 X35.9361 Y-6.6874
G3 X36.0611 Y-6.5624 I0 J0.125
G3 X36.0568 Y-6.53 I-0.125 J0
G1 X34.8593 Y-2.0607
G3 X34.7385 Y-1.968 I-0.1207 J-0.0324
G0 Z0.25
M5
M30
