(Generated by PartKam Version 0.05)

G20 G90 G40

(profile 1)
G0 Z0.25
T0 M6
G17
M3
G0 X19.3405 Y-8.1056
G1 Z-0.1 F30
G1 X24.0896 Y-2.0477 F20
G3 X24.1162 Y-1.9705 I-0.0984 J0.0771
G3 X23.9912 Y-1.8455 I-0.125 J0
G1 X17.6189 Y-1.8455
G3 X17.4939 Y-1.9705 I0 J-0.125
G3 X17.4982 Y-2.0029 I0.125 J0
G1 X19.1214 Y-8.0608
G3 X19.3405 Y-8.1056 I0.1207 J0.0324
G1 Z-0.2 F30
G1 X24.0896 Y-2.0477 F20
G3 X24.1162 Y-1.9705 I-0.0984 J0.0771
G3 X23.9912 Y-1.8455 I-0.125 J0
G1 X17.6189 Y-1.8455
G3 X17.4939 Y-1.9705 I0 J-0.125
G3 X17.4982 Y-2.0029 I0.125 J0
G1 X19.1214 Y-8.0608
G3 X19.3405 Y-8.1056 I0.1207 J0.0324
G1 Z-0.3 F30
G1 X24.0896 Y-2.0477 F20
G3 X24.1162 Y-1.9705 I-0.0984 J0.0771
G3 X23.9912 Y-1.8455 I-0.125 J0
G1 X17.6189 Y-1.8455
G3 X17.4939 Y-1.9705 I0 J-0.125
G3 X17.4982 Y-2.0029 I0.125 J0
G1 X19.1214 Y-8.0608
G3 X19.3405 Y-8.1056 I0.1207 J0.0324
G1 Z-0.4 F30
G1 X24.0896 Y-2.0477 F20
G3 X24.1162 Y-1.9705 I-0.0984 J0.0771
G3 X23.9912 Y-1.8455 I-0.125 J0
G1 X17.6189 Y-1.8455
G3 X17.4939 Y-1.9705 I0 J-0.125
G3 X17.4982 Y-2.0029 I0.125 J0
G1 X19.1214 Y-8.0608
G3 X19.3405 Y-8.1056 I0.1207 J0.0324
G1 Z-0.5 F30
G1 X24.0896 Y-2.0477 F20
G3 X24.1162 Y-1.9705 I-0.0984 J0.0771
G3 X23.9912 Y-1.8455 I-0.125 J0
G1 X17.6189 Y-1.8455
G3 X17.4939 Y-1.9705 I0 J-0.125
G3 X17.4982 Y-2.0029 I0.125 J0
G1 X19.1214 Y-8.0608
G3 X19.3405 Y-8.1056 I0.1207 J0.0324
G1 Z-0.6 F30
G1 X24.0896 Y-2.0477 F20
G3 X24.1162 Y-1.9705 I-0.0984 J0.0771
G3 X23.9912 Y-1.8455 I-0.125 J0
G1 X17.6189 Y-1.8455
G3 X17.4939 Y-1.9705 I0 J-0.125
G3 X17.4982 Y-2.0029 I0.125 J0
G1 X19.1214 Y-8.0608
G3 X19.3405 Y-8.1056 I0.1207 J0.0324
G1 Z-0.7 F30
G1 X24.0896 Y-2.0477 F20
G3 X24.1162 Y-1.9705 I-0.0984 J0.0771
G3 X23.9912 Y-1.8455 I-0.125 J0
G1 X17.6189 Y-1.8455
G3 X17.4939 Y-1.9705 I0 J-0.125
G3 X17.4982 Y-2.0029 I0.125 J0
G1 X19.1214 Y-8.0608
G3 X19.3405 Y-8.1056 I0.1207 J0.0324
G1 Z-0.8 F30
G1 X24.0896 Y-2.0477 F20
G3 X24.1162 Y-1.9705 I-0.0984 J0.0771
G3 X23.9912 Y-1.8455 I-0.125 J0
G1 X17.6189 Y-1.8455
G3 X17.4939 Y-1.9705 I0 J-0.125
G3 X17.4982 Y-2.0029 I0.125 J0
G1 X19.1214 Y-8.0608
G3 X19.3405 Y-8.1056 I0.1207 J0.0324
G1 Z-0.85 F30
G1 X24.0896 Y-2.0477 F20
G3 X24.1162 Y-1.9705 I-0.0984 J0.0771
G3 X23.9912 Y-1.8455 I-0.125 J0
G1 X17.6189 Y-1.8455
G3 X17.4939 Y-1.9705 I0 J-0.125
G3 X17.4982 Y-2.0029 I0.125 J0
G1 X19.1214 Y-8.0608
G3 X19.3405 Y-8.1056 I0.1207 J0.0324
G0 Z0.25
G0 X24.6269 Y-2.0548
G1 Z-0.1 F30
G1 X19.8778 Y-8.1127 F20
G3 X19.8512 Y-8.1899 I0.0984 J-0.0771
G3 X19.9762 Y-8.3149 I0.125 J0
G1 X26.3485 Y-8.3149
G3 X26.4735 Y-8.1899 I0 J0.125
G3 X26.4693 Y-8.1575 I-0.125 J0
G1 X24.846 Y-2.0995
G3 X24.6269 Y-2.0548 I-0.1207 J-0.0324
G1 Z-0.2 F30
G1 X19.8778 Y-8.1127 F20
G3 X19.8512 Y-8.1899 I0.0984 J-0.0771
G3 X19.9762 Y-8.3149 I0.125 J0
G1 X26.3485 Y-8.3149
G3 X26.4735 Y-8.1899 I0 J0.125
G3 X26.4693 Y-8.1575 I-0.125 J0
G1 X24.846 Y-2.0995
G3 X24.6269 Y-2.0548 I-0.1207 J-0.0324
G1 Z-0.3 F30
G1 X19.8778 Y-8.1127 F20
G3 X19.8512 Y-8.1899 I0.0984 J-0.0771
G3 X19.9762 Y-8.3149 I0.125 J0
G1 X26.3485 Y-8.3149
G3 X26.4735 Y-8.1899 I0 J0.125
G3 X26.4693 Y-8.1575 I-0.125 J0
G1 X24.846 Y-2.0995
G3 X24.6269 Y-2.0548 I-0.1207 J-0.0324
G1 Z-0.4 F30
G1 X19.8778 Y-8.1127 F20
G3 X19.8512 Y-8.1899 I0.0984 J-0.0771
G3 X19.9762 Y-8.3149 I0.125 J0
G1 X26.3485 Y-8.3149
G3 X26.4735 Y-8.1899 I0 J0.125
G3 X26.4693 Y-8.1575 I-0.125 J0
G1 X24.846 Y-2.0995
G3 X24.6269 Y-2.0548 I-0.1207 J-0.0324
G1 Z-0.5 F30
G1 X19.8778 Y-8.1127 F20
G3 X19.8512 Y-8.1899 I0.0984 J-0.0771
G3 X19.9762 Y-8.3149 I0.125 J0
G1 X26.3485 Y-8.3149
G3 X26.4735 Y-8.1899 I0 J0.125
G3 X26.4693 Y-8.1575 I-0.125 J0
G1 X24.846 Y-2.0995
G3 X24.6269 Y-2.0548 I-0.1207 J-0.0324
G1 Z-0.6 F30
G1 X19.8778 Y-8.1127 F20
G3 X19.8512 Y-8.1899 I0.0984 J-0.0771
G3 X19.9762 Y-8.3149 I0.125 J0
G1 X26.3485 Y-8.3149
G3 X26.4735 Y-8.1899 I0 J0.125
G3 X26.4693 Y-8.1575 I-0.125 J0
G1 X24.846 Y-2.0995
G3 X24.6269 Y-2.0548 I-0.1207 J-0.0324
G1 Z-0.7 F30
G1 X19.8778 Y-8.1127 F20
G3 X19.8512 Y-8.1899 I0.0984 J-0.0771
G3 X19.9762 Y-8.3149 I0.125 J0
G1 X26.3485 Y-8.3149
G3 X26.4735 Y-8.1899 I0 J0.125
G3 X26.4693 Y-8.1575 I-0.125 J0
G1 X24.846 Y-2.0995
G3 X24.6269 Y-2.0548 I-0.1207 J-0.0324
G1 Z-0.8 F30
G1 X19.8778 Y-8.1127 F20
G3 X19.8512 Y-8.1899 I0.0984 J-0.0771
G3 X19.9762 Y-8.3149 I0.125 J0
G1 X26.3485 Y-8.3149
G3 X26.4735 Y-8.1899 I0 J0.125
G3 X26.4693 Y-8.1575 I-0.125 J0
G1 X24.846 Y-2.0995
G3 X24.6269 Y-2.0548 I-0.1207 J-0.0324
G1 Z-0.85 F30
G1 X19.8778 Y-8.1127 F20
G3 X19.8512 Y-8.1899 I0.0984 J-0.0771
G3 X19.9762 Y-8.3149 I0.125 J0
G1 X26.3485 Y-8.3149
G3 X26.4735 Y-8.1899 I0 J0.125
G3 X26.4693 Y-8.1575 I-0.125 J0
G1 X24.846 Y-2.0995
G3 X24.6269 Y-2.0548 I-0.1207 J-0.0324
G0 Z0.25
G0 X32.7953 Y-1.7317
G1 Z-0.1 F30
G1 X28.0462 Y-7.7897 F20
G3 X28.0195 Y-7.8668 I0.0984 J-0.0771
G3 X28.1445 Y-7.9918 I0.125 J0
G1 X34.5169 Y-7.9918
G3 X34.6419 Y-7.8668 I0 J0.125
G3 X34.6376 Y-7.8344 I-0.125 J0
G1 X33.0144 Y-1.7765
G3 X32.7953 Y-1.7317 I-0.1207 J-0.0324
G1 Z-0.2 F30
G1 X28.0462 Y-7.7897 F20
G3 X28.0195 Y-7.8668 I0.0984 J-0.0771
G3 X28.1445 Y-7.9918 I0.125 J0
G1 X34.5169 Y-7.9918
G3 X34.6419 Y-7.8668 I0 J0.125
G3 X34.6376 Y-7.8344 I-0.125 J0
G1 X33.0144 Y-1.7765
G3 X32.7953 Y-1.7317 I-0.1207 J-0.0324
G1 Z-0.3 F30
G1 X28.0462 Y-7.7897 F20
G3 X28.0195 Y-7.8668 I0.0984 J-0.0771
G3 X28.1445 Y-7.9918 I0.125 J0
G1 X34.5169 Y-7.9918
G3 X34.6419 Y-7.8668 I0 J0.125
G3 X34.6376 Y-7.8344 I-0.125 J0
G1 X33.0144 Y-1.7765
G3 X32.7953 Y-1.7317 I-0.1207 J-0.0324
G1 Z-0.4 F30
G1 X28.0462 Y-7.7897 F20
G3 X28.0195 Y-7.8668 I0.0984 J-0.0771
G3 X28.1445 Y-7.9918 I0.125 J0
G1 X34.5169 Y-7.9918
G3 X34.6419 Y-7.8668 I0 J0.125
G3 X34.6376 Y-7.8344 I-0.125 J0
G1 X33.0144 Y-1.7765
G3 X32.7953 Y-1.7317 I-0.1207 J-0.0324
G1 Z-0.5 F30
G1 X28.0462 Y-7.7897 F20
G3 X28.0195 Y-7.8668 I0.0984 J-0.0771
G3 X28.1445 Y-7.9918 I0.125 J0
G1 X34.5169 Y-7.9918
G3 X34.6419 Y-7.8668 I0 J0.125
G3 X34.6376 Y-7.8344 I-0.125 J0
G1 X33.0144 Y-1.7765
G3 X32.7953 Y-1.7317 I-0.1207 J-0.0324
G1 Z-0.6 F30
G1 X28.0462 Y-7.7897 F20
G3 X28.0195 Y-7.8668 I0.0984 J-0.0771
G3 X28.1445 Y-7.9918 I0.125 J0
G1 X34.5169 Y-7.9918
G3 X34.6419 Y-7.8668 I0 J0.125
G3 X34.6376 Y-7.8344 I-0.125 J0
G1 X33.0144 Y-1.7765
G3 X32.7953 Y-1.7317 I-0.1207 J-0.0324
G1 Z-0.7 F30
G1 X28.0462 Y-7.7897 F20
G3 X28.0195 Y-7.8668 I0.0984 J-0.0771
G3 X28.1445 Y-7.9918 I0.125 J0
G1 X34.5169 Y-7.9918
G3 X34.6419 Y-7.8668 I0 J0.125
G3 X34.6376 Y-7.8344 I-0.125 J0
G1 X33.0144 Y-1.7765
G3 X32.7953 Y-1.7317 I-0.1207 J-0.0324
G1 Z-0.8 F30
G1 X28.0462 Y-7.7897 F20
G3 X28.0195 Y-7.8668 I0.0984 J-0.0771
G3 X28.1445 Y-7.9918 I0.125 J0
G1 X34.5169 Y-7.9918
G3 X34.6419 Y-7.8668 I0 J0.125
G3 X34.6376 Y-7.8344 I-0.125 J0
G1 X33.0144 Y-1.7765
G3 X32.7953 Y-1.7317 I-0.1207 J-0.0324
G1 Z-0.85 F30
G1 X28.0462 Y-7.7897 F20
G3 X28.0195 Y-7.8668 I0.0984 J-0.0771
G3 X28.1445 Y-7.9918 I0.125 J0
G1 X34.5169 Y-7.9918
G3 X34.6419 Y-7.8668 I0 J0.125
G3 X34.6376 Y-7.8344 I-0.125 J0
G1 X33.0144 Y-1.7765
G3 X32.7953 Y-1.7317 I-0.1207 J-0.0324
G0 Z0.25
G0 X27.0523 Y-8.2742
G1 Z-0.1 F30
G1 X31.8014 Y-2.2162 F20
G3 X31.828 Y-2.1391 I-0.0984 J0.0771
G3 X31.703 Y-2.0141 I-0.125 J0
G1 X25.3307 Y-2.0141
G3 X25.2057 Y-2.1391 I0 J-0.125
G3 X25.21 Y-2.1715 I0.125 J0
G1 X26.8332 Y-8.2294
G3 X27.0523 Y-8.2742 I0.1207 J0.0324
G1 Z-0.2 F30
G1 X31.8014 Y-2.2162 F20
G3 X31.828 Y-2.1391 I-0.0984 J0.0771
G3 X31.703 Y-2.0141 I-0.125 J0
G1 X25.3307 Y-2.0141
G3 X25.2057 Y-2.1391 I0 J-0.125
G3 X25.21 Y-2.1715 I0.125 J0
G1 X26.8332 Y-8.2294
G3 X27.0523 Y-8.2742 I0.1207 J0.0324
G1 Z-0.3 F30
G1 X31.8014 Y-2.2162 F20
G3 X31.828 Y-2.1391 I-0.0984 J0.0771
G3 X31.703 Y-2.0141 I-0.125 J0
G1 X25.3307 Y-2.0141
G3 X25.2057 Y-2.1391 I0 J-0.125
G3 X25.21 Y-2.1715 I0.125 J0
G1 X26.8332 Y-8.2294
G3 X27.0523 Y-8.2742 I0.1207 J0.0324
G1 Z-0.4 F30
G1 X31.8014 Y-2.2162 F20
G3 X31.828 Y-2.1391 I-0.0984 J0.0771
G3 X31.703 Y-2.0141 I-0.125 J0
G1 X25.3307 Y-2.0141
G3 X25.2057 Y-2.1391 I0 J-0.125
G3 X25.21 Y-2.1715 I0.125 J0
G1 X26.8332 Y-8.2294
G3 X27.0523 Y-8.2742 I0.1207 J0.0324
G1 Z-0.5 F30
G1 X31.8014 Y-2.2162 F20
G3 X31.828 Y-2.1391 I-0.0984 J0.0771
G3 X31.703 Y-2.0141 I-0.125 J0
G1 X25.3307 Y-2.0141
G3 X25.2057 Y-2.1391 I0 J-0.125
G3 X25.21 Y-2.1715 I0.125 J0
G1 X26.8332 Y-8.2294
G3 X27.0523 Y-8.2742 I0.1207 J0.0324
G1 Z-0.6 F30
G1 X31.8014 Y-2.2162 F20
G3 X31.828 Y-2.1391 I-0.0984 J0.0771
G3 X31.703 Y-2.0141 I-0.125 J0
G1 X25.3307 Y-2.0141
G3 X25.2057 Y-2.1391 I0 J-0.125
G3 X25.21 Y-2.1715 I0.125 J0
G1 X26.8332 Y-8.2294
G3 X27.0523 Y-8.2742 I0.1207 J0.0324
G1 Z-0.7 F30
G1 X31.8014 Y-2.2162 F20
G3 X31.828 Y-2.1391 I-0.0984 J0.0771
G3 X31.703 Y-2.0141 I-0.125 J0
G1 X25.3307 Y-2.0141
G3 X25.2057 Y-2.1391 I0 J-0.125
G3 X25.21 Y-2.1715 I0.125 J0
G1 X26.8332 Y-8.2294
G3 X27.0523 Y-8.2742 I0.1207 J0.0324
G1 Z-0.8 F30
G1 X31.8014 Y-2.2162 F20
G3 X31.828 Y-2.1391 I-0.0984 J0.0771
G3 X31.703 Y-2.0141 I-0.125 J0
G1 X25.3307 Y-2.0141
G3 X25.2057 Y-2.1391 I0 J-0.125
G3 X25.21 Y-2.1715 I0.125 J0
G1 X26.8332 Y-8.2294
G3 X27.0523 Y-8.2742 I0.1207 J0.0324
G1 Z-0.85 F30
G1 X31.8014 Y-2.2162 F20
G3 X31.828 Y-2.1391 I-0.0984 J0.0771
G3 X31.703 Y-2.0141 I-0.125 J0
G1 X25.3307 Y-2.0141
G3 X25.2057 Y-2.1391 I0 J-0.125
G3 X25.21 Y-2.1715 I0.125 J0
G1 X26.8332 Y-8.2294
G3 X27.0523 Y-8.2742 I0.1207 J0.0324
G0 Z0.25
G0 X9.747 Y0.2507
G1 Z-0.1 F30
G1 X4.7352 Y0.2507 F20
G3 X4.6102 Y0.1257 I0 J-0.125
G1 X4.6102 Y-1.8428
G3 X4.6709 Y-1.95 I0.125 J0
G1 X8.8423 Y-4.4508
G3 X8.9066 Y-4.4686 I0.0643 J0.1072
G1 X10.9445 Y-4.4686
G3 X11.0695 Y-4.3436 I0 J0.125
G3 X11.0653 Y-4.3113 I-0.125 J0
G1 X9.8677 Y0.1581
G3 X9.747 Y0.2507 I-0.1207 J-0.0324
G1 Z-0.2 F30
G1 X4.7352 Y0.2507 F20
G3 X4.6102 Y0.1257 I0 J-0.125
G1 X4.6102 Y-1.8428
G3 X4.6709 Y-1.95 I0.125 J0
G1 X8.8423 Y-4.4508
G3 X8.9066 Y-4.4686 I0.0643 J0.1072
G1 X10.9445 Y-4.4686
G3 X11.0695 Y-4.3436 I0 J0.125
G3 X11.0653 Y-4.3113 I-0.125 J0
G1 X9.8677 Y0.1581
G3 X9.747 Y0.2507 I-0.1207 J-0.0324
G1 Z-0.3 F30
G1 X4.7352 Y0.2507 F20
G3 X4.6102 Y0.1257 I0 J-0.125
G1 X4.6102 Y-1.8428
G3 X4.6709 Y-1.95 I0.125 J0
G1 X8.8423 Y-4.4508
G3 X8.9066 Y-4.4686 I0.0643 J0.1072
G1 X10.9445 Y-4.4686
G3 X11.0695 Y-4.3436 I0 J0.125
G3 X11.0653 Y-4.3113 I-0.125 J0
G1 X9.8677 Y0.1581
G3 X9.747 Y0.2507 I-0.1207 J-0.0324
G1 Z-0.4 F30
G1 X4.7352 Y0.2507 F20
G3 X4.6102 Y0.1257 I0 J-0.125
G1 X4.6102 Y-1.8428
G3 X4.6709 Y-1.95 I0.125 J0
G1 X8.8423 Y-4.4508
G3 X8.9066 Y-4.4686 I0.0643 J0.1072
G1 X10.9445 Y-4.4686
G3 X11.0695 Y-4.3436 I0 J0.125
G3 X11.0653 Y-4.3113 I-0.125 J0
G1 X9.8677 Y0.1581
G3 X9.747 Y0.2507 I-0.1207 J-0.0324
G1 Z-0.5 F30
G1 X4.7352 Y0.2507 F20
G3 X4.6102 Y0.1257 I0 J-0.125
G1 X4.6102 Y-1.8428
G3 X4.6709 Y-1.95 I0.125 J0
G1 X8.8423 Y-4.4508
G3 X8.9066 Y-4.4686 I0.0643 J0.1072
G1 X10.9445 Y-4.4686
G3 X11.0695 Y-4.3436 I0 J0.125
G3 X11.0653 Y-4.3113 I-0.125 J0
G1 X9.8677 Y0.1581
G3 X9.747 Y0.2507 I-0.1207 J-0.0324
G1 Z-0.6 F30
G1 X4.7352 Y0.2507 F20
G3 X4.6102 Y0.1257 I0 J-0.125
G1 X4.6102 Y-1.8428
G3 X4.6709 Y-1.95 I0.125 J0
G1 X8.8423 Y-4.4508
G3 X8.9066 Y-4.4686 I0.0643 J0.1072
G1 X10.9445 Y-4.4686
G3 X11.0695 Y-4.3436 I0 J0.125
G3 X11.0653 Y-4.3113 I-0.125 J0
G1 X9.8677 Y0.1581
G3 X9.747 Y0.2507 I-0.1207 J-0.0324
G1 Z-0.7 F30
G1 X4.7352 Y0.2507 F20
G3 X4.6102 Y0.1257 I0 J-0.125
G1 X4.6102 Y-1.8428
G3 X4.6709 Y-1.95 I0.125 J0
G1 X8.8423 Y-4.4508
G3 X8.9066 Y-4.4686 I0.0643 J0.1072
G1 X10.9445 Y-4.4686
G3 X11.0695 Y-4.3436 I0 J0.125
G3 X11.0653 Y-4.3113 I-0.125 J0
G1 X9.8677 Y0.1581
G3 X9.747 Y0.2507 I-0.1207 J-0.0324
G1 Z-0.8 F30
G1 X4.7352 Y0.2507 F20
G3 X4.6102 Y0.1257 I0 J-0.125
G1 X4.6102 Y-1.8428
G3 X4.6709 Y-1.95 I0.125 J0
G1 X8.8423 Y-4.4508
G3 X8.9066 Y-4.4686 I0.0643 J0.1072
G1 X10.9445 Y-4.4686
G3 X11.0695 Y-4.3436 I0 J0.125
G3 X11.0653 Y-4.3113 I-0.125 J0
G1 X9.8677 Y0.1581
G3 X9.747 Y0.2507 I-0.1207 J-0.0324
G1 Z-0.85 F30
G1 X4.7352 Y0.2507 F20
G3 X4.6102 Y0.1257 I0 J-0.125
G1 X4.6102 Y-1.8428
G3 X4.6709 Y-1.95 I0.125 J0
G1 X8.8423 Y-4.4508
G3 X8.9066 Y-4.4686 I0.0643 J0.1072
G1 X10.9445 Y-4.4686
G3 X11.0695 Y-4.3436 I0 J0.125
G3 X11.0653 Y-4.3113 I-0.125 J0
G1 X9.8677 Y0.1581
G3 X9.747 Y0.2507 I-0.1207 J-0.0324
G0 Z0.25
G0 X11.9046 Y-4.3033
G1 Z-0.1 F30
G1 X16.9165 Y-4.3033 F20
G3 X17.0415 Y-4.1783 I0 J0.125
G1 X17.0415 Y-2.2098
G3 X16.9807 Y-2.1026 I-0.125 J0
G1 X12.8093 Y0.3982
G3 X12.745 Y0.416 I-0.0643 J-0.1072
G1 X10.7071 Y0.416
G3 X10.5821 Y0.291 I0 J-0.125
G3 X10.5863 Y0.2587 I0.125 J0
G1 X11.7839 Y-4.2107
G3 X11.9046 Y-4.3033 I0.1207 J0.0324
G1 Z-0.2 F30
G1 X16.9165 Y-4.3033 F20
G3 X17.0415 Y-4.1783 I0 J0.125
G1 X17.0415 Y-2.2098
G3 X16.9807 Y-2.1026 I-0.125 J0
G1 X12.8093 Y0.3982
G3 X12.745 Y0.416 I-0.0643 J-0.1072
G1 X10.7071 Y0.416
G3 X10.5821 Y0.291 I0 J-0.125
G3 X10.5863 Y0.2587 I0.125 J0
G1 X11.7839 Y-4.2107
G3 X11.9046 Y-4.3033 I0.1207 J0.0324
G1 Z-0.3 F30
G1 X16.9165 Y-4.3033 F20
G3 X17.0415 Y-4.1783 I0 J0.125
G1 X17.0415 Y-2.2098
G3 X16.9807 Y-2.1026 I-0.125 J0
G1 X12.8093 Y0.3982
G3 X12.745 Y0.416 I-0.0643 J-0.1072
G1 X10.7071 Y0.416
G3 X10.5821 Y0.291 I0 J-0.125
G3 X10.5863 Y0.2587 I0.125 J0
G1 X11.7839 Y-4.2107
G3 X11.9046 Y-4.3033 I0.1207 J0.0324
G1 Z-0.4 F30
G1 X16.9165 Y-4.3033 F20
G3 X17.0415 Y-4.1783 I0 J0.125
G1 X17.0415 Y-2.2098
G3 X16.9807 Y-2.1026 I-0.125 J0
G1 X12.8093 Y0.3982
G3 X12.745 Y0.416 I-0.0643 J-0.1072
G1 X10.7071 Y0.416
G3 X10.5821 Y0.291 I0 J-0.125
G3 X10.5863 Y0.2587 I0.125 J0
G1 X11.7839 Y-4.2107
G3 X11.9046 Y-4.3033 I0.1207 J0.0324
G1 Z-0.5 F30
G1 X16.9165 Y-4.3033 F20
G3 X17.0415 Y-4.1783 I0 J0.125
G1 X17.0415 Y-2.2098
G3 X16.9807 Y-2.1026 I-0.125 J0
G1 X12.8093 Y0.3982
G3 X12.745 Y0.416 I-0.0643 J-0.1072
G1 X10.7071 Y0.416
G3 X10.5821 Y0.291 I0 J-0.125
G3 X10.5863 Y0.2587 I0.125 J0
G1 X11.7839 Y-4.2107
G3 X11.9046 Y-4.3033 I0.1207 J0.0324
G1 Z-0.6 F30
G1 X16.9165 Y-4.3033 F20
G3 X17.0415 Y-4.1783 I0 J0.125
G1 X17.0415 Y-2.2098
G3 X16.9807 Y-2.1026 I-0.125 J0
G1 X12.8093 Y0.3982
G3 X12.745 Y0.416 I-0.0643 J-0.1072
G1 X10.7071 Y0.416
G3 X10.5821 Y0.291 I0 J-0.125
G3 X10.5863 Y0.2587 I0.125 J0
G1 X11.7839 Y-4.2107
G3 X11.9046 Y-4.3033 I0.1207 J0.0324
G1 Z-0.7 F30
G1 X16.9165 Y-4.3033 F20
G3 X17.0415 Y-4.1783 I0 J0.125
G1 X17.0415 Y-2.2098
G3 X16.9807 Y-2.1026 I-0.125 J0
G1 X12.8093 Y0.3982
G3 X12.745 Y0.416 I-0.0643 J-0.1072
G1 X10.7071 Y0.416
G3 X10.5821 Y0.291 I0 J-0.125
G3 X10.5863 Y0.2587 I0.125 J0
G1 X11.7839 Y-4.2107
G3 X11.9046 Y-4.3033 I0.1207 J0.0324
G1 Z-0.8 F30
G1 X16.9165 Y-4.3033 F20
G3 X17.0415 Y-4.1783 I0 J0.125
G1 X17.0415 Y-2.2098
G3 X16.9807 Y-2.1026 I-0.125 J0
G1 X12.8093 Y0.3982
G3 X12.745 Y0.416 I-0.0643 J-0.1072
G1 X10.7071 Y0.416
G3 X10.5821 Y0.291 I0 J-0.125
G3 X10.5863 Y0.2587 I0.125 J0
G1 X11.7839 Y-4.2107
G3 X11.9046 Y-4.3033 I0.1207 J0.0324
G1 Z-0.85 F30
G1 X16.9165 Y-4.3033 F20
G3 X17.0415 Y-4.1783 I0 J0.125
G1 X17.0415 Y-2.2098
G3 X16.9807 Y-2.1026 I-0.125 J0
G1 X12.8093 Y0.3982
G3 X12.745 Y0.416 I-0.0643 J-0.1072
G1 X10.7071 Y0.416
G3 X10.5821 Y0.291 I0 J-0.125
G3 X10.5863 Y0.2587 I0.125 J0
G1 X11.7839 Y-4.2107
G3 X11.9046 Y-4.3033 I0.1207 J0.0324
G0 Z0.25
G0 X-0.7593 Y-0.9728
G1 Z-0.1 F30
G1 X-4.8036 Y-0.69 F20
G3 X-4.9374 Y-0.8147 I-0.0087 J-0.1247
G1 X-4.9374 Y-2.788
G3 X-4.9024 Y-2.8747 I0.125 J0
G1 X-2.8265 Y-5.0283
G3 X-2.7365 Y-5.0665 I0.09 J0.0867
G1 X-0.768 Y-5.0665
G3 X-0.643 Y-4.9415 I0 J0.125
G1 X-0.643 Y-1.0975
G1 X-0.643 Y-1.0975
G3 X-0.7593 Y-0.9728 I-0.125 J0
G1 Z-0.2 F30
G1 X-4.8036 Y-0.69 F20
G3 X-4.9374 Y-0.8147 I-0.0087 J-0.1247
G1 X-4.9374 Y-2.788
G3 X-4.9024 Y-2.8747 I0.125 J0
G1 X-2.8265 Y-5.0283
G3 X-2.7365 Y-5.0665 I0.09 J0.0867
G1 X-0.768 Y-5.0665
G3 X-0.643 Y-4.9415 I0 J0.125
G1 X-0.643 Y-1.0975
G1 X-0.643 Y-1.0975
G3 X-0.7593 Y-0.9728 I-0.125 J0
G1 Z-0.3 F30
G1 X-4.8036 Y-0.69 F20
G3 X-4.9374 Y-0.8147 I-0.0087 J-0.1247
G1 X-4.9374 Y-2.788
G3 X-4.9024 Y-2.8747 I0.125 J0
G1 X-2.8265 Y-5.0283
G3 X-2.7365 Y-5.0665 I0.09 J0.0867
G1 X-0.768 Y-5.0665
G3 X-0.643 Y-4.9415 I0 J0.125
G1 X-0.643 Y-1.0975
G1 X-0.643 Y-1.0975
G3 X-0.7593 Y-0.9728 I-0.125 J0
G1 Z-0.4 F30
G1 X-4.8036 Y-0.69 F20
G3 X-4.9374 Y-0.8147 I-0.0087 J-0.1247
G1 X-4.9374 Y-2.788
G3 X-4.9024 Y-2.8747 I0.125 J0
G1 X-2.8265 Y-5.0283
G3 X-2.7365 Y-5.0665 I0.09 J0.0867
G1 X-0.768 Y-5.0665
G3 X-0.643 Y-4.9415 I0 J0.125
G1 X-0.643 Y-1.0975
G1 X-0.643 Y-1.0975
G3 X-0.7593 Y-0.9728 I-0.125 J0
G1 Z-0.5 F30
G1 X-4.8036 Y-0.69 F20
G3 X-4.9374 Y-0.8147 I-0.0087 J-0.1247
G1 X-4.9374 Y-2.788
G3 X-4.9024 Y-2.8747 I0.125 J0
G1 X-2.8265 Y-5.0283
G3 X-2.7365 Y-5.0665 I0.09 J0.0867
G1 X-0.768 Y-5.0665
G3 X-0.643 Y-4.9415 I0 J0.125
G1 X-0.643 Y-1.0975
G1 X-0.643 Y-1.0975
G3 X-0.7593 Y-0.9728 I-0.125 J0
G1 Z-0.6 F30
G1 X-4.8036 Y-0.69 F20
G3 X-4.9374 Y-0.8147 I-0.0087 J-0.1247
G1 X-4.9374 Y-2.788
G3 X-4.9024 Y-2.8747 I0.125 J0
G1 X-2.8265 Y-5.0283
G3 X-2.7365 Y-5.0665 I0.09 J0.0867
G1 X-0.768 Y-5.0665
G3 X-0.643 Y-4.9415 I0 J0.125
G1 X-0.643 Y-1.0975
G1 X-0.643 Y-1.0975
G3 X-0.7593 Y-0.9728 I-0.125 J0
G1 Z-0.7 F30
G1 X-4.8036 Y-0.69 F20
G3 X-4.9374 Y-0.8147 I-0.0087 J-0.1247
G1 X-4.9374 Y-2.788
G3 X-4.9024 Y-2.8747 I0.125 J0
G1 X-2.8265 Y-5.0283
G3 X-2.7365 Y-5.0665 I0.09 J0.0867
G1 X-0.768 Y-5.0665
G3 X-0.643 Y-4.9415 I0 J0.125
G1 X-0.643 Y-1.0975
G1 X-0.643 Y-1.0975
G3 X-0.7593 Y-0.9728 I-0.125 J0
G1 Z-0.8 F30
G1 X-4.8036 Y-0.69 F20
G3 X-4.9374 Y-0.8147 I-0.0087 J-0.1247
G1 X-4.9374 Y-2.788
G3 X-4.9024 Y-2.8747 I0.125 J0
G1 X-2.8265 Y-5.0283
G3 X-2.7365 Y-5.0665 I0.09 J0.0867
G1 X-0.768 Y-5.0665
G3 X-0.643 Y-4.9415 I0 J0.125
G1 X-0.643 Y-1.0975
G1 X-0.643 Y-1.0975
G3 X-0.7593 Y-0.9728 I-0.125 J0
G1 Z-0.85 F30
G1 X-4.8036 Y-0.69 F20
G3 X-4.9374 Y-0.8147 I-0.0087 J-0.1247
G1 X-4.9374 Y-2.788
G3 X-4.9024 Y-2.8747 I0.125 J0
G1 X-2.8265 Y-5.0283
G3 X-2.7365 Y-5.0665 I0.09 J0.0867
G1 X-0.768 Y-5.0665
G3 X-0.643 Y-4.9415 I0 J0.125
G1 X-0.643 Y-1.0975
G1 X-0.643 Y-1.0975
G3 X-0.7593 Y-0.9728 I-0.125 J0
G0 Z0.25
G0 X5.794 Y-3.0846
G1 Z-0.1 F30
G1 X2.7343 Y-5.7444 F20
G3 X2.6913 Y-5.8387 I0.082 J-0.0943
G3 X2.7279 Y-5.9271 I0.125 J0
G1 X4.1232 Y-7.3225
G3 X4.2093 Y-7.3591 I0.0884 J0.0884
G1 X7.1999 Y-7.414
G3 X7.2906 Y-7.3774 I0.0023 J0.125
G1 X8.6825 Y-5.9855
G3 X8.7192 Y-5.8971 I-0.0884 J0.0884
G3 X8.6825 Y-5.8087 I-0.125 J0
G1 X5.9644 Y-3.0905
G3 X5.794 Y-3.0846 I-0.0884 J-0.0884
G1 Z-0.2 F30
G1 X2.7343 Y-5.7444 F20
G3 X2.6913 Y-5.8387 I0.082 J-0.0943
G3 X2.7279 Y-5.9271 I0.125 J0
G1 X4.1232 Y-7.3225
G3 X4.2093 Y-7.3591 I0.0884 J0.0884
G1 X7.1999 Y-7.414
G3 X7.2906 Y-7.3774 I0.0023 J0.125
G1 X8.6825 Y-5.9855
G3 X8.7192 Y-5.8971 I-0.0884 J0.0884
G3 X8.6825 Y-5.8087 I-0.125 J0
G1 X5.9644 Y-3.0905
G3 X5.794 Y-3.0846 I-0.0884 J-0.0884
G1 Z-0.3 F30
G1 X2.7343 Y-5.7444 F20
G3 X2.6913 Y-5.8387 I0.082 J-0.0943
G3 X2.7279 Y-5.9271 I0.125 J0
G1 X4.1232 Y-7.3225
G3 X4.2093 Y-7.3591 I0.0884 J0.0884
G1 X7.1999 Y-7.414
G3 X7.2906 Y-7.3774 I0.0023 J0.125
G1 X8.6825 Y-5.9855
G3 X8.7192 Y-5.8971 I-0.0884 J0.0884
G3 X8.6825 Y-5.8087 I-0.125 J0
G1 X5.9644 Y-3.0905
G3 X5.794 Y-3.0846 I-0.0884 J-0.0884
G1 Z-0.4 F30
G1 X2.7343 Y-5.7444 F20
G3 X2.6913 Y-5.8387 I0.082 J-0.0943
G3 X2.7279 Y-5.9271 I0.125 J0
G1 X4.1232 Y-7.3225
G3 X4.2093 Y-7.3591 I0.0884 J0.0884
G1 X7.1999 Y-7.414
G3 X7.2906 Y-7.3774 I0.0023 J0.125
G1 X8.6825 Y-5.9855
G3 X8.7192 Y-5.8971 I-0.0884 J0.0884
G3 X8.6825 Y-5.8087 I-0.125 J0
G1 X5.9644 Y-3.0905
G3 X5.794 Y-3.0846 I-0.0884 J-0.0884
G1 Z-0.5 F30
G1 X2.7343 Y-5.7444 F20
G3 X2.6913 Y-5.8387 I0.082 J-0.0943
G3 X2.7279 Y-5.9271 I0.125 J0
G1 X4.1232 Y-7.3225
G3 X4.2093 Y-7.3591 I0.0884 J0.0884
G1 X7.1999 Y-7.414
G3 X7.2906 Y-7.3774 I0.0023 J0.125
G1 X8.6825 Y-5.9855
G3 X8.7192 Y-5.8971 I-0.0884 J0.0884
G3 X8.6825 Y-5.8087 I-0.125 J0
G1 X5.9644 Y-3.0905
G3 X5.794 Y-3.0846 I-0.0884 J-0.0884
G1 Z-0.6 F30
G1 X2.7343 Y-5.7444 F20
G3 X2.6913 Y-5.8387 I0.082 J-0.0943
G3 X2.7279 Y-5.9271 I0.125 J0
G1 X4.1232 Y-7.3225
G3 X4.2093 Y-7.3591 I0.0884 J0.0884
G1 X7.1999 Y-7.414
G3 X7.2906 Y-7.3774 I0.0023 J0.125
G1 X8.6825 Y-5.9855
G3 X8.7192 Y-5.8971 I-0.0884 J0.0884
G3 X8.6825 Y-5.8087 I-0.125 J0
G1 X5.9644 Y-3.0905
G3 X5.794 Y-3.0846 I-0.0884 J-0.0884
G1 Z-0.7 F30
G1 X2.7343 Y-5.7444 F20
G3 X2.6913 Y-5.8387 I0.082 J-0.0943
G3 X2.7279 Y-5.9271 I0.125 J0
G1 X4.1232 Y-7.3225
G3 X4.2093 Y-7.3591 I0.0884 J0.0884
G1 X7.1999 Y-7.414
G3 X7.2906 Y-7.3774 I0.0023 J0.125
G1 X8.6825 Y-5.9855
G3 X8.7192 Y-5.8971 I-0.0884 J0.0884
G3 X8.6825 Y-5.8087 I-0.125 J0
G1 X5.9644 Y-3.0905
G3 X5.794 Y-3.0846 I-0.0884 J-0.0884
G1 Z-0.8 F30
G1 X2.7343 Y-5.7444 F20
G3 X2.6913 Y-5.8387 I0.082 J-0.0943
G3 X2.7279 Y-5.9271 I0.125 J0
G1 X4.1232 Y-7.3225
G3 X4.2093 Y-7.3591 I0.0884 J0.0884
G1 X7.1999 Y-7.414
G3 X7.2906 Y-7.3774 I0.0023 J0.125
G1 X8.6825 Y-5.9855
G3 X8.7192 Y-5.8971 I-0.0884 J0.0884
G3 X8.6825 Y-5.8087 I-0.125 J0
G1 X5.9644 Y-3.0905
G3 X5.794 Y-3.0846 I-0.0884 J-0.0884
G1 Z-0.85 F30
G1 X2.7343 Y-5.7444 F20
G3 X2.6913 Y-5.8387 I0.082 J-0.0943
G3 X2.7279 Y-5.9271 I0.125 J0
G1 X4.1232 Y-7.3225
G3 X4.2093 Y-7.3591 I0.0884 J0.0884
G1 X7.1999 Y-7.414
G3 X7.2906 Y-7.3774 I0.0023 J0.125
G1 X8.6825 Y-5.9855
G3 X8.7192 Y-5.8971 I-0.0884 J0.0884
G3 X8.6825 Y-5.8087 I-0.125 J0
G1 X5.9644 Y-3.0905
G3 X5.794 Y-3.0846 I-0.0884 J-0.0884
G0 Z0.25
G0 X4.0728 Y-0.1157
G1 Z-0.1 F30
G1 X0.0284 Y0.1672 F20
G3 X-0.1053 Y0.0425 I-0.0087 J-0.1247
G1 X-0.1053 Y-1.9309
G3 X-0.0703 Y-2.0176 I0.125 J0
G1 X2.0056 Y-4.1711
G3 X2.0955 Y-4.2094 I0.09 J0.0867
G1 X4.0641 Y-4.2094
G3 X4.1891 Y-4.0844 I0 J0.125
G1 X4.1891 Y-0.2404
G1 X4.1891 Y-0.2404
G3 X4.0728 Y-0.1157 I-0.125 J0
G1 Z-0.2 F30
G1 X0.0284 Y0.1672 F20
G3 X-0.1053 Y0.0425 I-0.0087 J-0.1247
G1 X-0.1053 Y-1.9309
G3 X-0.0703 Y-2.0176 I0.125 J0
G1 X2.0056 Y-4.1711
G3 X2.0955 Y-4.2094 I0.09 J0.0867
G1 X4.0641 Y-4.2094
G3 X4.1891 Y-4.0844 I0 J0.125
G1 X4.1891 Y-0.2404
G1 X4.1891 Y-0.2404
G3 X4.0728 Y-0.1157 I-0.125 J0
G1 Z-0.3 F30
G1 X0.0284 Y0.1672 F20
G3 X-0.1053 Y0.0425 I-0.0087 J-0.1247
G1 X-0.1053 Y-1.9309
G3 X-0.0703 Y-2.0176 I0.125 J0
G1 X2.0056 Y-4.1711
G3 X2.0955 Y-4.2094 I0.09 J0.0867
G1 X4.0641 Y-4.2094
G3 X4.1891 Y-4.0844 I0 J0.125
G1 X4.1891 Y-0.2404
G1 X4.1891 Y-0.2404
G3 X4.0728 Y-0.1157 I-0.125 J0
G1 Z-0.4 F30
G1 X0.0284 Y0.1672 F20
G3 X-0.1053 Y0.0425 I-0.0087 J-0.1247
G1 X-0.1053 Y-1.9309
G3 X-0.0703 Y-2.0176 I0.125 J0
G1 X2.0056 Y-4.1711
G3 X2.0955 Y-4.2094 I0.09 J0.0867
G1 X4.0641 Y-4.2094
G3 X4.1891 Y-4.0844 I0 J0.125
G1 X4.1891 Y-0.2404
G1 X4.1891 Y-0.2404
G3 X4.0728 Y-0.1157 I-0.125 J0
G1 Z-0.5 F30
G1 X0.0284 Y0.1672 F20
G3 X-0.1053 Y0.0425 I-0.0087 J-0.1247
G1 X-0.1053 Y-1.9309
G3 X-0.0703 Y-2.0176 I0.125 J0
G1 X2.0056 Y-4.1711
G3 X2.0955 Y-4.2094 I0.09 J0.0867
G1 X4.0641 Y-4.2094
G3 X4.1891 Y-4.0844 I0 J0.125
G1 X4.1891 Y-0.2404
G1 X4.1891 Y-0.2404
G3 X4.0728 Y-0.1157 I-0.125 J0
G1 Z-0.6 F30
G1 X0.0284 Y0.1672 F20
G3 X-0.1053 Y0.0425 I-0.0087 J-0.1247
G1 X-0.1053 Y-1.9309
G3 X-0.0703 Y-2.0176 I0.125 J0
G1 X2.0056 Y-4.1711
G3 X2.0955 Y-4.2094 I0.09 J0.0867
G1 X4.0641 Y-4.2094
G3 X4.1891 Y-4.0844 I0 J0.125
G1 X4.1891 Y-0.2404
G1 X4.1891 Y-0.2404
G3 X4.0728 Y-0.1157 I-0.125 J0
G1 Z-0.7 F30
G1 X0.0284 Y0.1672 F20
G3 X-0.1053 Y0.0425 I-0.0087 J-0.1247
G1 X-0.1053 Y-1.9309
G3 X-0.0703 Y-2.0176 I0.125 J0
G1 X2.0056 Y-4.1711
G3 X2.0955 Y-4.2094 I0.09 J0.0867
G1 X4.0641 Y-4.2094
G3 X4.1891 Y-4.0844 I0 J0.125
G1 X4.1891 Y-0.2404
G1 X4.1891 Y-0.2404
G3 X4.0728 Y-0.1157 I-0.125 J0
G1 Z-0.8 F30
G1 X0.0284 Y0.1672 F20
G3 X-0.1053 Y0.0425 I-0.0087 J-0.1247
G1 X-0.1053 Y-1.9309
G3 X-0.0703 Y-2.0176 I0.125 J0
G1 X2.0056 Y-4.1711
G3 X2.0955 Y-4.2094 I0.09 J0.0867
G1 X4.0641 Y-4.2094
G3 X4.1891 Y-4.0844 I0 J0.125
G1 X4.1891 Y-0.2404
G1 X4.1891 Y-0.2404
G3 X4.0728 Y-0.1157 I-0.125 J0
G1 Z-0.85 F30
G1 X0.0284 Y0.1672 F20
G3 X-0.1053 Y0.0425 I-0.0087 J-0.1247
G1 X-0.1053 Y-1.9309
G3 X-0.0703 Y-2.0176 I0.125 J0
G1 X2.0056 Y-4.1711
G3 X2.0955 Y-4.2094 I0.09 J0.0867
G1 X4.0641 Y-4.2094
G3 X4.1891 Y-4.0844 I0 J0.125
G1 X4.1891 Y-0.2404
G1 X4.1891 Y-0.2404
G3 X4.0728 Y-0.1157 I-0.125 J0
G0 Z0.25
G0 X17.4229 Y-4.4771
G1 Z-0.1 F30
G1 X13.3694 Y-4.5479 F20
G3 X13.2465 Y-4.6729 I0.0022 J-0.125
G3 X13.247 Y-4.6838 I0.125 J0
G1 X13.419 Y-6.6496
G3 X13.4614 Y-6.733 I0.1245 J0.0109
G1 X15.7171 Y-8.6974
G3 X15.81 Y-8.7276 I0.0821 J0.0943
G1 X17.7711 Y-8.5561
G3 X17.8852 Y-8.4316 I-0.0109 J0.1245
G3 X17.8847 Y-8.4207 I-0.125 J0
G1 X17.5497 Y-4.5912
G3 X17.4229 Y-4.4771 I-0.1245 J-0.0109
G1 Z-0.2 F30
G1 X13.3694 Y-4.5479 F20
G3 X13.2465 Y-4.6729 I0.0022 J-0.125
G3 X13.247 Y-4.6838 I0.125 J0
G1 X13.419 Y-6.6496
G3 X13.4614 Y-6.733 I0.1245 J0.0109
G1 X15.7171 Y-8.6974
G3 X15.81 Y-8.7276 I0.0821 J0.0943
G1 X17.7711 Y-8.5561
G3 X17.8852 Y-8.4316 I-0.0109 J0.1245
G3 X17.8847 Y-8.4207 I-0.125 J0
G1 X17.5497 Y-4.5912
G3 X17.4229 Y-4.4771 I-0.1245 J-0.0109
G1 Z-0.3 F30
G1 X13.3694 Y-4.5479 F20
G3 X13.2465 Y-4.6729 I0.0022 J-0.125
G3 X13.247 Y-4.6838 I0.125 J0
G1 X13.419 Y-6.6496
G3 X13.4614 Y-6.733 I0.1245 J0.0109
G1 X15.7171 Y-8.6974
G3 X15.81 Y-8.7276 I0.0821 J0.0943
G1 X17.7711 Y-8.5561
G3 X17.8852 Y-8.4316 I-0.0109 J0.1245
G3 X17.8847 Y-8.4207 I-0.125 J0
G1 X17.5497 Y-4.5912
G3 X17.4229 Y-4.4771 I-0.1245 J-0.0109
G1 Z-0.4 F30
G1 X13.3694 Y-4.5479 F20
G3 X13.2465 Y-4.6729 I0.0022 J-0.125
G3 X13.247 Y-4.6838 I0.125 J0
G1 X13.419 Y-6.6496
G3 X13.4614 Y-6.733 I0.1245 J0.0109
G1 X15.7171 Y-8.6974
G3 X15.81 Y-8.7276 I0.0821 J0.0943
G1 X17.7711 Y-8.5561
G3 X17.8852 Y-8.4316 I-0.0109 J0.1245
G3 X17.8847 Y-8.4207 I-0.125 J0
G1 X17.5497 Y-4.5912
G3 X17.4229 Y-4.4771 I-0.1245 J-0.0109
G1 Z-0.5 F30
G1 X13.3694 Y-4.5479 F20
G3 X13.2465 Y-4.6729 I0.0022 J-0.125
G3 X13.247 Y-4.6838 I0.125 J0
G1 X13.419 Y-6.6496
G3 X13.4614 Y-6.733 I0.1245 J0.0109
G1 X15.7171 Y-8.6974
G3 X15.81 Y-8.7276 I0.0821 J0.0943
G1 X17.7711 Y-8.5561
G3 X17.8852 Y-8.4316 I-0.0109 J0.1245
G3 X17.8847 Y-8.4207 I-0.125 J0
G1 X17.5497 Y-4.5912
G3 X17.4229 Y-4.4771 I-0.1245 J-0.0109
G1 Z-0.6 F30
G1 X13.3694 Y-4.5479 F20
G3 X13.2465 Y-4.6729 I0.0022 J-0.125
G3 X13.247 Y-4.6838 I0.125 J0
G1 X13.419 Y-6.6496
G3 X13.4614 Y-6.733 I0.1245 J0.0109
G1 X15.7171 Y-8.6974
G3 X15.81 Y-8.7276 I0.0821 J0.0943
G1 X17.7711 Y-8.5561
G3 X17.8852 Y-8.4316 I-0.0109 J0.1245
G3 X17.8847 Y-8.4207 I-0.125 J0
G1 X17.5497 Y-4.5912
G3 X17.4229 Y-4.4771 I-0.1245 J-0.0109
G1 Z-0.7 F30
G1 X13.3694 Y-4.5479 F20
G3 X13.2465 Y-4.6729 I0.0022 J-0.125
G3 X13.247 Y-4.6838 I0.125 J0
G1 X13.419 Y-6.6496
G3 X13.4614 Y-6.733 I0.1245 J0.0109
G1 X15.7171 Y-8.6974
G3 X15.81 Y-8.7276 I0.0821 J0.0943
G1 X17.7711 Y-8.5561
G3 X17.8852 Y-8.4316 I-0.0109 J0.1245
G3 X17.8847 Y-8.4207 I-0.125 J0
G1 X17.5497 Y-4.5912
G3 X17.4229 Y-4.4771 I-0.1245 J-0.0109
G1 Z-0.8 F30
G1 X13.3694 Y-4.5479 F20
G3 X13.2465 Y-4.6729 I0.0022 J-0.125
G3 X13.247 Y-4.6838 I0.125 J0
G1 X13.419 Y-6.6496
G3 X13.4614 Y-6.733 I0.1245 J0.0109
G1 X15.7171 Y-8.6974
G3 X15.81 Y-8.7276 I0.0821 J0.0943
G1 X17.7711 Y-8.5561
G3 X17.8852 Y-8.4316 I-0.0109 J0.1245
G3 X17.8847 Y-8.4207 I-0.125 J0
G1 X17.5497 Y-4.5912
G3 X17.4229 Y-4.4771 I-0.1245 J-0.0109
G1 Z-0.85 F30
G1 X13.3694 Y-4.5479 F20
G3 X13.2465 Y-4.6729 I0.0022 J-0.125
G3 X13.247 Y-4.6838 I0.125 J0
G1 X13.419 Y-6.6496
G3 X13.4614 Y-6.733 I0.1245 J0.0109
G1 X15.7171 Y-8.6974
G3 X15.81 Y-8.7276 I0.0821 J0.0943
G1 X17.7711 Y-8.5561
G3 X17.8852 Y-8.4316 I-0.0109 J0.1245
G3 X17.8847 Y-8.4207 I-0.125 J0
G1 X17.5497 Y-4.5912
G3 X17.4229 Y-4.4771 I-0.1245 J-0.0109
G0 Z0.25
M5
M30
