(Generated by PartKam Version 0.05)

G20 G90 G40

(profile 1)
G0 Z0.25
T0 M6
G17
M3
G0 X-11.3654 Y0.504
G1 Z-0.1 F30
G1 X-11.3334 Y0.538 F20
G1 X-11.3115 Y0.5756
G1 X-11.3008 Y0.6175
G1 X-11.3012 Y0.6616
G1 X-11.3131 Y0.7042
G1 X-11.3356 Y0.7422
G1 X-11.3671 Y0.7731
G1 X-11.4056 Y0.7948
G1 X-11.4484 Y0.8058
G1 X-11.4926 Y0.8053
G1 X-11.5351 Y0.7934
G1 X-11.5731 Y0.7709
G1 X-11.604 Y0.7394
G1 X-11.6257 Y0.7009
G1 X-11.6367 Y0.6581
G1 X-11.6362 Y0.6139
G1 X-11.6244 Y0.5714
G1 X-11.6019 Y0.5334
G1 X-11.5703 Y0.5025
G1 X-11.5318 Y0.4808
G1 X-11.489 Y0.4698
G1 X-11.4449 Y0.4703
G1 X-11.4023 Y0.4822
G1 X-11.3654 Y0.504
G1 Z-0.2 F30
G1 X-11.3334 Y0.538 F20
G1 X-11.3115 Y0.5756
G1 X-11.3008 Y0.6175
G1 X-11.3012 Y0.6616
G1 X-11.3131 Y0.7042
G1 X-11.3356 Y0.7422
G1 X-11.3671 Y0.7731
G1 X-11.4056 Y0.7948
G1 X-11.4484 Y0.8058
G1 X-11.4926 Y0.8053
G1 X-11.5351 Y0.7934
G1 X-11.5731 Y0.7709
G1 X-11.604 Y0.7394
G1 X-11.6257 Y0.7009
G1 X-11.6367 Y0.6581
G1 X-11.6362 Y0.6139
G1 X-11.6244 Y0.5714
G1 X-11.6019 Y0.5334
G1 X-11.5703 Y0.5025
G1 X-11.5318 Y0.4808
G1 X-11.489 Y0.4698
G1 X-11.4449 Y0.4703
G1 X-11.4023 Y0.4822
G1 X-11.3654 Y0.504
G1 Z-0.3 F30
G1 X-11.3334 Y0.538 F20
G1 X-11.3115 Y0.5756
G1 X-11.3008 Y0.6175
G1 X-11.3012 Y0.6616
G1 X-11.3131 Y0.7042
G1 X-11.3356 Y0.7422
G1 X-11.3671 Y0.7731
G1 X-11.4056 Y0.7948
G1 X-11.4484 Y0.8058
G1 X-11.4926 Y0.8053
G1 X-11.5351 Y0.7934
G1 X-11.5731 Y0.7709
G1 X-11.604 Y0.7394
G1 X-11.6257 Y0.7009
G1 X-11.6367 Y0.6581
G1 X-11.6362 Y0.6139
G1 X-11.6244 Y0.5714
G1 X-11.6019 Y0.5334
G1 X-11.5703 Y0.5025
G1 X-11.5318 Y0.4808
G1 X-11.489 Y0.4698
G1 X-11.4449 Y0.4703
G1 X-11.4023 Y0.4822
G1 X-11.3654 Y0.504
G1 Z-0.4 F30
G1 X-11.3334 Y0.538 F20
G1 X-11.3115 Y0.5756
G1 X-11.3008 Y0.6175
G1 X-11.3012 Y0.6616
G1 X-11.3131 Y0.7042
G1 X-11.3356 Y0.7422
G1 X-11.3671 Y0.7731
G1 X-11.4056 Y0.7948
G1 X-11.4484 Y0.8058
G1 X-11.4926 Y0.8053
G1 X-11.5351 Y0.7934
G1 X-11.5731 Y0.7709
G1 X-11.604 Y0.7394
G1 X-11.6257 Y0.7009
G1 X-11.6367 Y0.6581
G1 X-11.6362 Y0.6139
G1 X-11.6244 Y0.5714
G1 X-11.6019 Y0.5334
G1 X-11.5703 Y0.5025
G1 X-11.5318 Y0.4808
G1 X-11.489 Y0.4698
G1 X-11.4449 Y0.4703
G1 X-11.4023 Y0.4822
G1 X-11.3654 Y0.504
G1 Z-0.5 F30
G1 X-11.3334 Y0.538 F20
G1 X-11.3115 Y0.5756
G1 X-11.3008 Y0.6175
G1 X-11.3012 Y0.6616
G1 X-11.3131 Y0.7042
G1 X-11.3356 Y0.7422
G1 X-11.3671 Y0.7731
G1 X-11.4056 Y0.7948
G1 X-11.4484 Y0.8058
G1 X-11.4926 Y0.8053
G1 X-11.5351 Y0.7934
G1 X-11.5731 Y0.7709
G1 X-11.604 Y0.7394
G1 X-11.6257 Y0.7009
G1 X-11.6367 Y0.6581
G1 X-11.6362 Y0.6139
G1 X-11.6244 Y0.5714
G1 X-11.6019 Y0.5334
G1 X-11.5703 Y0.5025
G1 X-11.5318 Y0.4808
G1 X-11.489 Y0.4698
G1 X-11.4449 Y0.4703
G1 X-11.4023 Y0.4822
G1 X-11.3654 Y0.504
G1 Z-0.6 F30
G1 X-11.3334 Y0.538 F20
G1 X-11.3115 Y0.5756
G1 X-11.3008 Y0.6175
G1 X-11.3012 Y0.6616
G1 X-11.3131 Y0.7042
G1 X-11.3356 Y0.7422
G1 X-11.3671 Y0.7731
G1 X-11.4056 Y0.7948
G1 X-11.4484 Y0.8058
G1 X-11.4926 Y0.8053
G1 X-11.5351 Y0.7934
G1 X-11.5731 Y0.7709
G1 X-11.604 Y0.7394
G1 X-11.6257 Y0.7009
G1 X-11.6367 Y0.6581
G1 X-11.6362 Y0.6139
G1 X-11.6244 Y0.5714
G1 X-11.6019 Y0.5334
G1 X-11.5703 Y0.5025
G1 X-11.5318 Y0.4808
G1 X-11.489 Y0.4698
G1 X-11.4449 Y0.4703
G1 X-11.4023 Y0.4822
G1 X-11.3654 Y0.504
G1 Z-0.7 F30
G1 X-11.3334 Y0.538 F20
G1 X-11.3115 Y0.5756
G1 X-11.3008 Y0.6175
G1 X-11.3012 Y0.6616
G1 X-11.3131 Y0.7042
G1 X-11.3356 Y0.7422
G1 X-11.3671 Y0.7731
G1 X-11.4056 Y0.7948
G1 X-11.4484 Y0.8058
G1 X-11.4926 Y0.8053
G1 X-11.5351 Y0.7934
G1 X-11.5731 Y0.7709
G1 X-11.604 Y0.7394
G1 X-11.6257 Y0.7009
G1 X-11.6367 Y0.6581
G1 X-11.6362 Y0.6139
G1 X-11.6244 Y0.5714
G1 X-11.6019 Y0.5334
G1 X-11.5703 Y0.5025
G1 X-11.5318 Y0.4808
G1 X-11.489 Y0.4698
G1 X-11.4449 Y0.4703
G1 X-11.4023 Y0.4822
G1 X-11.3654 Y0.504
G1 Z-0.8 F30
G1 X-11.3334 Y0.538 F20
G1 X-11.3115 Y0.5756
G1 X-11.3008 Y0.6175
G1 X-11.3012 Y0.6616
G1 X-11.3131 Y0.7042
G1 X-11.3356 Y0.7422
G1 X-11.3671 Y0.7731
G1 X-11.4056 Y0.7948
G1 X-11.4484 Y0.8058
G1 X-11.4926 Y0.8053
G1 X-11.5351 Y0.7934
G1 X-11.5731 Y0.7709
G1 X-11.604 Y0.7394
G1 X-11.6257 Y0.7009
G1 X-11.6367 Y0.6581
G1 X-11.6362 Y0.6139
G1 X-11.6244 Y0.5714
G1 X-11.6019 Y0.5334
G1 X-11.5703 Y0.5025
G1 X-11.5318 Y0.4808
G1 X-11.489 Y0.4698
G1 X-11.4449 Y0.4703
G1 X-11.4023 Y0.4822
G1 X-11.3654 Y0.504
G1 Z-0.85 F30
G1 X-11.3334 Y0.538 F20
G1 X-11.3115 Y0.5756
G1 X-11.3008 Y0.6175
G1 X-11.3012 Y0.6616
G1 X-11.3131 Y0.7042
G1 X-11.3356 Y0.7422
G1 X-11.3671 Y0.7731
G1 X-11.4056 Y0.7948
G1 X-11.4484 Y0.8058
G1 X-11.4926 Y0.8053
G1 X-11.5351 Y0.7934
G1 X-11.5731 Y0.7709
G1 X-11.604 Y0.7394
G1 X-11.6257 Y0.7009
G1 X-11.6367 Y0.6581
G1 X-11.6362 Y0.6139
G1 X-11.6244 Y0.5714
G1 X-11.6019 Y0.5334
G1 X-11.5703 Y0.5025
G1 X-11.5318 Y0.4808
G1 X-11.489 Y0.4698
G1 X-11.4449 Y0.4703
G1 X-11.4023 Y0.4822
G1 X-11.3654 Y0.504
G0 Z0.25
G0 X-3.9197 Y0.6682
G1 Z-0.1 F30
G1 X-3.8877 Y0.7022 F20
G1 X-3.8658 Y0.7398
G1 X-3.855 Y0.7817
G1 X-3.8555 Y0.8258
G1 X-3.8673 Y0.8684
G1 X-3.8898 Y0.9064
G1 X-3.9214 Y0.9373
G1 X-3.9599 Y0.959
G1 X-4.0027 Y0.97
G1 X-4.0468 Y0.9695
G1 X-4.0894 Y0.9576
G1 X-4.1274 Y0.9351
G1 X-4.1583 Y0.9036
G1 X-4.18 Y0.8651
G1 X-4.1909 Y0.8223
G1 X-4.1905 Y0.7781
G1 X-4.1786 Y0.7356
G1 X-4.1561 Y0.6976
G1 X-4.1246 Y0.6667
G1 X-4.0861 Y0.645
G1 X-4.0433 Y0.634
G1 X-3.9991 Y0.6345
G1 X-3.9566 Y0.6464
G1 X-3.9197 Y0.6682
G1 Z-0.2 F30
G1 X-3.8877 Y0.7022 F20
G1 X-3.8658 Y0.7398
G1 X-3.855 Y0.7817
G1 X-3.8555 Y0.8258
G1 X-3.8673 Y0.8684
G1 X-3.8898 Y0.9064
G1 X-3.9214 Y0.9373
G1 X-3.9599 Y0.959
G1 X-4.0027 Y0.97
G1 X-4.0468 Y0.9695
G1 X-4.0894 Y0.9576
G1 X-4.1274 Y0.9351
G1 X-4.1583 Y0.9036
G1 X-4.18 Y0.8651
G1 X-4.1909 Y0.8223
G1 X-4.1905 Y0.7781
G1 X-4.1786 Y0.7356
G1 X-4.1561 Y0.6976
G1 X-4.1246 Y0.6667
G1 X-4.0861 Y0.645
G1 X-4.0433 Y0.634
G1 X-3.9991 Y0.6345
G1 X-3.9566 Y0.6464
G1 X-3.9197 Y0.6682
G1 Z-0.3 F30
G1 X-3.8877 Y0.7022 F20
G1 X-3.8658 Y0.7398
G1 X-3.855 Y0.7817
G1 X-3.8555 Y0.8258
G1 X-3.8673 Y0.8684
G1 X-3.8898 Y0.9064
G1 X-3.9214 Y0.9373
G1 X-3.9599 Y0.959
G1 X-4.0027 Y0.97
G1 X-4.0468 Y0.9695
G1 X-4.0894 Y0.9576
G1 X-4.1274 Y0.9351
G1 X-4.1583 Y0.9036
G1 X-4.18 Y0.8651
G1 X-4.1909 Y0.8223
G1 X-4.1905 Y0.7781
G1 X-4.1786 Y0.7356
G1 X-4.1561 Y0.6976
G1 X-4.1246 Y0.6667
G1 X-4.0861 Y0.645
G1 X-4.0433 Y0.634
G1 X-3.9991 Y0.6345
G1 X-3.9566 Y0.6464
G1 X-3.9197 Y0.6682
G1 Z-0.4 F30
G1 X-3.8877 Y0.7022 F20
G1 X-3.8658 Y0.7398
G1 X-3.855 Y0.7817
G1 X-3.8555 Y0.8258
G1 X-3.8673 Y0.8684
G1 X-3.8898 Y0.9064
G1 X-3.9214 Y0.9373
G1 X-3.9599 Y0.959
G1 X-4.0027 Y0.97
G1 X-4.0468 Y0.9695
G1 X-4.0894 Y0.9576
G1 X-4.1274 Y0.9351
G1 X-4.1583 Y0.9036
G1 X-4.18 Y0.8651
G1 X-4.1909 Y0.8223
G1 X-4.1905 Y0.7781
G1 X-4.1786 Y0.7356
G1 X-4.1561 Y0.6976
G1 X-4.1246 Y0.6667
G1 X-4.0861 Y0.645
G1 X-4.0433 Y0.634
G1 X-3.9991 Y0.6345
G1 X-3.9566 Y0.6464
G1 X-3.9197 Y0.6682
G1 Z-0.5 F30
G1 X-3.8877 Y0.7022 F20
G1 X-3.8658 Y0.7398
G1 X-3.855 Y0.7817
G1 X-3.8555 Y0.8258
G1 X-3.8673 Y0.8684
G1 X-3.8898 Y0.9064
G1 X-3.9214 Y0.9373
G1 X-3.9599 Y0.959
G1 X-4.0027 Y0.97
G1 X-4.0468 Y0.9695
G1 X-4.0894 Y0.9576
G1 X-4.1274 Y0.9351
G1 X-4.1583 Y0.9036
G1 X-4.18 Y0.8651
G1 X-4.1909 Y0.8223
G1 X-4.1905 Y0.7781
G1 X-4.1786 Y0.7356
G1 X-4.1561 Y0.6976
G1 X-4.1246 Y0.6667
G1 X-4.0861 Y0.645
G1 X-4.0433 Y0.634
G1 X-3.9991 Y0.6345
G1 X-3.9566 Y0.6464
G1 X-3.9197 Y0.6682
G1 Z-0.6 F30
G1 X-3.8877 Y0.7022 F20
G1 X-3.8658 Y0.7398
G1 X-3.855 Y0.7817
G1 X-3.8555 Y0.8258
G1 X-3.8673 Y0.8684
G1 X-3.8898 Y0.9064
G1 X-3.9214 Y0.9373
G1 X-3.9599 Y0.959
G1 X-4.0027 Y0.97
G1 X-4.0468 Y0.9695
G1 X-4.0894 Y0.9576
G1 X-4.1274 Y0.9351
G1 X-4.1583 Y0.9036
G1 X-4.18 Y0.8651
G1 X-4.1909 Y0.8223
G1 X-4.1905 Y0.7781
G1 X-4.1786 Y0.7356
G1 X-4.1561 Y0.6976
G1 X-4.1246 Y0.6667
G1 X-4.0861 Y0.645
G1 X-4.0433 Y0.634
G1 X-3.9991 Y0.6345
G1 X-3.9566 Y0.6464
G1 X-3.9197 Y0.6682
G1 Z-0.7 F30
G1 X-3.8877 Y0.7022 F20
G1 X-3.8658 Y0.7398
G1 X-3.855 Y0.7817
G1 X-3.8555 Y0.8258
G1 X-3.8673 Y0.8684
G1 X-3.8898 Y0.9064
G1 X-3.9214 Y0.9373
G1 X-3.9599 Y0.959
G1 X-4.0027 Y0.97
G1 X-4.0468 Y0.9695
G1 X-4.0894 Y0.9576
G1 X-4.1274 Y0.9351
G1 X-4.1583 Y0.9036
G1 X-4.18 Y0.8651
G1 X-4.1909 Y0.8223
G1 X-4.1905 Y0.7781
G1 X-4.1786 Y0.7356
G1 X-4.1561 Y0.6976
G1 X-4.1246 Y0.6667
G1 X-4.0861 Y0.645
G1 X-4.0433 Y0.634
G1 X-3.9991 Y0.6345
G1 X-3.9566 Y0.6464
G1 X-3.9197 Y0.6682
G1 Z-0.8 F30
G1 X-3.8877 Y0.7022 F20
G1 X-3.8658 Y0.7398
G1 X-3.855 Y0.7817
G1 X-3.8555 Y0.8258
G1 X-3.8673 Y0.8684
G1 X-3.8898 Y0.9064
G1 X-3.9214 Y0.9373
G1 X-3.9599 Y0.959
G1 X-4.0027 Y0.97
G1 X-4.0468 Y0.9695
G1 X-4.0894 Y0.9576
G1 X-4.1274 Y0.9351
G1 X-4.1583 Y0.9036
G1 X-4.18 Y0.8651
G1 X-4.1909 Y0.8223
G1 X-4.1905 Y0.7781
G1 X-4.1786 Y0.7356
G1 X-4.1561 Y0.6976
G1 X-4.1246 Y0.6667
G1 X-4.0861 Y0.645
G1 X-4.0433 Y0.634
G1 X-3.9991 Y0.6345
G1 X-3.9566 Y0.6464
G1 X-3.9197 Y0.6682
G1 Z-0.85 F30
G1 X-3.8877 Y0.7022 F20
G1 X-3.8658 Y0.7398
G1 X-3.855 Y0.7817
G1 X-3.8555 Y0.8258
G1 X-3.8673 Y0.8684
G1 X-3.8898 Y0.9064
G1 X-3.9214 Y0.9373
G1 X-3.9599 Y0.959
G1 X-4.0027 Y0.97
G1 X-4.0468 Y0.9695
G1 X-4.0894 Y0.9576
G1 X-4.1274 Y0.9351
G1 X-4.1583 Y0.9036
G1 X-4.18 Y0.8651
G1 X-4.1909 Y0.8223
G1 X-4.1905 Y0.7781
G1 X-4.1786 Y0.7356
G1 X-4.1561 Y0.6976
G1 X-4.1246 Y0.6667
G1 X-4.0861 Y0.645
G1 X-4.0433 Y0.634
G1 X-3.9991 Y0.6345
G1 X-3.9566 Y0.6464
G1 X-3.9197 Y0.6682
G0 Z0.25
G0 X-6.4168 Y0.6872
G1 Z-0.1 F30
G1 X-6.3755 Y0.6683 F20
G1 X-6.3319 Y0.661
G1 X-6.288 Y0.6652
G1 X-6.2466 Y0.6807
G1 X-6.2106 Y0.7063
G1 X-6.1825 Y0.7404
G1 X-6.1642 Y0.7806
G1 X-6.1569 Y0.8242
G1 X-6.1611 Y0.8681
G1 X-6.1765 Y0.9095
G1 X-6.2022 Y0.9455
G1 X-6.2362 Y0.9736
G1 X-6.2764 Y0.9919
G1 X-6.32 Y0.9992
G1 X-6.364 Y0.995
G1 X-6.4053 Y0.9795
G1 X-6.4413 Y0.9539
G1 X-6.4694 Y0.9198
G1 X-6.4877 Y0.8797
G1 X-6.495 Y0.8361
G1 X-6.4908 Y0.7921
G1 X-6.4751 Y0.7499
G1 X-6.4498 Y0.7133
G1 X-6.4168 Y0.6872
G1 Z-0.2 F30
G1 X-6.3755 Y0.6683 F20
G1 X-6.3319 Y0.661
G1 X-6.288 Y0.6652
G1 X-6.2466 Y0.6807
G1 X-6.2106 Y0.7063
G1 X-6.1825 Y0.7404
G1 X-6.1642 Y0.7806
G1 X-6.1569 Y0.8242
G1 X-6.1611 Y0.8681
G1 X-6.1765 Y0.9095
G1 X-6.2022 Y0.9455
G1 X-6.2362 Y0.9736
G1 X-6.2764 Y0.9919
G1 X-6.32 Y0.9992
G1 X-6.364 Y0.995
G1 X-6.4053 Y0.9795
G1 X-6.4413 Y0.9539
G1 X-6.4694 Y0.9198
G1 X-6.4877 Y0.8797
G1 X-6.495 Y0.8361
G1 X-6.4908 Y0.7921
G1 X-6.4751 Y0.7499
G1 X-6.4498 Y0.7133
G1 X-6.4168 Y0.6872
G1 Z-0.3 F30
G1 X-6.3755 Y0.6683 F20
G1 X-6.3319 Y0.661
G1 X-6.288 Y0.6652
G1 X-6.2466 Y0.6807
G1 X-6.2106 Y0.7063
G1 X-6.1825 Y0.7404
G1 X-6.1642 Y0.7806
G1 X-6.1569 Y0.8242
G1 X-6.1611 Y0.8681
G1 X-6.1765 Y0.9095
G1 X-6.2022 Y0.9455
G1 X-6.2362 Y0.9736
G1 X-6.2764 Y0.9919
G1 X-6.32 Y0.9992
G1 X-6.364 Y0.995
G1 X-6.4053 Y0.9795
G1 X-6.4413 Y0.9539
G1 X-6.4694 Y0.9198
G1 X-6.4877 Y0.8797
G1 X-6.495 Y0.8361
G1 X-6.4908 Y0.7921
G1 X-6.4751 Y0.7499
G1 X-6.4498 Y0.7133
G1 X-6.4168 Y0.6872
G1 Z-0.4 F30
G1 X-6.3755 Y0.6683 F20
G1 X-6.3319 Y0.661
G1 X-6.288 Y0.6652
G1 X-6.2466 Y0.6807
G1 X-6.2106 Y0.7063
G1 X-6.1825 Y0.7404
G1 X-6.1642 Y0.7806
G1 X-6.1569 Y0.8242
G1 X-6.1611 Y0.8681
G1 X-6.1765 Y0.9095
G1 X-6.2022 Y0.9455
G1 X-6.2362 Y0.9736
G1 X-6.2764 Y0.9919
G1 X-6.32 Y0.9992
G1 X-6.364 Y0.995
G1 X-6.4053 Y0.9795
G1 X-6.4413 Y0.9539
G1 X-6.4694 Y0.9198
G1 X-6.4877 Y0.8797
G1 X-6.495 Y0.8361
G1 X-6.4908 Y0.7921
G1 X-6.4751 Y0.7499
G1 X-6.4498 Y0.7133
G1 X-6.4168 Y0.6872
G1 Z-0.5 F30
G1 X-6.3755 Y0.6683 F20
G1 X-6.3319 Y0.661
G1 X-6.288 Y0.6652
G1 X-6.2466 Y0.6807
G1 X-6.2106 Y0.7063
G1 X-6.1825 Y0.7404
G1 X-6.1642 Y0.7806
G1 X-6.1569 Y0.8242
G1 X-6.1611 Y0.8681
G1 X-6.1765 Y0.9095
G1 X-6.2022 Y0.9455
G1 X-6.2362 Y0.9736
G1 X-6.2764 Y0.9919
G1 X-6.32 Y0.9992
G1 X-6.364 Y0.995
G1 X-6.4053 Y0.9795
G1 X-6.4413 Y0.9539
G1 X-6.4694 Y0.9198
G1 X-6.4877 Y0.8797
G1 X-6.495 Y0.8361
G1 X-6.4908 Y0.7921
G1 X-6.4751 Y0.7499
G1 X-6.4498 Y0.7133
G1 X-6.4168 Y0.6872
G1 Z-0.6 F30
G1 X-6.3755 Y0.6683 F20
G1 X-6.3319 Y0.661
G1 X-6.288 Y0.6652
G1 X-6.2466 Y0.6807
G1 X-6.2106 Y0.7063
G1 X-6.1825 Y0.7404
G1 X-6.1642 Y0.7806
G1 X-6.1569 Y0.8242
G1 X-6.1611 Y0.8681
G1 X-6.1765 Y0.9095
G1 X-6.2022 Y0.9455
G1 X-6.2362 Y0.9736
G1 X-6.2764 Y0.9919
G1 X-6.32 Y0.9992
G1 X-6.364 Y0.995
G1 X-6.4053 Y0.9795
G1 X-6.4413 Y0.9539
G1 X-6.4694 Y0.9198
G1 X-6.4877 Y0.8797
G1 X-6.495 Y0.8361
G1 X-6.4908 Y0.7921
G1 X-6.4751 Y0.7499
G1 X-6.4498 Y0.7133
G1 X-6.4168 Y0.6872
G1 Z-0.7 F30
G1 X-6.3755 Y0.6683 F20
G1 X-6.3319 Y0.661
G1 X-6.288 Y0.6652
G1 X-6.2466 Y0.6807
G1 X-6.2106 Y0.7063
G1 X-6.1825 Y0.7404
G1 X-6.1642 Y0.7806
G1 X-6.1569 Y0.8242
G1 X-6.1611 Y0.8681
G1 X-6.1765 Y0.9095
G1 X-6.2022 Y0.9455
G1 X-6.2362 Y0.9736
G1 X-6.2764 Y0.9919
G1 X-6.32 Y0.9992
G1 X-6.364 Y0.995
G1 X-6.4053 Y0.9795
G1 X-6.4413 Y0.9539
G1 X-6.4694 Y0.9198
G1 X-6.4877 Y0.8797
G1 X-6.495 Y0.8361
G1 X-6.4908 Y0.7921
G1 X-6.4751 Y0.7499
G1 X-6.4498 Y0.7133
G1 X-6.4168 Y0.6872
G1 Z-0.8 F30
G1 X-6.3755 Y0.6683 F20
G1 X-6.3319 Y0.661
G1 X-6.288 Y0.6652
G1 X-6.2466 Y0.6807
G1 X-6.2106 Y0.7063
G1 X-6.1825 Y0.7404
G1 X-6.1642 Y0.7806
G1 X-6.1569 Y0.8242
G1 X-6.1611 Y0.8681
G1 X-6.1765 Y0.9095
G1 X-6.2022 Y0.9455
G1 X-6.2362 Y0.9736
G1 X-6.2764 Y0.9919
G1 X-6.32 Y0.9992
G1 X-6.364 Y0.995
G1 X-6.4053 Y0.9795
G1 X-6.4413 Y0.9539
G1 X-6.4694 Y0.9198
G1 X-6.4877 Y0.8797
G1 X-6.495 Y0.8361
G1 X-6.4908 Y0.7921
G1 X-6.4751 Y0.7499
G1 X-6.4498 Y0.7133
G1 X-6.4168 Y0.6872
G1 Z-0.85 F30
G1 X-6.3755 Y0.6683 F20
G1 X-6.3319 Y0.661
G1 X-6.288 Y0.6652
G1 X-6.2466 Y0.6807
G1 X-6.2106 Y0.7063
G1 X-6.1825 Y0.7404
G1 X-6.1642 Y0.7806
G1 X-6.1569 Y0.8242
G1 X-6.1611 Y0.8681
G1 X-6.1765 Y0.9095
G1 X-6.2022 Y0.9455
G1 X-6.2362 Y0.9736
G1 X-6.2764 Y0.9919
G1 X-6.32 Y0.9992
G1 X-6.364 Y0.995
G1 X-6.4053 Y0.9795
G1 X-6.4413 Y0.9539
G1 X-6.4694 Y0.9198
G1 X-6.4877 Y0.8797
G1 X-6.495 Y0.8361
G1 X-6.4908 Y0.7921
G1 X-6.4751 Y0.7499
G1 X-6.4498 Y0.7133
G1 X-6.4168 Y0.6872
G0 Z0.25
G0 X-13.8625 Y0.523
G1 Z-0.1 F30
G1 X-13.8212 Y0.5041 F20
G1 X-13.7777 Y0.4968
G1 X-13.7337 Y0.5011
G1 X-13.6923 Y0.5165
G1 X-13.6564 Y0.5421
G1 X-13.6282 Y0.5762
G1 X-13.6099 Y0.6164
G1 X-13.6026 Y0.66
G1 X-13.6068 Y0.7039
G1 X-13.6223 Y0.7453
G1 X-13.6479 Y0.7813
G1 X-13.682 Y0.8094
G1 X-13.7222 Y0.8277
G1 X-13.7657 Y0.835
G1 X-13.8097 Y0.8308
G1 X-13.8511 Y0.8154
G1 X-13.887 Y0.7897
G1 X-13.9152 Y0.7556
G1 X-13.9335 Y0.7155
G1 X-13.9408 Y0.6719
G1 X-13.9366 Y0.6279
G1 X-13.9208 Y0.5857
G1 X-13.8955 Y0.5491
G1 X-13.8625 Y0.523
G1 Z-0.2 F30
G1 X-13.8212 Y0.5041 F20
G1 X-13.7777 Y0.4968
G1 X-13.7337 Y0.5011
G1 X-13.6923 Y0.5165
G1 X-13.6564 Y0.5421
G1 X-13.6282 Y0.5762
G1 X-13.6099 Y0.6164
G1 X-13.6026 Y0.66
G1 X-13.6068 Y0.7039
G1 X-13.6223 Y0.7453
G1 X-13.6479 Y0.7813
G1 X-13.682 Y0.8094
G1 X-13.7222 Y0.8277
G1 X-13.7657 Y0.835
G1 X-13.8097 Y0.8308
G1 X-13.8511 Y0.8154
G1 X-13.887 Y0.7897
G1 X-13.9152 Y0.7556
G1 X-13.9335 Y0.7155
G1 X-13.9408 Y0.6719
G1 X-13.9366 Y0.6279
G1 X-13.9208 Y0.5857
G1 X-13.8955 Y0.5491
G1 X-13.8625 Y0.523
G1 Z-0.3 F30
G1 X-13.8212 Y0.5041 F20
G1 X-13.7777 Y0.4968
G1 X-13.7337 Y0.5011
G1 X-13.6923 Y0.5165
G1 X-13.6564 Y0.5421
G1 X-13.6282 Y0.5762
G1 X-13.6099 Y0.6164
G1 X-13.6026 Y0.66
G1 X-13.6068 Y0.7039
G1 X-13.6223 Y0.7453
G1 X-13.6479 Y0.7813
G1 X-13.682 Y0.8094
G1 X-13.7222 Y0.8277
G1 X-13.7657 Y0.835
G1 X-13.8097 Y0.8308
G1 X-13.8511 Y0.8154
G1 X-13.887 Y0.7897
G1 X-13.9152 Y0.7556
G1 X-13.9335 Y0.7155
G1 X-13.9408 Y0.6719
G1 X-13.9366 Y0.6279
G1 X-13.9208 Y0.5857
G1 X-13.8955 Y0.5491
G1 X-13.8625 Y0.523
G1 Z-0.4 F30
G1 X-13.8212 Y0.5041 F20
G1 X-13.7777 Y0.4968
G1 X-13.7337 Y0.5011
G1 X-13.6923 Y0.5165
G1 X-13.6564 Y0.5421
G1 X-13.6282 Y0.5762
G1 X-13.6099 Y0.6164
G1 X-13.6026 Y0.66
G1 X-13.6068 Y0.7039
G1 X-13.6223 Y0.7453
G1 X-13.6479 Y0.7813
G1 X-13.682 Y0.8094
G1 X-13.7222 Y0.8277
G1 X-13.7657 Y0.835
G1 X-13.8097 Y0.8308
G1 X-13.8511 Y0.8154
G1 X-13.887 Y0.7897
G1 X-13.9152 Y0.7556
G1 X-13.9335 Y0.7155
G1 X-13.9408 Y0.6719
G1 X-13.9366 Y0.6279
G1 X-13.9208 Y0.5857
G1 X-13.8955 Y0.5491
G1 X-13.8625 Y0.523
G1 Z-0.5 F30
G1 X-13.8212 Y0.5041 F20
G1 X-13.7777 Y0.4968
G1 X-13.7337 Y0.5011
G1 X-13.6923 Y0.5165
G1 X-13.6564 Y0.5421
G1 X-13.6282 Y0.5762
G1 X-13.6099 Y0.6164
G1 X-13.6026 Y0.66
G1 X-13.6068 Y0.7039
G1 X-13.6223 Y0.7453
G1 X-13.6479 Y0.7813
G1 X-13.682 Y0.8094
G1 X-13.7222 Y0.8277
G1 X-13.7657 Y0.835
G1 X-13.8097 Y0.8308
G1 X-13.8511 Y0.8154
G1 X-13.887 Y0.7897
G1 X-13.9152 Y0.7556
G1 X-13.9335 Y0.7155
G1 X-13.9408 Y0.6719
G1 X-13.9366 Y0.6279
G1 X-13.9208 Y0.5857
G1 X-13.8955 Y0.5491
G1 X-13.8625 Y0.523
G1 Z-0.6 F30
G1 X-13.8212 Y0.5041 F20
G1 X-13.7777 Y0.4968
G1 X-13.7337 Y0.5011
G1 X-13.6923 Y0.5165
G1 X-13.6564 Y0.5421
G1 X-13.6282 Y0.5762
G1 X-13.6099 Y0.6164
G1 X-13.6026 Y0.66
G1 X-13.6068 Y0.7039
G1 X-13.6223 Y0.7453
G1 X-13.6479 Y0.7813
G1 X-13.682 Y0.8094
G1 X-13.7222 Y0.8277
G1 X-13.7657 Y0.835
G1 X-13.8097 Y0.8308
G1 X-13.8511 Y0.8154
G1 X-13.887 Y0.7897
G1 X-13.9152 Y0.7556
G1 X-13.9335 Y0.7155
G1 X-13.9408 Y0.6719
G1 X-13.9366 Y0.6279
G1 X-13.9208 Y0.5857
G1 X-13.8955 Y0.5491
G1 X-13.8625 Y0.523
G1 Z-0.7 F30
G1 X-13.8212 Y0.5041 F20
G1 X-13.7777 Y0.4968
G1 X-13.7337 Y0.5011
G1 X-13.6923 Y0.5165
G1 X-13.6564 Y0.5421
G1 X-13.6282 Y0.5762
G1 X-13.6099 Y0.6164
G1 X-13.6026 Y0.66
G1 X-13.6068 Y0.7039
G1 X-13.6223 Y0.7453
G1 X-13.6479 Y0.7813
G1 X-13.682 Y0.8094
G1 X-13.7222 Y0.8277
G1 X-13.7657 Y0.835
G1 X-13.8097 Y0.8308
G1 X-13.8511 Y0.8154
G1 X-13.887 Y0.7897
G1 X-13.9152 Y0.7556
G1 X-13.9335 Y0.7155
G1 X-13.9408 Y0.6719
G1 X-13.9366 Y0.6279
G1 X-13.9208 Y0.5857
G1 X-13.8955 Y0.5491
G1 X-13.8625 Y0.523
G1 Z-0.8 F30
G1 X-13.8212 Y0.5041 F20
G1 X-13.7777 Y0.4968
G1 X-13.7337 Y0.5011
G1 X-13.6923 Y0.5165
G1 X-13.6564 Y0.5421
G1 X-13.6282 Y0.5762
G1 X-13.6099 Y0.6164
G1 X-13.6026 Y0.66
G1 X-13.6068 Y0.7039
G1 X-13.6223 Y0.7453
G1 X-13.6479 Y0.7813
G1 X-13.682 Y0.8094
G1 X-13.7222 Y0.8277
G1 X-13.7657 Y0.835
G1 X-13.8097 Y0.8308
G1 X-13.8511 Y0.8154
G1 X-13.887 Y0.7897
G1 X-13.9152 Y0.7556
G1 X-13.9335 Y0.7155
G1 X-13.9408 Y0.6719
G1 X-13.9366 Y0.6279
G1 X-13.9208 Y0.5857
G1 X-13.8955 Y0.5491
G1 X-13.8625 Y0.523
G1 Z-0.85 F30
G1 X-13.8212 Y0.5041 F20
G1 X-13.7777 Y0.4968
G1 X-13.7337 Y0.5011
G1 X-13.6923 Y0.5165
G1 X-13.6564 Y0.5421
G1 X-13.6282 Y0.5762
G1 X-13.6099 Y0.6164
G1 X-13.6026 Y0.66
G1 X-13.6068 Y0.7039
G1 X-13.6223 Y0.7453
G1 X-13.6479 Y0.7813
G1 X-13.682 Y0.8094
G1 X-13.7222 Y0.8277
G1 X-13.7657 Y0.835
G1 X-13.8097 Y0.8308
G1 X-13.8511 Y0.8154
G1 X-13.887 Y0.7897
G1 X-13.9152 Y0.7556
G1 X-13.9335 Y0.7155
G1 X-13.9408 Y0.6719
G1 X-13.9366 Y0.6279
G1 X-13.9208 Y0.5857
G1 X-13.8955 Y0.5491
G1 X-13.8625 Y0.523
G0 Z0.25
G0 X-8.3345 Y0.6233
G1 Z-0.1 F30
G1 X-8.3322 Y0.5792 F20
G1 X-8.3186 Y0.5372
G1 X-8.2945 Y0.5002
G1 X-8.2617 Y0.4706
G1 X-8.2224 Y0.4505
G1 X-8.1792 Y0.4413
G1 X-8.1351 Y0.4436
G1 X-8.0931 Y0.4572
G1 X-8.056 Y0.4812
G1 X-8.0264 Y0.514
G1 X-8.0063 Y0.5533
G1 X-7.9971 Y0.5965
G1 X-7.9994 Y0.6407
G1 X-8.013 Y0.6827
G1 X-8.037 Y0.7197
G1 X-8.0699 Y0.7493
G1 X-8.1092 Y0.7694
G1 X-8.1524 Y0.7786
G1 X-8.1965 Y0.7763
G1 X-8.2385 Y0.7627
G1 X-8.2756 Y0.7387
G1 X-8.3052 Y0.7059
G1 X-8.3252 Y0.6665
G1 X-8.3345 Y0.6233
G1 Z-0.2 F30
G1 X-8.3322 Y0.5792 F20
G1 X-8.3186 Y0.5372
G1 X-8.2945 Y0.5002
G1 X-8.2617 Y0.4706
G1 X-8.2224 Y0.4505
G1 X-8.1792 Y0.4413
G1 X-8.1351 Y0.4436
G1 X-8.0931 Y0.4572
G1 X-8.056 Y0.4812
G1 X-8.0264 Y0.514
G1 X-8.0063 Y0.5533
G1 X-7.9971 Y0.5965
G1 X-7.9994 Y0.6407
G1 X-8.013 Y0.6827
G1 X-8.037 Y0.7197
G1 X-8.0699 Y0.7493
G1 X-8.1092 Y0.7694
G1 X-8.1524 Y0.7786
G1 X-8.1965 Y0.7763
G1 X-8.2385 Y0.7627
G1 X-8.2756 Y0.7387
G1 X-8.3052 Y0.7059
G1 X-8.3252 Y0.6665
G1 X-8.3345 Y0.6233
G1 Z-0.3 F30
G1 X-8.3322 Y0.5792 F20
G1 X-8.3186 Y0.5372
G1 X-8.2945 Y0.5002
G1 X-8.2617 Y0.4706
G1 X-8.2224 Y0.4505
G1 X-8.1792 Y0.4413
G1 X-8.1351 Y0.4436
G1 X-8.0931 Y0.4572
G1 X-8.056 Y0.4812
G1 X-8.0264 Y0.514
G1 X-8.0063 Y0.5533
G1 X-7.9971 Y0.5965
G1 X-7.9994 Y0.6407
G1 X-8.013 Y0.6827
G1 X-8.037 Y0.7197
G1 X-8.0699 Y0.7493
G1 X-8.1092 Y0.7694
G1 X-8.1524 Y0.7786
G1 X-8.1965 Y0.7763
G1 X-8.2385 Y0.7627
G1 X-8.2756 Y0.7387
G1 X-8.3052 Y0.7059
G1 X-8.3252 Y0.6665
G1 X-8.3345 Y0.6233
G1 Z-0.4 F30
G1 X-8.3322 Y0.5792 F20
G1 X-8.3186 Y0.5372
G1 X-8.2945 Y0.5002
G1 X-8.2617 Y0.4706
G1 X-8.2224 Y0.4505
G1 X-8.1792 Y0.4413
G1 X-8.1351 Y0.4436
G1 X-8.0931 Y0.4572
G1 X-8.056 Y0.4812
G1 X-8.0264 Y0.514
G1 X-8.0063 Y0.5533
G1 X-7.9971 Y0.5965
G1 X-7.9994 Y0.6407
G1 X-8.013 Y0.6827
G1 X-8.037 Y0.7197
G1 X-8.0699 Y0.7493
G1 X-8.1092 Y0.7694
G1 X-8.1524 Y0.7786
G1 X-8.1965 Y0.7763
G1 X-8.2385 Y0.7627
G1 X-8.2756 Y0.7387
G1 X-8.3052 Y0.7059
G1 X-8.3252 Y0.6665
G1 X-8.3345 Y0.6233
G1 Z-0.5 F30
G1 X-8.3322 Y0.5792 F20
G1 X-8.3186 Y0.5372
G1 X-8.2945 Y0.5002
G1 X-8.2617 Y0.4706
G1 X-8.2224 Y0.4505
G1 X-8.1792 Y0.4413
G1 X-8.1351 Y0.4436
G1 X-8.0931 Y0.4572
G1 X-8.056 Y0.4812
G1 X-8.0264 Y0.514
G1 X-8.0063 Y0.5533
G1 X-7.9971 Y0.5965
G1 X-7.9994 Y0.6407
G1 X-8.013 Y0.6827
G1 X-8.037 Y0.7197
G1 X-8.0699 Y0.7493
G1 X-8.1092 Y0.7694
G1 X-8.1524 Y0.7786
G1 X-8.1965 Y0.7763
G1 X-8.2385 Y0.7627
G1 X-8.2756 Y0.7387
G1 X-8.3052 Y0.7059
G1 X-8.3252 Y0.6665
G1 X-8.3345 Y0.6233
G1 Z-0.6 F30
G1 X-8.3322 Y0.5792 F20
G1 X-8.3186 Y0.5372
G1 X-8.2945 Y0.5002
G1 X-8.2617 Y0.4706
G1 X-8.2224 Y0.4505
G1 X-8.1792 Y0.4413
G1 X-8.1351 Y0.4436
G1 X-8.0931 Y0.4572
G1 X-8.056 Y0.4812
G1 X-8.0264 Y0.514
G1 X-8.0063 Y0.5533
G1 X-7.9971 Y0.5965
G1 X-7.9994 Y0.6407
G1 X-8.013 Y0.6827
G1 X-8.037 Y0.7197
G1 X-8.0699 Y0.7493
G1 X-8.1092 Y0.7694
G1 X-8.1524 Y0.7786
G1 X-8.1965 Y0.7763
G1 X-8.2385 Y0.7627
G1 X-8.2756 Y0.7387
G1 X-8.3052 Y0.7059
G1 X-8.3252 Y0.6665
G1 X-8.3345 Y0.6233
G1 Z-0.7 F30
G1 X-8.3322 Y0.5792 F20
G1 X-8.3186 Y0.5372
G1 X-8.2945 Y0.5002
G1 X-8.2617 Y0.4706
G1 X-8.2224 Y0.4505
G1 X-8.1792 Y0.4413
G1 X-8.1351 Y0.4436
G1 X-8.0931 Y0.4572
G1 X-8.056 Y0.4812
G1 X-8.0264 Y0.514
G1 X-8.0063 Y0.5533
G1 X-7.9971 Y0.5965
G1 X-7.9994 Y0.6407
G1 X-8.013 Y0.6827
G1 X-8.037 Y0.7197
G1 X-8.0699 Y0.7493
G1 X-8.1092 Y0.7694
G1 X-8.1524 Y0.7786
G1 X-8.1965 Y0.7763
G1 X-8.2385 Y0.7627
G1 X-8.2756 Y0.7387
G1 X-8.3052 Y0.7059
G1 X-8.3252 Y0.6665
G1 X-8.3345 Y0.6233
G1 Z-0.8 F30
G1 X-8.3322 Y0.5792 F20
G1 X-8.3186 Y0.5372
G1 X-8.2945 Y0.5002
G1 X-8.2617 Y0.4706
G1 X-8.2224 Y0.4505
G1 X-8.1792 Y0.4413
G1 X-8.1351 Y0.4436
G1 X-8.0931 Y0.4572
G1 X-8.056 Y0.4812
G1 X-8.0264 Y0.514
G1 X-8.0063 Y0.5533
G1 X-7.9971 Y0.5965
G1 X-7.9994 Y0.6407
G1 X-8.013 Y0.6827
G1 X-8.037 Y0.7197
G1 X-8.0699 Y0.7493
G1 X-8.1092 Y0.7694
G1 X-8.1524 Y0.7786
G1 X-8.1965 Y0.7763
G1 X-8.2385 Y0.7627
G1 X-8.2756 Y0.7387
G1 X-8.3052 Y0.7059
G1 X-8.3252 Y0.6665
G1 X-8.3345 Y0.6233
G1 Z-0.85 F30
G1 X-8.3322 Y0.5792 F20
G1 X-8.3186 Y0.5372
G1 X-8.2945 Y0.5002
G1 X-8.2617 Y0.4706
G1 X-8.2224 Y0.4505
G1 X-8.1792 Y0.4413
G1 X-8.1351 Y0.4436
G1 X-8.0931 Y0.4572
G1 X-8.056 Y0.4812
G1 X-8.0264 Y0.514
G1 X-8.0063 Y0.5533
G1 X-7.9971 Y0.5965
G1 X-7.9994 Y0.6407
G1 X-8.013 Y0.6827
G1 X-8.037 Y0.7197
G1 X-8.0699 Y0.7493
G1 X-8.1092 Y0.7694
G1 X-8.1524 Y0.7786
G1 X-8.1965 Y0.7763
G1 X-8.2385 Y0.7627
G1 X-8.2756 Y0.7387
G1 X-8.3052 Y0.7059
G1 X-8.3252 Y0.6665
G1 X-8.3345 Y0.6233
G0 Z0.25
G0 X-0.8795 Y0.8307
G1 Z-0.1 F30
G1 X-0.8887 Y0.7875 F20
G1 X-0.8864 Y0.7434
G1 X-0.8728 Y0.7014
G1 X-0.8488 Y0.6643
G1 X-0.816 Y0.6348
G1 X-0.7766 Y0.6147
G1 X-0.7334 Y0.6055
G1 X-0.6893 Y0.6077
G1 X-0.6473 Y0.6214
G1 X-0.6103 Y0.6454
G1 X-0.5807 Y0.6782
G1 X-0.5606 Y0.7175
G1 X-0.5514 Y0.7607
G1 X-0.5537 Y0.8048
G1 X-0.5673 Y0.8469
G1 X-0.5913 Y0.8839
G1 X-0.6241 Y0.9135
G1 X-0.6634 Y0.9336
G1 X-0.7066 Y0.9428
G1 X-0.7508 Y0.9405
G1 X-0.7928 Y0.9269
G1 X-0.8298 Y0.9029
G1 X-0.8594 Y0.8701
G1 X-0.8795 Y0.8307
G1 Z-0.2 F30
G1 X-0.8887 Y0.7875 F20
G1 X-0.8864 Y0.7434
G1 X-0.8728 Y0.7014
G1 X-0.8488 Y0.6643
G1 X-0.816 Y0.6348
G1 X-0.7766 Y0.6147
G1 X-0.7334 Y0.6055
G1 X-0.6893 Y0.6077
G1 X-0.6473 Y0.6214
G1 X-0.6103 Y0.6454
G1 X-0.5807 Y0.6782
G1 X-0.5606 Y0.7175
G1 X-0.5514 Y0.7607
G1 X-0.5537 Y0.8048
G1 X-0.5673 Y0.8469
G1 X-0.5913 Y0.8839
G1 X-0.6241 Y0.9135
G1 X-0.6634 Y0.9336
G1 X-0.7066 Y0.9428
G1 X-0.7508 Y0.9405
G1 X-0.7928 Y0.9269
G1 X-0.8298 Y0.9029
G1 X-0.8594 Y0.8701
G1 X-0.8795 Y0.8307
G1 Z-0.3 F30
G1 X-0.8887 Y0.7875 F20
G1 X-0.8864 Y0.7434
G1 X-0.8728 Y0.7014
G1 X-0.8488 Y0.6643
G1 X-0.816 Y0.6348
G1 X-0.7766 Y0.6147
G1 X-0.7334 Y0.6055
G1 X-0.6893 Y0.6077
G1 X-0.6473 Y0.6214
G1 X-0.6103 Y0.6454
G1 X-0.5807 Y0.6782
G1 X-0.5606 Y0.7175
G1 X-0.5514 Y0.7607
G1 X-0.5537 Y0.8048
G1 X-0.5673 Y0.8469
G1 X-0.5913 Y0.8839
G1 X-0.6241 Y0.9135
G1 X-0.6634 Y0.9336
G1 X-0.7066 Y0.9428
G1 X-0.7508 Y0.9405
G1 X-0.7928 Y0.9269
G1 X-0.8298 Y0.9029
G1 X-0.8594 Y0.8701
G1 X-0.8795 Y0.8307
G1 Z-0.4 F30
G1 X-0.8887 Y0.7875 F20
G1 X-0.8864 Y0.7434
G1 X-0.8728 Y0.7014
G1 X-0.8488 Y0.6643
G1 X-0.816 Y0.6348
G1 X-0.7766 Y0.6147
G1 X-0.7334 Y0.6055
G1 X-0.6893 Y0.6077
G1 X-0.6473 Y0.6214
G1 X-0.6103 Y0.6454
G1 X-0.5807 Y0.6782
G1 X-0.5606 Y0.7175
G1 X-0.5514 Y0.7607
G1 X-0.5537 Y0.8048
G1 X-0.5673 Y0.8469
G1 X-0.5913 Y0.8839
G1 X-0.6241 Y0.9135
G1 X-0.6634 Y0.9336
G1 X-0.7066 Y0.9428
G1 X-0.7508 Y0.9405
G1 X-0.7928 Y0.9269
G1 X-0.8298 Y0.9029
G1 X-0.8594 Y0.8701
G1 X-0.8795 Y0.8307
G1 Z-0.5 F30
G1 X-0.8887 Y0.7875 F20
G1 X-0.8864 Y0.7434
G1 X-0.8728 Y0.7014
G1 X-0.8488 Y0.6643
G1 X-0.816 Y0.6348
G1 X-0.7766 Y0.6147
G1 X-0.7334 Y0.6055
G1 X-0.6893 Y0.6077
G1 X-0.6473 Y0.6214
G1 X-0.6103 Y0.6454
G1 X-0.5807 Y0.6782
G1 X-0.5606 Y0.7175
G1 X-0.5514 Y0.7607
G1 X-0.5537 Y0.8048
G1 X-0.5673 Y0.8469
G1 X-0.5913 Y0.8839
G1 X-0.6241 Y0.9135
G1 X-0.6634 Y0.9336
G1 X-0.7066 Y0.9428
G1 X-0.7508 Y0.9405
G1 X-0.7928 Y0.9269
G1 X-0.8298 Y0.9029
G1 X-0.8594 Y0.8701
G1 X-0.8795 Y0.8307
G1 Z-0.6 F30
G1 X-0.8887 Y0.7875 F20
G1 X-0.8864 Y0.7434
G1 X-0.8728 Y0.7014
G1 X-0.8488 Y0.6643
G1 X-0.816 Y0.6348
G1 X-0.7766 Y0.6147
G1 X-0.7334 Y0.6055
G1 X-0.6893 Y0.6077
G1 X-0.6473 Y0.6214
G1 X-0.6103 Y0.6454
G1 X-0.5807 Y0.6782
G1 X-0.5606 Y0.7175
G1 X-0.5514 Y0.7607
G1 X-0.5537 Y0.8048
G1 X-0.5673 Y0.8469
G1 X-0.5913 Y0.8839
G1 X-0.6241 Y0.9135
G1 X-0.6634 Y0.9336
G1 X-0.7066 Y0.9428
G1 X-0.7508 Y0.9405
G1 X-0.7928 Y0.9269
G1 X-0.8298 Y0.9029
G1 X-0.8594 Y0.8701
G1 X-0.8795 Y0.8307
G1 Z-0.7 F30
G1 X-0.8887 Y0.7875 F20
G1 X-0.8864 Y0.7434
G1 X-0.8728 Y0.7014
G1 X-0.8488 Y0.6643
G1 X-0.816 Y0.6348
G1 X-0.7766 Y0.6147
G1 X-0.7334 Y0.6055
G1 X-0.6893 Y0.6077
G1 X-0.6473 Y0.6214
G1 X-0.6103 Y0.6454
G1 X-0.5807 Y0.6782
G1 X-0.5606 Y0.7175
G1 X-0.5514 Y0.7607
G1 X-0.5537 Y0.8048
G1 X-0.5673 Y0.8469
G1 X-0.5913 Y0.8839
G1 X-0.6241 Y0.9135
G1 X-0.6634 Y0.9336
G1 X-0.7066 Y0.9428
G1 X-0.7508 Y0.9405
G1 X-0.7928 Y0.9269
G1 X-0.8298 Y0.9029
G1 X-0.8594 Y0.8701
G1 X-0.8795 Y0.8307
G1 Z-0.8 F30
G1 X-0.8887 Y0.7875 F20
G1 X-0.8864 Y0.7434
G1 X-0.8728 Y0.7014
G1 X-0.8488 Y0.6643
G1 X-0.816 Y0.6348
G1 X-0.7766 Y0.6147
G1 X-0.7334 Y0.6055
G1 X-0.6893 Y0.6077
G1 X-0.6473 Y0.6214
G1 X-0.6103 Y0.6454
G1 X-0.5807 Y0.6782
G1 X-0.5606 Y0.7175
G1 X-0.5514 Y0.7607
G1 X-0.5537 Y0.8048
G1 X-0.5673 Y0.8469
G1 X-0.5913 Y0.8839
G1 X-0.6241 Y0.9135
G1 X-0.6634 Y0.9336
G1 X-0.7066 Y0.9428
G1 X-0.7508 Y0.9405
G1 X-0.7928 Y0.9269
G1 X-0.8298 Y0.9029
G1 X-0.8594 Y0.8701
G1 X-0.8795 Y0.8307
G1 Z-0.85 F30
G1 X-0.8887 Y0.7875 F20
G1 X-0.8864 Y0.7434
G1 X-0.8728 Y0.7014
G1 X-0.8488 Y0.6643
G1 X-0.816 Y0.6348
G1 X-0.7766 Y0.6147
G1 X-0.7334 Y0.6055
G1 X-0.6893 Y0.6077
G1 X-0.6473 Y0.6214
G1 X-0.6103 Y0.6454
G1 X-0.5807 Y0.6782
G1 X-0.5606 Y0.7175
G1 X-0.5514 Y0.7607
G1 X-0.5537 Y0.8048
G1 X-0.5673 Y0.8469
G1 X-0.5913 Y0.8839
G1 X-0.6241 Y0.9135
G1 X-0.6634 Y0.9336
G1 X-0.7066 Y0.9428
G1 X-0.7508 Y0.9405
G1 X-0.7928 Y0.9269
G1 X-0.8298 Y0.9029
G1 X-0.8594 Y0.8701
G1 X-0.8795 Y0.8307

(profile 2)
G0 Z0.25
G0 X-14.3958 Y-0.0449
G1 Z-0.1 F30
G1 X-8.2265 Y-0.0449 F20
G3 X-8.2225 Y-0.0448 I0 J0.125
G1 X-8.074 Y-0.0401
G3 X-8.0396 Y-0.0342 I-0.004 J0.1249
G1 X-7.8981 Y0.0114
G3 X-7.8667 Y0.0266 I-0.0383 J0.119
G1 X-7.7433 Y0.1095
G3 X-7.7174 Y0.1328 I-0.0697 J0.1038
G1 X-7.6216 Y0.2465
G3 X-7.6031 Y0.276 I-0.0956 J0.0805
G1 X-7.5425 Y0.4118
G3 X-7.5329 Y0.4453 I-0.1141 J0.0509
G1 X-7.5122 Y0.5925
G3 X-7.5109 Y0.6099 I-0.1238 J0.0174
G3 X-7.5122 Y0.6274 I-0.125 J0
G1 X-7.5329 Y0.7746
G3 X-7.5425 Y0.8081 I-0.1238 J-0.0174
G1 X-7.6031 Y0.9438
G3 X-7.6216 Y0.9734 I-0.1141 J-0.0509
G1 X-7.7174 Y1.0871
G3 X-7.7433 Y1.1104 I-0.0956 J-0.0805
G1 X-7.8667 Y1.1933
G3 X-7.8981 Y1.2085 I-0.0697 J-0.1038
G1 X-8.0396 Y1.2541
G3 X-8.074 Y1.26 I-0.0383 J-0.119
G1 X-8.2225 Y1.2647
G3 X-8.2265 Y1.2648 I-0.004 J-0.1249
G1 X-8.7314 Y1.2648
G1 X-8.7524 Y1.2671
G1 X-8.772 Y1.2718
G1 X-8.791 Y1.2788
G1 X-8.8089 Y1.2881
G1 X-8.8256 Y1.2995
G1 X-8.8408 Y1.3129
G1 X-8.8542 Y1.3281
G1 X-8.8656 Y1.3447
G1 X-8.8749 Y1.3627
G1 X-8.8819 Y1.3816
G1 X-8.8866 Y1.4013
G1 X-8.8889 Y1.4222
G1 X-8.8889 Y4.805
G3 X-9.0139 Y4.93 I-0.125 J0
G1 X-14.3958 Y4.93
G3 X-14.5208 Y4.805 I0 J-0.125
G1 X-14.5208 Y0.0801
G3 X-14.3958 Y-0.0449 I0.125 J0
G1 Z-0.2 F30
G1 X-8.2265 Y-0.0449 F20
G3 X-8.2225 Y-0.0448 I0 J0.125
G1 X-8.074 Y-0.0401
G3 X-8.0396 Y-0.0342 I-0.004 J0.1249
G1 X-7.8981 Y0.0114
G3 X-7.8667 Y0.0266 I-0.0383 J0.119
G1 X-7.7433 Y0.1095
G3 X-7.7174 Y0.1328 I-0.0697 J0.1038
G1 X-7.6216 Y0.2465
G3 X-7.6031 Y0.276 I-0.0956 J0.0805
G1 X-7.5425 Y0.4118
G3 X-7.5329 Y0.4453 I-0.1141 J0.0509
G1 X-7.5122 Y0.5925
G3 X-7.5109 Y0.6099 I-0.1238 J0.0174
G3 X-7.5122 Y0.6274 I-0.125 J0
G1 X-7.5329 Y0.7746
G3 X-7.5425 Y0.8081 I-0.1238 J-0.0174
G1 X-7.6031 Y0.9438
G3 X-7.6216 Y0.9734 I-0.1141 J-0.0509
G1 X-7.7174 Y1.0871
G3 X-7.7433 Y1.1104 I-0.0956 J-0.0805
G1 X-7.8667 Y1.1933
G3 X-7.8981 Y1.2085 I-0.0697 J-0.1038
G1 X-8.0396 Y1.2541
G3 X-8.074 Y1.26 I-0.0383 J-0.119
G1 X-8.2225 Y1.2647
G3 X-8.2265 Y1.2648 I-0.004 J-0.1249
G1 X-8.7314 Y1.2648
G1 X-8.7524 Y1.2671
G1 X-8.772 Y1.2718
G1 X-8.791 Y1.2788
G1 X-8.8089 Y1.2881
G1 X-8.8256 Y1.2995
G1 X-8.8408 Y1.3129
G1 X-8.8542 Y1.3281
G1 X-8.8656 Y1.3447
G1 X-8.8749 Y1.3627
G1 X-8.8819 Y1.3816
G1 X-8.8866 Y1.4013
G1 X-8.8889 Y1.4222
G1 X-8.8889 Y4.805
G3 X-9.0139 Y4.93 I-0.125 J0
G1 X-14.3958 Y4.93
G3 X-14.5208 Y4.805 I0 J-0.125
G1 X-14.5208 Y0.0801
G3 X-14.3958 Y-0.0449 I0.125 J0
G1 Z-0.3 F30
G1 X-8.2265 Y-0.0449 F20
G3 X-8.2225 Y-0.0448 I0 J0.125
G1 X-8.074 Y-0.0401
G3 X-8.0396 Y-0.0342 I-0.004 J0.1249
G1 X-7.8981 Y0.0114
G3 X-7.8667 Y0.0266 I-0.0383 J0.119
G1 X-7.7433 Y0.1095
G3 X-7.7174 Y0.1328 I-0.0697 J0.1038
G1 X-7.6216 Y0.2465
G3 X-7.6031 Y0.276 I-0.0956 J0.0805
G1 X-7.5425 Y0.4118
G3 X-7.5329 Y0.4453 I-0.1141 J0.0509
G1 X-7.5122 Y0.5925
G3 X-7.5109 Y0.6099 I-0.1238 J0.0174
G3 X-7.5122 Y0.6274 I-0.125 J0
G1 X-7.5329 Y0.7746
G3 X-7.5425 Y0.8081 I-0.1238 J-0.0174
G1 X-7.6031 Y0.9438
G3 X-7.6216 Y0.9734 I-0.1141 J-0.0509
G1 X-7.7174 Y1.0871
G3 X-7.7433 Y1.1104 I-0.0956 J-0.0805
G1 X-7.8667 Y1.1933
G3 X-7.8981 Y1.2085 I-0.0697 J-0.1038
G1 X-8.0396 Y1.2541
G3 X-8.074 Y1.26 I-0.0383 J-0.119
G1 X-8.2225 Y1.2647
G3 X-8.2265 Y1.2648 I-0.004 J-0.1249
G1 X-8.7314 Y1.2648
G1 X-8.7524 Y1.2671
G1 X-8.772 Y1.2718
G1 X-8.791 Y1.2788
G1 X-8.8089 Y1.2881
G1 X-8.8256 Y1.2995
G1 X-8.8408 Y1.3129
G1 X-8.8542 Y1.3281
G1 X-8.8656 Y1.3447
G1 X-8.8749 Y1.3627
G1 X-8.8819 Y1.3816
G1 X-8.8866 Y1.4013
G1 X-8.8889 Y1.4222
G1 X-8.8889 Y4.805
G3 X-9.0139 Y4.93 I-0.125 J0
G1 X-14.3958 Y4.93
G3 X-14.5208 Y4.805 I0 J-0.125
G1 X-14.5208 Y0.0801
G3 X-14.3958 Y-0.0449 I0.125 J0
G1 Z-0.4 F30
G1 X-8.2265 Y-0.0449 F20
G3 X-8.2225 Y-0.0448 I0 J0.125
G1 X-8.074 Y-0.0401
G3 X-8.0396 Y-0.0342 I-0.004 J0.1249
G1 X-7.8981 Y0.0114
G3 X-7.8667 Y0.0266 I-0.0383 J0.119
G1 X-7.7433 Y0.1095
G3 X-7.7174 Y0.1328 I-0.0697 J0.1038
G1 X-7.6216 Y0.2465
G3 X-7.6031 Y0.276 I-0.0956 J0.0805
G1 X-7.5425 Y0.4118
G3 X-7.5329 Y0.4453 I-0.1141 J0.0509
G1 X-7.5122 Y0.5925
G3 X-7.5109 Y0.6099 I-0.1238 J0.0174
G3 X-7.5122 Y0.6274 I-0.125 J0
G1 X-7.5329 Y0.7746
G3 X-7.5425 Y0.8081 I-0.1238 J-0.0174
G1 X-7.6031 Y0.9438
G3 X-7.6216 Y0.9734 I-0.1141 J-0.0509
G1 X-7.7174 Y1.0871
G3 X-7.7433 Y1.1104 I-0.0956 J-0.0805
G1 X-7.8667 Y1.1933
G3 X-7.8981 Y1.2085 I-0.0697 J-0.1038
G1 X-8.0396 Y1.2541
G3 X-8.074 Y1.26 I-0.0383 J-0.119
G1 X-8.2225 Y1.2647
G3 X-8.2265 Y1.2648 I-0.004 J-0.1249
G1 X-8.7314 Y1.2648
G1 X-8.7524 Y1.2671
G1 X-8.772 Y1.2718
G1 X-8.791 Y1.2788
G1 X-8.8089 Y1.2881
G1 X-8.8256 Y1.2995
G1 X-8.8408 Y1.3129
G1 X-8.8542 Y1.3281
G1 X-8.8656 Y1.3447
G1 X-8.8749 Y1.3627
G1 X-8.8819 Y1.3816
G1 X-8.8866 Y1.4013
G1 X-8.8889 Y1.4222
G1 X-8.8889 Y4.805
G3 X-9.0139 Y4.93 I-0.125 J0
G1 X-14.3958 Y4.93
G3 X-14.5208 Y4.805 I0 J-0.125
G1 X-14.5208 Y0.0801
G3 X-14.3958 Y-0.0449 I0.125 J0
G1 Z-0.5 F30
G1 X-8.2265 Y-0.0449 F20
G3 X-8.2225 Y-0.0448 I0 J0.125
G1 X-8.074 Y-0.0401
G3 X-8.0396 Y-0.0342 I-0.004 J0.1249
G1 X-7.8981 Y0.0114
G3 X-7.8667 Y0.0266 I-0.0383 J0.119
G1 X-7.7433 Y0.1095
G3 X-7.7174 Y0.1328 I-0.0697 J0.1038
G1 X-7.6216 Y0.2465
G3 X-7.6031 Y0.276 I-0.0956 J0.0805
G1 X-7.5425 Y0.4118
G3 X-7.5329 Y0.4453 I-0.1141 J0.0509
G1 X-7.5122 Y0.5925
G3 X-7.5109 Y0.6099 I-0.1238 J0.0174
G3 X-7.5122 Y0.6274 I-0.125 J0
G1 X-7.5329 Y0.7746
G3 X-7.5425 Y0.8081 I-0.1238 J-0.0174
G1 X-7.6031 Y0.9438
G3 X-7.6216 Y0.9734 I-0.1141 J-0.0509
G1 X-7.7174 Y1.0871
G3 X-7.7433 Y1.1104 I-0.0956 J-0.0805
G1 X-7.8667 Y1.1933
G3 X-7.8981 Y1.2085 I-0.0697 J-0.1038
G1 X-8.0396 Y1.2541
G3 X-8.074 Y1.26 I-0.0383 J-0.119
G1 X-8.2225 Y1.2647
G3 X-8.2265 Y1.2648 I-0.004 J-0.1249
G1 X-8.7314 Y1.2648
G1 X-8.7524 Y1.2671
G1 X-8.772 Y1.2718
G1 X-8.791 Y1.2788
G1 X-8.8089 Y1.2881
G1 X-8.8256 Y1.2995
G1 X-8.8408 Y1.3129
G1 X-8.8542 Y1.3281
G1 X-8.8656 Y1.3447
G1 X-8.8749 Y1.3627
G1 X-8.8819 Y1.3816
G1 X-8.8866 Y1.4013
G1 X-8.8889 Y1.4222
G1 X-8.8889 Y4.805
G3 X-9.0139 Y4.93 I-0.125 J0
G1 X-14.3958 Y4.93
G3 X-14.5208 Y4.805 I0 J-0.125
G1 X-14.5208 Y0.0801
G3 X-14.3958 Y-0.0449 I0.125 J0
G1 Z-0.6 F30
G1 X-8.2265 Y-0.0449 F20
G3 X-8.2225 Y-0.0448 I0 J0.125
G1 X-8.074 Y-0.0401
G3 X-8.0396 Y-0.0342 I-0.004 J0.1249
G1 X-7.8981 Y0.0114
G3 X-7.8667 Y0.0266 I-0.0383 J0.119
G1 X-7.7433 Y0.1095
G3 X-7.7174 Y0.1328 I-0.0697 J0.1038
G1 X-7.6216 Y0.2465
G3 X-7.6031 Y0.276 I-0.0956 J0.0805
G1 X-7.5425 Y0.4118
G3 X-7.5329 Y0.4453 I-0.1141 J0.0509
G1 X-7.5122 Y0.5925
G3 X-7.5109 Y0.6099 I-0.1238 J0.0174
G3 X-7.5122 Y0.6274 I-0.125 J0
G1 X-7.5329 Y0.7746
G3 X-7.5425 Y0.8081 I-0.1238 J-0.0174
G1 X-7.6031 Y0.9438
G3 X-7.6216 Y0.9734 I-0.1141 J-0.0509
G1 X-7.7174 Y1.0871
G3 X-7.7433 Y1.1104 I-0.0956 J-0.0805
G1 X-7.8667 Y1.1933
G3 X-7.8981 Y1.2085 I-0.0697 J-0.1038
G1 X-8.0396 Y1.2541
G3 X-8.074 Y1.26 I-0.0383 J-0.119
G1 X-8.2225 Y1.2647
G3 X-8.2265 Y1.2648 I-0.004 J-0.1249
G1 X-8.7314 Y1.2648
G1 X-8.7524 Y1.2671
G1 X-8.772 Y1.2718
G1 X-8.791 Y1.2788
G1 X-8.8089 Y1.2881
G1 X-8.8256 Y1.2995
G1 X-8.8408 Y1.3129
G1 X-8.8542 Y1.3281
G1 X-8.8656 Y1.3447
G1 X-8.8749 Y1.3627
G1 X-8.8819 Y1.3816
G1 X-8.8866 Y1.4013
G1 X-8.8889 Y1.4222
G1 X-8.8889 Y4.805
G3 X-9.0139 Y4.93 I-0.125 J0
G1 X-14.3958 Y4.93
G3 X-14.5208 Y4.805 I0 J-0.125
G1 X-14.5208 Y0.0801
G3 X-14.3958 Y-0.0449 I0.125 J0
G1 Z-0.7 F30
G1 X-8.2265 Y-0.0449 F20
G3 X-8.2225 Y-0.0448 I0 J0.125
G1 X-8.074 Y-0.0401
G3 X-8.0396 Y-0.0342 I-0.004 J0.1249
G1 X-7.8981 Y0.0114
G3 X-7.8667 Y0.0266 I-0.0383 J0.119
G1 X-7.7433 Y0.1095
G3 X-7.7174 Y0.1328 I-0.0697 J0.1038
G1 X-7.6216 Y0.2465
G3 X-7.6031 Y0.276 I-0.0956 J0.0805
G1 X-7.5425 Y0.4118
G3 X-7.5329 Y0.4453 I-0.1141 J0.0509
G1 X-7.5122 Y0.5925
G3 X-7.5109 Y0.6099 I-0.1238 J0.0174
G3 X-7.5122 Y0.6274 I-0.125 J0
G1 X-7.5329 Y0.7746
G3 X-7.5425 Y0.8081 I-0.1238 J-0.0174
G1 X-7.6031 Y0.9438
G3 X-7.6216 Y0.9734 I-0.1141 J-0.0509
G1 X-7.7174 Y1.0871
G3 X-7.7433 Y1.1104 I-0.0956 J-0.0805
G1 X-7.8667 Y1.1933
G3 X-7.8981 Y1.2085 I-0.0697 J-0.1038
G1 X-8.0396 Y1.2541
G3 X-8.074 Y1.26 I-0.0383 J-0.119
G1 X-8.2225 Y1.2647
G3 X-8.2265 Y1.2648 I-0.004 J-0.1249
G1 X-8.7314 Y1.2648
G1 X-8.7524 Y1.2671
G1 X-8.772 Y1.2718
G1 X-8.791 Y1.2788
G1 X-8.8089 Y1.2881
G1 X-8.8256 Y1.2995
G1 X-8.8408 Y1.3129
G1 X-8.8542 Y1.3281
G1 X-8.8656 Y1.3447
G1 X-8.8749 Y1.3627
G1 X-8.8819 Y1.3816
G1 X-8.8866 Y1.4013
G1 X-8.8889 Y1.4222
G1 X-8.8889 Y4.805
G3 X-9.0139 Y4.93 I-0.125 J0
G1 X-14.3958 Y4.93
G3 X-14.5208 Y4.805 I0 J-0.125
G1 X-14.5208 Y0.0801
G3 X-14.3958 Y-0.0449 I0.125 J0
G1 Z-0.8 F30
G1 X-8.2265 Y-0.0449 F20
G3 X-8.2225 Y-0.0448 I0 J0.125
G1 X-8.074 Y-0.0401
G3 X-8.0396 Y-0.0342 I-0.004 J0.1249
G1 X-7.8981 Y0.0114
G3 X-7.8667 Y0.0266 I-0.0383 J0.119
G1 X-7.7433 Y0.1095
G3 X-7.7174 Y0.1328 I-0.0697 J0.1038
G1 X-7.6216 Y0.2465
G3 X-7.6031 Y0.276 I-0.0956 J0.0805
G1 X-7.5425 Y0.4118
G3 X-7.5329 Y0.4453 I-0.1141 J0.0509
G1 X-7.5122 Y0.5925
G3 X-7.5109 Y0.6099 I-0.1238 J0.0174
G3 X-7.5122 Y0.6274 I-0.125 J0
G1 X-7.5329 Y0.7746
G3 X-7.5425 Y0.8081 I-0.1238 J-0.0174
G1 X-7.6031 Y0.9438
G3 X-7.6216 Y0.9734 I-0.1141 J-0.0509
G1 X-7.7174 Y1.0871
G3 X-7.7433 Y1.1104 I-0.0956 J-0.0805
G1 X-7.8667 Y1.1933
G3 X-7.8981 Y1.2085 I-0.0697 J-0.1038
G1 X-8.0396 Y1.2541
G3 X-8.074 Y1.26 I-0.0383 J-0.119
G1 X-8.2225 Y1.2647
G3 X-8.2265 Y1.2648 I-0.004 J-0.1249
G1 X-8.7314 Y1.2648
G1 X-8.7524 Y1.2671
G1 X-8.772 Y1.2718
G1 X-8.791 Y1.2788
G1 X-8.8089 Y1.2881
G1 X-8.8256 Y1.2995
G1 X-8.8408 Y1.3129
G1 X-8.8542 Y1.3281
G1 X-8.8656 Y1.3447
G1 X-8.8749 Y1.3627
G1 X-8.8819 Y1.3816
G1 X-8.8866 Y1.4013
G1 X-8.8889 Y1.4222
G1 X-8.8889 Y4.805
G3 X-9.0139 Y4.93 I-0.125 J0
G1 X-14.3958 Y4.93
G3 X-14.5208 Y4.805 I0 J-0.125
G1 X-14.5208 Y0.0801
G3 X-14.3958 Y-0.0449 I0.125 J0
G1 Z-0.85 F30
G1 X-8.2265 Y-0.0449 F20
G3 X-8.2225 Y-0.0448 I0 J0.125
G1 X-8.074 Y-0.0401
G3 X-8.0396 Y-0.0342 I-0.004 J0.1249
G1 X-7.8981 Y0.0114
G3 X-7.8667 Y0.0266 I-0.0383 J0.119
G1 X-7.7433 Y0.1095
G3 X-7.7174 Y0.1328 I-0.0697 J0.1038
G1 X-7.6216 Y0.2465
G3 X-7.6031 Y0.276 I-0.0956 J0.0805
G1 X-7.5425 Y0.4118
G3 X-7.5329 Y0.4453 I-0.1141 J0.0509
G1 X-7.5122 Y0.5925
G3 X-7.5109 Y0.6099 I-0.1238 J0.0174
G3 X-7.5122 Y0.6274 I-0.125 J0
G1 X-7.5329 Y0.7746
G3 X-7.5425 Y0.8081 I-0.1238 J-0.0174
G1 X-7.6031 Y0.9438
G3 X-7.6216 Y0.9734 I-0.1141 J-0.0509
G1 X-7.7174 Y1.0871
G3 X-7.7433 Y1.1104 I-0.0956 J-0.0805
G1 X-7.8667 Y1.1933
G3 X-7.8981 Y1.2085 I-0.0697 J-0.1038
G1 X-8.0396 Y1.2541
G3 X-8.074 Y1.26 I-0.0383 J-0.119
G1 X-8.2225 Y1.2647
G3 X-8.2265 Y1.2648 I-0.004 J-0.1249
G1 X-8.7314 Y1.2648
G1 X-8.7524 Y1.2671
G1 X-8.772 Y1.2718
G1 X-8.791 Y1.2788
G1 X-8.8089 Y1.2881
G1 X-8.8256 Y1.2995
G1 X-8.8408 Y1.3129
G1 X-8.8542 Y1.3281
G1 X-8.8656 Y1.3447
G1 X-8.8749 Y1.3627
G1 X-8.8819 Y1.3816
G1 X-8.8866 Y1.4013
G1 X-8.8889 Y1.4222
G1 X-8.8889 Y4.805
G3 X-9.0139 Y4.93 I-0.125 J0
G1 X-14.3958 Y4.93
G3 X-14.5208 Y4.805 I0 J-0.125
G1 X-14.5208 Y0.0801
G3 X-14.3958 Y-0.0449 I0.125 J0
G0 Z0.25
G0 X-6.95 Y0.1193
G1 Z-0.1 F30
G1 X-0.7808 Y0.1193 F20
G3 X-0.7768 Y0.1194 I0 J0.125
G1 X-0.6282 Y0.1241
G3 X-0.5939 Y0.13 I-0.004 J0.1249
G1 X-0.4523 Y0.1756
G3 X-0.421 Y0.1908 I-0.0383 J0.119
G1 X-0.2976 Y0.2737
G3 X-0.2716 Y0.2969 I-0.0697 J0.1038
G1 X-0.1759 Y0.4107
G3 X-0.1574 Y0.4402 I-0.0956 J0.0805
G1 X-0.0968 Y0.576
G3 X-0.0872 Y0.6095 I-0.1141 J0.0509
G1 X-0.0664 Y0.7567
G3 X-0.0652 Y0.7741 I-0.1238 J0.0174
G3 X-0.0664 Y0.7916 I-0.125 J0
G1 X-0.0872 Y0.9388
G3 X-0.0968 Y0.9723 I-0.1238 J-0.0174
G1 X-0.1574 Y1.108
G3 X-0.1759 Y1.1376 I-0.1141 J-0.0509
G1 X-0.2716 Y1.2513
G3 X-0.2976 Y1.2746 I-0.0956 J-0.0805
G1 X-0.421 Y1.3575
G3 X-0.4523 Y1.3727 I-0.0697 J-0.1038
G1 X-0.5939 Y1.4183
G3 X-0.6282 Y1.4242 I-0.0383 J-0.119
G1 X-0.7768 Y1.4289
G3 X-0.7808 Y1.429 I-0.004 J-0.1249
G1 X-1.2857 Y1.429
G1 X-1.3066 Y1.4313
G1 X-1.3263 Y1.4359
G1 X-1.3452 Y1.443
G1 X-1.3632 Y1.4523
G1 X-1.3799 Y1.4637
G1 X-1.395 Y1.4771
G1 X-1.4084 Y1.4923
G1 X-1.4198 Y1.5089
G1 X-1.4292 Y1.5269
G1 X-1.4362 Y1.5458
G1 X-1.4408 Y1.5655
G1 X-1.4432 Y1.5864
G1 X-1.4432 Y4.9692
G3 X-1.5682 Y5.0942 I-0.125 J0
G1 X-6.95 Y5.0942
G3 X-7.075 Y4.9692 I0 J-0.125
G1 X-7.075 Y0.2443
G3 X-6.95 Y0.1193 I0.125 J0
G1 Z-0.2 F30
G1 X-0.7808 Y0.1193 F20
G3 X-0.7768 Y0.1194 I0 J0.125
G1 X-0.6282 Y0.1241
G3 X-0.5939 Y0.13 I-0.004 J0.1249
G1 X-0.4523 Y0.1756
G3 X-0.421 Y0.1908 I-0.0383 J0.119
G1 X-0.2976 Y0.2737
G3 X-0.2716 Y0.2969 I-0.0697 J0.1038
G1 X-0.1759 Y0.4107
G3 X-0.1574 Y0.4402 I-0.0956 J0.0805
G1 X-0.0968 Y0.576
G3 X-0.0872 Y0.6095 I-0.1141 J0.0509
G1 X-0.0664 Y0.7567
G3 X-0.0652 Y0.7741 I-0.1238 J0.0174
G3 X-0.0664 Y0.7916 I-0.125 J0
G1 X-0.0872 Y0.9388
G3 X-0.0968 Y0.9723 I-0.1238 J-0.0174
G1 X-0.1574 Y1.108
G3 X-0.1759 Y1.1376 I-0.1141 J-0.0509
G1 X-0.2716 Y1.2513
G3 X-0.2976 Y1.2746 I-0.0956 J-0.0805
G1 X-0.421 Y1.3575
G3 X-0.4523 Y1.3727 I-0.0697 J-0.1038
G1 X-0.5939 Y1.4183
G3 X-0.6282 Y1.4242 I-0.0383 J-0.119
G1 X-0.7768 Y1.4289
G3 X-0.7808 Y1.429 I-0.004 J-0.1249
G1 X-1.2857 Y1.429
G1 X-1.3066 Y1.4313
G1 X-1.3263 Y1.4359
G1 X-1.3452 Y1.443
G1 X-1.3632 Y1.4523
G1 X-1.3799 Y1.4637
G1 X-1.395 Y1.4771
G1 X-1.4084 Y1.4923
G1 X-1.4198 Y1.5089
G1 X-1.4292 Y1.5269
G1 X-1.4362 Y1.5458
G1 X-1.4408 Y1.5655
G1 X-1.4432 Y1.5864
G1 X-1.4432 Y4.9692
G3 X-1.5682 Y5.0942 I-0.125 J0
G1 X-6.95 Y5.0942
G3 X-7.075 Y4.9692 I0 J-0.125
G1 X-7.075 Y0.2443
G3 X-6.95 Y0.1193 I0.125 J0
G1 Z-0.3 F30
G1 X-0.7808 Y0.1193 F20
G3 X-0.7768 Y0.1194 I0 J0.125
G1 X-0.6282 Y0.1241
G3 X-0.5939 Y0.13 I-0.004 J0.1249
G1 X-0.4523 Y0.1756
G3 X-0.421 Y0.1908 I-0.0383 J0.119
G1 X-0.2976 Y0.2737
G3 X-0.2716 Y0.2969 I-0.0697 J0.1038
G1 X-0.1759 Y0.4107
G3 X-0.1574 Y0.4402 I-0.0956 J0.0805
G1 X-0.0968 Y0.576
G3 X-0.0872 Y0.6095 I-0.1141 J0.0509
G1 X-0.0664 Y0.7567
G3 X-0.0652 Y0.7741 I-0.1238 J0.0174
G3 X-0.0664 Y0.7916 I-0.125 J0
G1 X-0.0872 Y0.9388
G3 X-0.0968 Y0.9723 I-0.1238 J-0.0174
G1 X-0.1574 Y1.108
G3 X-0.1759 Y1.1376 I-0.1141 J-0.0509
G1 X-0.2716 Y1.2513
G3 X-0.2976 Y1.2746 I-0.0956 J-0.0805
G1 X-0.421 Y1.3575
G3 X-0.4523 Y1.3727 I-0.0697 J-0.1038
G1 X-0.5939 Y1.4183
G3 X-0.6282 Y1.4242 I-0.0383 J-0.119
G1 X-0.7768 Y1.4289
G3 X-0.7808 Y1.429 I-0.004 J-0.1249
G1 X-1.2857 Y1.429
G1 X-1.3066 Y1.4313
G1 X-1.3263 Y1.4359
G1 X-1.3452 Y1.443
G1 X-1.3632 Y1.4523
G1 X-1.3799 Y1.4637
G1 X-1.395 Y1.4771
G1 X-1.4084 Y1.4923
G1 X-1.4198 Y1.5089
G1 X-1.4292 Y1.5269
G1 X-1.4362 Y1.5458
G1 X-1.4408 Y1.5655
G1 X-1.4432 Y1.5864
G1 X-1.4432 Y4.9692
G3 X-1.5682 Y5.0942 I-0.125 J0
G1 X-6.95 Y5.0942
G3 X-7.075 Y4.9692 I0 J-0.125
G1 X-7.075 Y0.2443
G3 X-6.95 Y0.1193 I0.125 J0
G1 Z-0.4 F30
G1 X-0.7808 Y0.1193 F20
G3 X-0.7768 Y0.1194 I0 J0.125
G1 X-0.6282 Y0.1241
G3 X-0.5939 Y0.13 I-0.004 J0.1249
G1 X-0.4523 Y0.1756
G3 X-0.421 Y0.1908 I-0.0383 J0.119
G1 X-0.2976 Y0.2737
G3 X-0.2716 Y0.2969 I-0.0697 J0.1038
G1 X-0.1759 Y0.4107
G3 X-0.1574 Y0.4402 I-0.0956 J0.0805
G1 X-0.0968 Y0.576
G3 X-0.0872 Y0.6095 I-0.1141 J0.0509
G1 X-0.0664 Y0.7567
G3 X-0.0652 Y0.7741 I-0.1238 J0.0174
G3 X-0.0664 Y0.7916 I-0.125 J0
G1 X-0.0872 Y0.9388
G3 X-0.0968 Y0.9723 I-0.1238 J-0.0174
G1 X-0.1574 Y1.108
G3 X-0.1759 Y1.1376 I-0.1141 J-0.0509
G1 X-0.2716 Y1.2513
G3 X-0.2976 Y1.2746 I-0.0956 J-0.0805
G1 X-0.421 Y1.3575
G3 X-0.4523 Y1.3727 I-0.0697 J-0.1038
G1 X-0.5939 Y1.4183
G3 X-0.6282 Y1.4242 I-0.0383 J-0.119
G1 X-0.7768 Y1.4289
G3 X-0.7808 Y1.429 I-0.004 J-0.1249
G1 X-1.2857 Y1.429
G1 X-1.3066 Y1.4313
G1 X-1.3263 Y1.4359
G1 X-1.3452 Y1.443
G1 X-1.3632 Y1.4523
G1 X-1.3799 Y1.4637
G1 X-1.395 Y1.4771
G1 X-1.4084 Y1.4923
G1 X-1.4198 Y1.5089
G1 X-1.4292 Y1.5269
G1 X-1.4362 Y1.5458
G1 X-1.4408 Y1.5655
G1 X-1.4432 Y1.5864
G1 X-1.4432 Y4.9692
G3 X-1.5682 Y5.0942 I-0.125 J0
G1 X-6.95 Y5.0942
G3 X-7.075 Y4.9692 I0 J-0.125
G1 X-7.075 Y0.2443
G3 X-6.95 Y0.1193 I0.125 J0
G1 Z-0.5 F30
G1 X-0.7808 Y0.1193 F20
G3 X-0.7768 Y0.1194 I0 J0.125
G1 X-0.6282 Y0.1241
G3 X-0.5939 Y0.13 I-0.004 J0.1249
G1 X-0.4523 Y0.1756
G3 X-0.421 Y0.1908 I-0.0383 J0.119
G1 X-0.2976 Y0.2737
G3 X-0.2716 Y0.2969 I-0.0697 J0.1038
G1 X-0.1759 Y0.4107
G3 X-0.1574 Y0.4402 I-0.0956 J0.0805
G1 X-0.0968 Y0.576
G3 X-0.0872 Y0.6095 I-0.1141 J0.0509
G1 X-0.0664 Y0.7567
G3 X-0.0652 Y0.7741 I-0.1238 J0.0174
G3 X-0.0664 Y0.7916 I-0.125 J0
G1 X-0.0872 Y0.9388
G3 X-0.0968 Y0.9723 I-0.1238 J-0.0174
G1 X-0.1574 Y1.108
G3 X-0.1759 Y1.1376 I-0.1141 J-0.0509
G1 X-0.2716 Y1.2513
G3 X-0.2976 Y1.2746 I-0.0956 J-0.0805
G1 X-0.421 Y1.3575
G3 X-0.4523 Y1.3727 I-0.0697 J-0.1038
G1 X-0.5939 Y1.4183
G3 X-0.6282 Y1.4242 I-0.0383 J-0.119
G1 X-0.7768 Y1.4289
G3 X-0.7808 Y1.429 I-0.004 J-0.1249
G1 X-1.2857 Y1.429
G1 X-1.3066 Y1.4313
G1 X-1.3263 Y1.4359
G1 X-1.3452 Y1.443
G1 X-1.3632 Y1.4523
G1 X-1.3799 Y1.4637
G1 X-1.395 Y1.4771
G1 X-1.4084 Y1.4923
G1 X-1.4198 Y1.5089
G1 X-1.4292 Y1.5269
G1 X-1.4362 Y1.5458
G1 X-1.4408 Y1.5655
G1 X-1.4432 Y1.5864
G1 X-1.4432 Y4.9692
G3 X-1.5682 Y5.0942 I-0.125 J0
G1 X-6.95 Y5.0942
G3 X-7.075 Y4.9692 I0 J-0.125
G1 X-7.075 Y0.2443
G3 X-6.95 Y0.1193 I0.125 J0
G1 Z-0.6 F30
G1 X-0.7808 Y0.1193 F20
G3 X-0.7768 Y0.1194 I0 J0.125
G1 X-0.6282 Y0.1241
G3 X-0.5939 Y0.13 I-0.004 J0.1249
G1 X-0.4523 Y0.1756
G3 X-0.421 Y0.1908 I-0.0383 J0.119
G1 X-0.2976 Y0.2737
G3 X-0.2716 Y0.2969 I-0.0697 J0.1038
G1 X-0.1759 Y0.4107
G3 X-0.1574 Y0.4402 I-0.0956 J0.0805
G1 X-0.0968 Y0.576
G3 X-0.0872 Y0.6095 I-0.1141 J0.0509
G1 X-0.0664 Y0.7567
G3 X-0.0652 Y0.7741 I-0.1238 J0.0174
G3 X-0.0664 Y0.7916 I-0.125 J0
G1 X-0.0872 Y0.9388
G3 X-0.0968 Y0.9723 I-0.1238 J-0.0174
G1 X-0.1574 Y1.108
G3 X-0.1759 Y1.1376 I-0.1141 J-0.0509
G1 X-0.2716 Y1.2513
G3 X-0.2976 Y1.2746 I-0.0956 J-0.0805
G1 X-0.421 Y1.3575
G3 X-0.4523 Y1.3727 I-0.0697 J-0.1038
G1 X-0.5939 Y1.4183
G3 X-0.6282 Y1.4242 I-0.0383 J-0.119
G1 X-0.7768 Y1.4289
G3 X-0.7808 Y1.429 I-0.004 J-0.1249
G1 X-1.2857 Y1.429
G1 X-1.3066 Y1.4313
G1 X-1.3263 Y1.4359
G1 X-1.3452 Y1.443
G1 X-1.3632 Y1.4523
G1 X-1.3799 Y1.4637
G1 X-1.395 Y1.4771
G1 X-1.4084 Y1.4923
G1 X-1.4198 Y1.5089
G1 X-1.4292 Y1.5269
G1 X-1.4362 Y1.5458
G1 X-1.4408 Y1.5655
G1 X-1.4432 Y1.5864
G1 X-1.4432 Y4.9692
G3 X-1.5682 Y5.0942 I-0.125 J0
G1 X-6.95 Y5.0942
G3 X-7.075 Y4.9692 I0 J-0.125
G1 X-7.075 Y0.2443
G3 X-6.95 Y0.1193 I0.125 J0
G1 Z-0.7 F30
G1 X-0.7808 Y0.1193 F20
G3 X-0.7768 Y0.1194 I0 J0.125
G1 X-0.6282 Y0.1241
G3 X-0.5939 Y0.13 I-0.004 J0.1249
G1 X-0.4523 Y0.1756
G3 X-0.421 Y0.1908 I-0.0383 J0.119
G1 X-0.2976 Y0.2737
G3 X-0.2716 Y0.2969 I-0.0697 J0.1038
G1 X-0.1759 Y0.4107
G3 X-0.1574 Y0.4402 I-0.0956 J0.0805
G1 X-0.0968 Y0.576
G3 X-0.0872 Y0.6095 I-0.1141 J0.0509
G1 X-0.0664 Y0.7567
G3 X-0.0652 Y0.7741 I-0.1238 J0.0174
G3 X-0.0664 Y0.7916 I-0.125 J0
G1 X-0.0872 Y0.9388
G3 X-0.0968 Y0.9723 I-0.1238 J-0.0174
G1 X-0.1574 Y1.108
G3 X-0.1759 Y1.1376 I-0.1141 J-0.0509
G1 X-0.2716 Y1.2513
G3 X-0.2976 Y1.2746 I-0.0956 J-0.0805
G1 X-0.421 Y1.3575
G3 X-0.4523 Y1.3727 I-0.0697 J-0.1038
G1 X-0.5939 Y1.4183
G3 X-0.6282 Y1.4242 I-0.0383 J-0.119
G1 X-0.7768 Y1.4289
G3 X-0.7808 Y1.429 I-0.004 J-0.1249
G1 X-1.2857 Y1.429
G1 X-1.3066 Y1.4313
G1 X-1.3263 Y1.4359
G1 X-1.3452 Y1.443
G1 X-1.3632 Y1.4523
G1 X-1.3799 Y1.4637
G1 X-1.395 Y1.4771
G1 X-1.4084 Y1.4923
G1 X-1.4198 Y1.5089
G1 X-1.4292 Y1.5269
G1 X-1.4362 Y1.5458
G1 X-1.4408 Y1.5655
G1 X-1.4432 Y1.5864
G1 X-1.4432 Y4.9692
G3 X-1.5682 Y5.0942 I-0.125 J0
G1 X-6.95 Y5.0942
G3 X-7.075 Y4.9692 I0 J-0.125
G1 X-7.075 Y0.2443
G3 X-6.95 Y0.1193 I0.125 J0
G1 Z-0.8 F30
G1 X-0.7808 Y0.1193 F20
G3 X-0.7768 Y0.1194 I0 J0.125
G1 X-0.6282 Y0.1241
G3 X-0.5939 Y0.13 I-0.004 J0.1249
G1 X-0.4523 Y0.1756
G3 X-0.421 Y0.1908 I-0.0383 J0.119
G1 X-0.2976 Y0.2737
G3 X-0.2716 Y0.2969 I-0.0697 J0.1038
G1 X-0.1759 Y0.4107
G3 X-0.1574 Y0.4402 I-0.0956 J0.0805
G1 X-0.0968 Y0.576
G3 X-0.0872 Y0.6095 I-0.1141 J0.0509
G1 X-0.0664 Y0.7567
G3 X-0.0652 Y0.7741 I-0.1238 J0.0174
G3 X-0.0664 Y0.7916 I-0.125 J0
G1 X-0.0872 Y0.9388
G3 X-0.0968 Y0.9723 I-0.1238 J-0.0174
G1 X-0.1574 Y1.108
G3 X-0.1759 Y1.1376 I-0.1141 J-0.0509
G1 X-0.2716 Y1.2513
G3 X-0.2976 Y1.2746 I-0.0956 J-0.0805
G1 X-0.421 Y1.3575
G3 X-0.4523 Y1.3727 I-0.0697 J-0.1038
G1 X-0.5939 Y1.4183
G3 X-0.6282 Y1.4242 I-0.0383 J-0.119
G1 X-0.7768 Y1.4289
G3 X-0.7808 Y1.429 I-0.004 J-0.1249
G1 X-1.2857 Y1.429
G1 X-1.3066 Y1.4313
G1 X-1.3263 Y1.4359
G1 X-1.3452 Y1.443
G1 X-1.3632 Y1.4523
G1 X-1.3799 Y1.4637
G1 X-1.395 Y1.4771
G1 X-1.4084 Y1.4923
G1 X-1.4198 Y1.5089
G1 X-1.4292 Y1.5269
G1 X-1.4362 Y1.5458
G1 X-1.4408 Y1.5655
G1 X-1.4432 Y1.5864
G1 X-1.4432 Y4.9692
G3 X-1.5682 Y5.0942 I-0.125 J0
G1 X-6.95 Y5.0942
G3 X-7.075 Y4.9692 I0 J-0.125
G1 X-7.075 Y0.2443
G3 X-6.95 Y0.1193 I0.125 J0
G1 Z-0.85 F30
G1 X-0.7808 Y0.1193 F20
G3 X-0.7768 Y0.1194 I0 J0.125
G1 X-0.6282 Y0.1241
G3 X-0.5939 Y0.13 I-0.004 J0.1249
G1 X-0.4523 Y0.1756
G3 X-0.421 Y0.1908 I-0.0383 J0.119
G1 X-0.2976 Y0.2737
G3 X-0.2716 Y0.2969 I-0.0697 J0.1038
G1 X-0.1759 Y0.4107
G3 X-0.1574 Y0.4402 I-0.0956 J0.0805
G1 X-0.0968 Y0.576
G3 X-0.0872 Y0.6095 I-0.1141 J0.0509
G1 X-0.0664 Y0.7567
G3 X-0.0652 Y0.7741 I-0.1238 J0.0174
G3 X-0.0664 Y0.7916 I-0.125 J0
G1 X-0.0872 Y0.9388
G3 X-0.0968 Y0.9723 I-0.1238 J-0.0174
G1 X-0.1574 Y1.108
G3 X-0.1759 Y1.1376 I-0.1141 J-0.0509
G1 X-0.2716 Y1.2513
G3 X-0.2976 Y1.2746 I-0.0956 J-0.0805
G1 X-0.421 Y1.3575
G3 X-0.4523 Y1.3727 I-0.0697 J-0.1038
G1 X-0.5939 Y1.4183
G3 X-0.6282 Y1.4242 I-0.0383 J-0.119
G1 X-0.7768 Y1.4289
G3 X-0.7808 Y1.429 I-0.004 J-0.1249
G1 X-1.2857 Y1.429
G1 X-1.3066 Y1.4313
G1 X-1.3263 Y1.4359
G1 X-1.3452 Y1.443
G1 X-1.3632 Y1.4523
G1 X-1.3799 Y1.4637
G1 X-1.395 Y1.4771
G1 X-1.4084 Y1.4923
G1 X-1.4198 Y1.5089
G1 X-1.4292 Y1.5269
G1 X-1.4362 Y1.5458
G1 X-1.4408 Y1.5655
G1 X-1.4432 Y1.5864
G1 X-1.4432 Y4.9692
G3 X-1.5682 Y5.0942 I-0.125 J0
G1 X-6.95 Y5.0942
G3 X-7.075 Y4.9692 I0 J-0.125
G1 X-7.075 Y0.2443
G3 X-6.95 Y0.1193 I0.125 J0
G0 Z0.25
M5
M30
