(Generated by PartKam Version 0.05)

G20 G90 G40

(profile 1)
G0 Z0.25
T0 M6
G17
M3
G0 X7.085 Y5.7611
G1 Z-0.1 F30
G1 X6.0555 Y-5.3127 F20
G3 X6.0549 Y-5.3243 I0.1245 J-0.0116
G3 X6.2619 Y-5.4186 I0.125 J0
G1 X12.7368 Y0.2099
G3 X12.7798 Y0.3042 I-0.082 J0.0943
G3 X12.7432 Y0.3926 I-0.125 J0
G1 X7.2979 Y5.8379
G3 X7.085 Y5.7611 I-0.0884 J-0.0884
G1 Z-0.2 F30
G1 X6.0555 Y-5.3127 F20
G3 X6.0549 Y-5.3243 I0.1245 J-0.0116
G3 X6.2619 Y-5.4186 I0.125 J0
G1 X12.7368 Y0.2099
G3 X12.7798 Y0.3042 I-0.082 J0.0943
G3 X12.7432 Y0.3926 I-0.125 J0
G1 X7.2979 Y5.8379
G3 X7.085 Y5.7611 I-0.0884 J-0.0884
G1 Z-0.3 F30
G1 X6.0555 Y-5.3127 F20
G3 X6.0549 Y-5.3243 I0.1245 J-0.0116
G3 X6.2619 Y-5.4186 I0.125 J0
G1 X12.7368 Y0.2099
G3 X12.7798 Y0.3042 I-0.082 J0.0943
G3 X12.7432 Y0.3926 I-0.125 J0
G1 X7.2979 Y5.8379
G3 X7.085 Y5.7611 I-0.0884 J-0.0884
G1 Z-0.4 F30
G1 X6.0555 Y-5.3127 F20
G3 X6.0549 Y-5.3243 I0.1245 J-0.0116
G3 X6.2619 Y-5.4186 I0.125 J0
G1 X12.7368 Y0.2099
G3 X12.7798 Y0.3042 I-0.082 J0.0943
G3 X12.7432 Y0.3926 I-0.125 J0
G1 X7.2979 Y5.8379
G3 X7.085 Y5.7611 I-0.0884 J-0.0884
G1 Z-0.5 F30
G1 X6.0555 Y-5.3127 F20
G3 X6.0549 Y-5.3243 I0.1245 J-0.0116
G3 X6.2619 Y-5.4186 I0.125 J0
G1 X12.7368 Y0.2099
G3 X12.7798 Y0.3042 I-0.082 J0.0943
G3 X12.7432 Y0.3926 I-0.125 J0
G1 X7.2979 Y5.8379
G3 X7.085 Y5.7611 I-0.0884 J-0.0884
G1 Z-0.6 F30
G1 X6.0555 Y-5.3127 F20
G3 X6.0549 Y-5.3243 I0.1245 J-0.0116
G3 X6.2619 Y-5.4186 I0.125 J0
G1 X12.7368 Y0.2099
G3 X12.7798 Y0.3042 I-0.082 J0.0943
G3 X12.7432 Y0.3926 I-0.125 J0
G1 X7.2979 Y5.8379
G3 X7.085 Y5.7611 I-0.0884 J-0.0884
G1 Z-0.7 F30
G1 X6.0555 Y-5.3127 F20
G3 X6.0549 Y-5.3243 I0.1245 J-0.0116
G3 X6.2619 Y-5.4186 I0.125 J0
G1 X12.7368 Y0.2099
G3 X12.7798 Y0.3042 I-0.082 J0.0943
G3 X12.7432 Y0.3926 I-0.125 J0
G1 X7.2979 Y5.8379
G3 X7.085 Y5.7611 I-0.0884 J-0.0884
G1 Z-0.8 F30
G1 X6.0555 Y-5.3127 F20
G3 X6.0549 Y-5.3243 I0.1245 J-0.0116
G3 X6.2619 Y-5.4186 I0.125 J0
G1 X12.7368 Y0.2099
G3 X12.7798 Y0.3042 I-0.082 J0.0943
G3 X12.7432 Y0.3926 I-0.125 J0
G1 X7.2979 Y5.8379
G3 X7.085 Y5.7611 I-0.0884 J-0.0884
G1 Z-0.85 F30
G1 X6.0555 Y-5.3127 F20
G3 X6.0549 Y-5.3243 I0.1245 J-0.0116
G3 X6.2619 Y-5.4186 I0.125 J0
G1 X12.7368 Y0.2099
G3 X12.7798 Y0.3042 I-0.082 J0.0943
G3 X12.7432 Y0.3926 I-0.125 J0
G1 X7.2979 Y5.8379
G3 X7.085 Y5.7611 I-0.0884 J-0.0884
G0 Z0.25
G0 X5.6552 Y-5.4089
G1 Z-0.1 F30
G1 X6.6848 Y5.6649 F20
G3 X6.6853 Y5.6764 I-0.1245 J0.0116
G3 X6.4783 Y5.7708 I-0.125 J0
G1 X0.0035 Y0.1423
G3 X-0.0395 Y0.048 I0.082 J-0.0943
G3 X-0.0029 Y-0.0404 I0.125 J0
G1 X5.4424 Y-5.4857
G3 X5.6552 Y-5.4089 I0.0884 J0.0884
G1 Z-0.2 F30
G1 X6.6848 Y5.6649 F20
G3 X6.6853 Y5.6764 I-0.1245 J0.0116
G3 X6.4783 Y5.7708 I-0.125 J0
G1 X0.0035 Y0.1423
G3 X-0.0395 Y0.048 I0.082 J-0.0943
G3 X-0.0029 Y-0.0404 I0.125 J0
G1 X5.4424 Y-5.4857
G3 X5.6552 Y-5.4089 I0.0884 J0.0884
G1 Z-0.3 F30
G1 X6.6848 Y5.6649 F20
G3 X6.6853 Y5.6764 I-0.1245 J0.0116
G3 X6.4783 Y5.7708 I-0.125 J0
G1 X0.0035 Y0.1423
G3 X-0.0395 Y0.048 I0.082 J-0.0943
G3 X-0.0029 Y-0.0404 I0.125 J0
G1 X5.4424 Y-5.4857
G3 X5.6552 Y-5.4089 I0.0884 J0.0884
G1 Z-0.4 F30
G1 X6.6848 Y5.6649 F20
G3 X6.6853 Y5.6764 I-0.1245 J0.0116
G3 X6.4783 Y5.7708 I-0.125 J0
G1 X0.0035 Y0.1423
G3 X-0.0395 Y0.048 I0.082 J-0.0943
G3 X-0.0029 Y-0.0404 I0.125 J0
G1 X5.4424 Y-5.4857
G3 X5.6552 Y-5.4089 I0.0884 J0.0884
G1 Z-0.5 F30
G1 X6.6848 Y5.6649 F20
G3 X6.6853 Y5.6764 I-0.1245 J0.0116
G3 X6.4783 Y5.7708 I-0.125 J0
G1 X0.0035 Y0.1423
G3 X-0.0395 Y0.048 I0.082 J-0.0943
G3 X-0.0029 Y-0.0404 I0.125 J0
G1 X5.4424 Y-5.4857
G3 X5.6552 Y-5.4089 I0.0884 J0.0884
G1 Z-0.6 F30
G1 X6.6848 Y5.6649 F20
G3 X6.6853 Y5.6764 I-0.1245 J0.0116
G3 X6.4783 Y5.7708 I-0.125 J0
G1 X0.0035 Y0.1423
G3 X-0.0395 Y0.048 I0.082 J-0.0943
G3 X-0.0029 Y-0.0404 I0.125 J0
G1 X5.4424 Y-5.4857
G3 X5.6552 Y-5.4089 I0.0884 J0.0884
G1 Z-0.7 F30
G1 X6.6848 Y5.6649 F20
G3 X6.6853 Y5.6764 I-0.1245 J0.0116
G3 X6.4783 Y5.7708 I-0.125 J0
G1 X0.0035 Y0.1423
G3 X-0.0395 Y0.048 I0.082 J-0.0943
G3 X-0.0029 Y-0.0404 I0.125 J0
G1 X5.4424 Y-5.4857
G3 X5.6552 Y-5.4089 I0.0884 J0.0884
G1 Z-0.8 F30
G1 X6.6848 Y5.6649 F20
G3 X6.6853 Y5.6764 I-0.1245 J0.0116
G3 X6.4783 Y5.7708 I-0.125 J0
G1 X0.0035 Y0.1423
G3 X-0.0395 Y0.048 I0.082 J-0.0943
G3 X-0.0029 Y-0.0404 I0.125 J0
G1 X5.4424 Y-5.4857
G3 X5.6552 Y-5.4089 I0.0884 J0.0884
G1 Z-0.85 F30
G1 X6.6848 Y5.6649 F20
G3 X6.6853 Y5.6764 I-0.1245 J0.0116
G3 X6.4783 Y5.7708 I-0.125 J0
G1 X0.0035 Y0.1423
G3 X-0.0395 Y0.048 I0.082 J-0.0943
G3 X-0.0029 Y-0.0404 I0.125 J0
G1 X5.4424 Y-5.4857
G3 X5.6552 Y-5.4089 I0.0884 J0.0884
G0 Z0.25
M5
M30
