(Generated by PartKam Version 0.05)

G20 G90 G40

(profile 1)
G0 Z0.25
T0 M6
G17
M3
G0 X15.716 Y4.7917
G1 Z-0.1 F30
G1 X1.757 Y-2.0166 F20
G3 X1.6868 Y-2.1289 I0.0548 J-0.1123
G3 X1.7234 Y-2.2173 I0.125 J0
G1 X6.745 Y-7.2389
G3 X6.9218 Y-7.2389 I0.0884 J0.0884
G1 X13.4706 Y-0.6901
G3 X13.4871 Y-0.6696 I-0.0884 J0.0884
G1 X17.3034 Y3.1467
G3 X17.34 Y3.2351 I-0.0884 J0.0884
G3 X17.3034 Y3.3235 I-0.125 J0
G1 X15.8592 Y4.7677
G3 X15.716 Y4.7917 I-0.0884 J-0.0884
G1 Z-0.2 F30
G1 X1.757 Y-2.0166 F20
G3 X1.6868 Y-2.1289 I0.0548 J-0.1123
G3 X1.7234 Y-2.2173 I0.125 J0
G1 X6.745 Y-7.2389
G3 X6.9218 Y-7.2389 I0.0884 J0.0884
G1 X13.4706 Y-0.6901
G3 X13.4871 Y-0.6696 I-0.0884 J0.0884
G1 X17.3034 Y3.1467
G3 X17.34 Y3.2351 I-0.0884 J0.0884
G3 X17.3034 Y3.3235 I-0.125 J0
G1 X15.8592 Y4.7677
G3 X15.716 Y4.7917 I-0.0884 J-0.0884
G1 Z-0.3 F30
G1 X1.757 Y-2.0166 F20
G3 X1.6868 Y-2.1289 I0.0548 J-0.1123
G3 X1.7234 Y-2.2173 I0.125 J0
G1 X6.745 Y-7.2389
G3 X6.9218 Y-7.2389 I0.0884 J0.0884
G1 X13.4706 Y-0.6901
G3 X13.4871 Y-0.6696 I-0.0884 J0.0884
G1 X17.3034 Y3.1467
G3 X17.34 Y3.2351 I-0.0884 J0.0884
G3 X17.3034 Y3.3235 I-0.125 J0
G1 X15.8592 Y4.7677
G3 X15.716 Y4.7917 I-0.0884 J-0.0884
G1 Z-0.4 F30
G1 X1.757 Y-2.0166 F20
G3 X1.6868 Y-2.1289 I0.0548 J-0.1123
G3 X1.7234 Y-2.2173 I0.125 J0
G1 X6.745 Y-7.2389
G3 X6.9218 Y-7.2389 I0.0884 J0.0884
G1 X13.4706 Y-0.6901
G3 X13.4871 Y-0.6696 I-0.0884 J0.0884
G1 X17.3034 Y3.1467
G3 X17.34 Y3.2351 I-0.0884 J0.0884
G3 X17.3034 Y3.3235 I-0.125 J0
G1 X15.8592 Y4.7677
G3 X15.716 Y4.7917 I-0.0884 J-0.0884
G1 Z-0.5 F30
G1 X1.757 Y-2.0166 F20
G3 X1.6868 Y-2.1289 I0.0548 J-0.1123
G3 X1.7234 Y-2.2173 I0.125 J0
G1 X6.745 Y-7.2389
G3 X6.9218 Y-7.2389 I0.0884 J0.0884
G1 X13.4706 Y-0.6901
G3 X13.4871 Y-0.6696 I-0.0884 J0.0884
G1 X17.3034 Y3.1467
G3 X17.34 Y3.2351 I-0.0884 J0.0884
G3 X17.3034 Y3.3235 I-0.125 J0
G1 X15.8592 Y4.7677
G3 X15.716 Y4.7917 I-0.0884 J-0.0884
G1 Z-0.6 F30
G1 X1.757 Y-2.0166 F20
G3 X1.6868 Y-2.1289 I0.0548 J-0.1123
G3 X1.7234 Y-2.2173 I0.125 J0
G1 X6.745 Y-7.2389
G3 X6.9218 Y-7.2389 I0.0884 J0.0884
G1 X13.4706 Y-0.6901
G3 X13.4871 Y-0.6696 I-0.0884 J0.0884
G1 X17.3034 Y3.1467
G3 X17.34 Y3.2351 I-0.0884 J0.0884
G3 X17.3034 Y3.3235 I-0.125 J0
G1 X15.8592 Y4.7677
G3 X15.716 Y4.7917 I-0.0884 J-0.0884
G1 Z-0.7 F30
G1 X1.757 Y-2.0166 F20
G3 X1.6868 Y-2.1289 I0.0548 J-0.1123
G3 X1.7234 Y-2.2173 I0.125 J0
G1 X6.745 Y-7.2389
G3 X6.9218 Y-7.2389 I0.0884 J0.0884
G1 X13.4706 Y-0.6901
G3 X13.4871 Y-0.6696 I-0.0884 J0.0884
G1 X17.3034 Y3.1467
G3 X17.34 Y3.2351 I-0.0884 J0.0884
G3 X17.3034 Y3.3235 I-0.125 J0
G1 X15.8592 Y4.7677
G3 X15.716 Y4.7917 I-0.0884 J-0.0884
G1 Z-0.8 F30
G1 X1.757 Y-2.0166 F20
G3 X1.6868 Y-2.1289 I0.0548 J-0.1123
G3 X1.7234 Y-2.2173 I0.125 J0
G1 X6.745 Y-7.2389
G3 X6.9218 Y-7.2389 I0.0884 J0.0884
G1 X13.4706 Y-0.6901
G3 X13.4871 Y-0.6696 I-0.0884 J0.0884
G1 X17.3034 Y3.1467
G3 X17.34 Y3.2351 I-0.0884 J0.0884
G3 X17.3034 Y3.3235 I-0.125 J0
G1 X15.8592 Y4.7677
G3 X15.716 Y4.7917 I-0.0884 J-0.0884
G1 Z-0.85 F30
G1 X1.757 Y-2.0166 F20
G3 X1.6868 Y-2.1289 I0.0548 J-0.1123
G3 X1.7234 Y-2.2173 I0.125 J0
G1 X6.745 Y-7.2389
G3 X6.9218 Y-7.2389 I0.0884 J0.0884
G1 X13.4706 Y-0.6901
G3 X13.4871 Y-0.6696 I-0.0884 J0.0884
G1 X17.3034 Y3.1467
G3 X17.34 Y3.2351 I-0.0884 J0.0884
G3 X17.3034 Y3.3235 I-0.125 J0
G1 X15.8592 Y4.7677
G3 X15.716 Y4.7917 I-0.0884 J-0.0884
G0 Z0.25
G0 X1.5515 Y-1.6332
G1 Z-0.1 F30
G1 X15.5104 Y5.175 F20
G3 X15.5806 Y5.2874 I-0.0548 J0.1123
G3 X15.544 Y5.3758 I-0.125 J0
G1 X10.5225 Y10.3974
G3 X10.3457 Y10.3974 I-0.0884 J-0.0884
G1 X3.7969 Y3.8486
G3 X3.7803 Y3.8281 I0.0884 J-0.0884
G1 X-0.036 Y0.0118
G3 X-0.0726 Y-0.0766 I0.0884 J-0.0884
G3 X-0.036 Y-0.165 I0.125 J0
G1 X1.4083 Y-1.6093
G3 X1.5515 Y-1.6332 I0.0884 J0.0884
G1 Z-0.2 F30
G1 X15.5104 Y5.175 F20
G3 X15.5806 Y5.2874 I-0.0548 J0.1123
G3 X15.544 Y5.3758 I-0.125 J0
G1 X10.5225 Y10.3974
G3 X10.3457 Y10.3974 I-0.0884 J-0.0884
G1 X3.7969 Y3.8486
G3 X3.7803 Y3.8281 I0.0884 J-0.0884
G1 X-0.036 Y0.0118
G3 X-0.0726 Y-0.0766 I0.0884 J-0.0884
G3 X-0.036 Y-0.165 I0.125 J0
G1 X1.4083 Y-1.6093
G3 X1.5515 Y-1.6332 I0.0884 J0.0884
G1 Z-0.3 F30
G1 X15.5104 Y5.175 F20
G3 X15.5806 Y5.2874 I-0.0548 J0.1123
G3 X15.544 Y5.3758 I-0.125 J0
G1 X10.5225 Y10.3974
G3 X10.3457 Y10.3974 I-0.0884 J-0.0884
G1 X3.7969 Y3.8486
G3 X3.7803 Y3.8281 I0.0884 J-0.0884
G1 X-0.036 Y0.0118
G3 X-0.0726 Y-0.0766 I0.0884 J-0.0884
G3 X-0.036 Y-0.165 I0.125 J0
G1 X1.4083 Y-1.6093
G3 X1.5515 Y-1.6332 I0.0884 J0.0884
G1 Z-0.4 F30
G1 X15.5104 Y5.175 F20
G3 X15.5806 Y5.2874 I-0.0548 J0.1123
G3 X15.544 Y5.3758 I-0.125 J0
G1 X10.5225 Y10.3974
G3 X10.3457 Y10.3974 I-0.0884 J-0.0884
G1 X3.7969 Y3.8486
G3 X3.7803 Y3.8281 I0.0884 J-0.0884
G1 X-0.036 Y0.0118
G3 X-0.0726 Y-0.0766 I0.0884 J-0.0884
G3 X-0.036 Y-0.165 I0.125 J0
G1 X1.4083 Y-1.6093
G3 X1.5515 Y-1.6332 I0.0884 J0.0884
G1 Z-0.5 F30
G1 X15.5104 Y5.175 F20
G3 X15.5806 Y5.2874 I-0.0548 J0.1123
G3 X15.544 Y5.3758 I-0.125 J0
G1 X10.5225 Y10.3974
G3 X10.3457 Y10.3974 I-0.0884 J-0.0884
G1 X3.7969 Y3.8486
G3 X3.7803 Y3.8281 I0.0884 J-0.0884
G1 X-0.036 Y0.0118
G3 X-0.0726 Y-0.0766 I0.0884 J-0.0884
G3 X-0.036 Y-0.165 I0.125 J0
G1 X1.4083 Y-1.6093
G3 X1.5515 Y-1.6332 I0.0884 J0.0884
G1 Z-0.6 F30
G1 X15.5104 Y5.175 F20
G3 X15.5806 Y5.2874 I-0.0548 J0.1123
G3 X15.544 Y5.3758 I-0.125 J0
G1 X10.5225 Y10.3974
G3 X10.3457 Y10.3974 I-0.0884 J-0.0884
G1 X3.7969 Y3.8486
G3 X3.7803 Y3.8281 I0.0884 J-0.0884
G1 X-0.036 Y0.0118
G3 X-0.0726 Y-0.0766 I0.0884 J-0.0884
G3 X-0.036 Y-0.165 I0.125 J0
G1 X1.4083 Y-1.6093
G3 X1.5515 Y-1.6332 I0.0884 J0.0884
G1 Z-0.7 F30
G1 X15.5104 Y5.175 F20
G3 X15.5806 Y5.2874 I-0.0548 J0.1123
G3 X15.544 Y5.3758 I-0.125 J0
G1 X10.5225 Y10.3974
G3 X10.3457 Y10.3974 I-0.0884 J-0.0884
G1 X3.7969 Y3.8486
G3 X3.7803 Y3.8281 I0.0884 J-0.0884
G1 X-0.036 Y0.0118
G3 X-0.0726 Y-0.0766 I0.0884 J-0.0884
G3 X-0.036 Y-0.165 I0.125 J0
G1 X1.4083 Y-1.6093
G3 X1.5515 Y-1.6332 I0.0884 J0.0884
G1 Z-0.8 F30
G1 X15.5104 Y5.175 F20
G3 X15.5806 Y5.2874 I-0.0548 J0.1123
G3 X15.544 Y5.3758 I-0.125 J0
G1 X10.5225 Y10.3974
G3 X10.3457 Y10.3974 I-0.0884 J-0.0884
G1 X3.7969 Y3.8486
G3 X3.7803 Y3.8281 I0.0884 J-0.0884
G1 X-0.036 Y0.0118
G3 X-0.0726 Y-0.0766 I0.0884 J-0.0884
G3 X-0.036 Y-0.165 I0.125 J0
G1 X1.4083 Y-1.6093
G3 X1.5515 Y-1.6332 I0.0884 J0.0884
G1 Z-0.85 F30
G1 X15.5104 Y5.175 F20
G3 X15.5806 Y5.2874 I-0.0548 J0.1123
G3 X15.544 Y5.3758 I-0.125 J0
G1 X10.5225 Y10.3974
G3 X10.3457 Y10.3974 I-0.0884 J-0.0884
G1 X3.7969 Y3.8486
G3 X3.7803 Y3.8281 I0.0884 J-0.0884
G1 X-0.036 Y0.0118
G3 X-0.0726 Y-0.0766 I0.0884 J-0.0884
G3 X-0.036 Y-0.165 I0.125 J0
G1 X1.4083 Y-1.6093
G3 X1.5515 Y-1.6332 I0.0884 J0.0884
G0 Z0.25
M5
M30
