(Generated by PartKam Version 0.05)

G20 G90 G40

(profile 1)
G0 Z0.25
T0 M6
G17
M3
G0 X9.1954 Y7.6588
G1 Z-0.15 F30
G1 X9.317 Y7.7395 F25
G1 X9.3478 Y7.7744
G2 X9.3566 Y7.7826 I0.0469 J-0.0413
G1 X9.3709 Y7.7936
G1 X9.4108 Y7.8457
G2 X9.4135 Y7.8489 I0.0496 J-0.038
G1 X9.5101 Y7.9584
G1 X9.5308 Y8.0001
G2 X9.5372 Y8.0103 I0.056 J-0.0278
G1 X9.5481 Y8.0246
G1 X9.5732 Y8.0852
G2 X9.575 Y8.0891 I0.0577 J-0.0239
G1 X9.6399 Y8.2198
G1 X9.6491 Y8.2654
G2 X9.6526 Y8.2769 I0.0613 J-0.0124
G1 X9.6595 Y8.2936
G1 X9.6681 Y8.3586
G2 X9.6688 Y8.3628 I0.062 J-0.0082
G1 X9.6977 Y8.5059
G1 X9.6948 Y8.5523
G2 X9.6947 Y8.5562 I0.0624 J0.0039
G2 X9.6952 Y8.5644 I0.0625 J0
G1 X9.6975 Y8.5822
G1 X9.689 Y8.6473
G2 X9.6886 Y8.6515 I0.062 J0.0082
G1 X9.6794 Y8.7972
G1 X9.6646 Y8.8413
G2 X9.6619 Y8.853 I0.0592 J0.0199
G1 X9.6595 Y8.8709
G1 X9.6344 Y8.9315
G2 X9.6329 Y8.9355 I0.0577 J0.0239
G1 X9.5864 Y9.0738
G1 X9.5607 Y9.1126
G2 X9.5563 Y9.1203 I0.0521 J0.0346
G1 X9.5488 Y9.1361
G1 X9.5072 Y9.1932
G2 X9.5057 Y9.1954 I0.0505 J0.0368
G1 X9.425 Y9.317
G1 X9.3901 Y9.3478
G2 X9.3818 Y9.3566 I0.0413 J0.0469
G1 X9.3709 Y9.3709
G1 X9.3188 Y9.4108
G2 X9.3155 Y9.4135 I0.038 J0.0496
G1 X9.2061 Y9.5101
G1 X9.1644 Y9.5308
G2 X9.1542 Y9.5372 I0.0278 J0.056
G1 X9.1399 Y9.5481
G1 X9.0793 Y9.5732
G2 X9.0754 Y9.575 I0.0239 J0.0577
G1 X8.9447 Y9.6399
G1 X8.8991 Y9.6491
G2 X8.8875 Y9.6526 I0.0124 J0.0613
G1 X8.8709 Y9.6595
G1 X8.8058 Y9.6681
G2 X8.8016 Y9.6688 I0.0082 J0.062
G1 X8.6586 Y9.6977
G1 X8.6121 Y9.6948
G2 X8.6001 Y9.6952 I-0.0039 J0.0624
G1 X8.5822 Y9.6975
G1 X8.5172 Y9.689
G2 X8.5129 Y9.6886 I-0.0082 J0.062
G1 X8.3673 Y9.6794
G1 X8.3232 Y9.6646
G2 X8.3114 Y9.6619 I-0.0199 J0.0592
G1 X8.2936 Y9.6595
G1 X8.2329 Y9.6344
G2 X8.2289 Y9.6329 I-0.0239 J0.0577
G1 X8.0906 Y9.5864
G1 X8.0519 Y9.5607
G2 X8.0412 Y9.555 I-0.0346 J0.0521
G1 X8.0246 Y9.5481
G1 X7.9725 Y9.5082
G2 X7.969 Y9.5057 I-0.038 J0.0496
G1 X7.8475 Y9.425
G1 X7.8167 Y9.3901
G2 X7.8079 Y9.3818 I-0.0469 J0.0413
G1 X7.7936 Y9.3709
G1 X7.7536 Y9.3188
G2 X7.7509 Y9.3155 I-0.0496 J0.038
G1 X7.6544 Y9.2061
G1 X7.6337 Y9.1644
G2 X7.6297 Y9.1576 I-0.056 J0.0278
G1 X7.6169 Y9.1382
G1 X7.5908 Y9.0783
G2 X7.5895 Y9.0754 I-0.0573 J0.0249
G1 X7.5245 Y8.9447
G1 X7.5153 Y8.8991
G2 X7.5118 Y8.8875 I-0.0613 J0.0124
G1 X7.5049 Y8.8709
G1 X7.4964 Y8.8058
G2 X7.4957 Y8.8016 I-0.062 J0.0082
G1 X7.4668 Y8.6586
G1 X7.4697 Y8.6121
G2 X7.4698 Y8.6082 I-0.0624 J-0.0039
G2 X7.4693 Y8.6001 I-0.0625 J0
G1 X7.4669 Y8.5822
G1 X7.4755 Y8.5172
G2 X7.4759 Y8.5129 I-0.062 J-0.0082
G1 X7.485 Y8.3673
G1 X7.4999 Y8.3232
G2 X7.5026 Y8.3114 I-0.0592 J-0.0199
G1 X7.5049 Y8.2936
G1 X7.53 Y8.2329
G2 X7.5315 Y8.2289 I-0.0577 J-0.0239
G1 X7.578 Y8.0906
G1 X7.6038 Y8.0519
G2 X7.6095 Y8.0412 I-0.0521 J-0.0346
G1 X7.6163 Y8.0246
G1 X7.6563 Y7.9725
G2 X7.6588 Y7.969 I-0.0496 J-0.038
G1 X7.7395 Y7.8475
G1 X7.7744 Y7.8167
G2 X7.7826 Y7.8079 I-0.0413 J-0.0469
G1 X7.7936 Y7.7936
G1 X7.8457 Y7.7536
G2 X7.8489 Y7.7509 I-0.038 J-0.0496
G1 X7.9584 Y7.6544
G1 X8.0001 Y7.6337
G2 X8.0103 Y7.6273 I-0.0278 J-0.056
G1 X8.0246 Y7.6163
G1 X8.0852 Y7.5912
G2 X8.0891 Y7.5895 I-0.0239 J-0.0577
G1 X8.2198 Y7.5245
G1 X8.2654 Y7.5153
G2 X8.2769 Y7.5118 I-0.0124 J-0.0613
G1 X8.2936 Y7.5049
G1 X8.3586 Y7.4964
G2 X8.3628 Y7.4957 I-0.0082 J-0.062
G1 X8.5059 Y7.4668
G1 X8.5523 Y7.4697
G2 X8.5644 Y7.4693 I0.0039 J-0.0624
G1 X8.5822 Y7.4669
G1 X8.6473 Y7.4755
G2 X8.6515 Y7.4759 I0.0082 J-0.062
G1 X8.7972 Y7.485
G1 X8.8413 Y7.4999
G2 X8.853 Y7.5026 I0.0199 J-0.0592
G1 X8.8709 Y7.5049
G1 X8.9315 Y7.53
G2 X8.9355 Y7.5315 I0.0239 J-0.0577
G1 X9.0738 Y7.578
G1 X9.1126 Y7.6038
G2 X9.1233 Y7.6095 I0.0346 J-0.0521
G1 X9.1399 Y7.6163
G1 X9.1919 Y7.6563
G2 X9.1954 Y7.6588 I0.038 J-0.0496
G1 Z-0.3 F30
G1 X9.317 Y7.7395 F25
G1 X9.3478 Y7.7744
G2 X9.3566 Y7.7826 I0.0469 J-0.0413
G1 X9.3709 Y7.7936
G1 X9.4108 Y7.8457
G2 X9.4135 Y7.8489 I0.0496 J-0.038
G1 X9.5101 Y7.9584
G1 X9.5308 Y8.0001
G2 X9.5372 Y8.0103 I0.056 J-0.0278
G1 X9.5481 Y8.0246
G1 X9.5732 Y8.0852
G2 X9.575 Y8.0891 I0.0577 J-0.0239
G1 X9.6399 Y8.2198
G1 X9.6491 Y8.2654
G2 X9.6526 Y8.2769 I0.0613 J-0.0124
G1 X9.6595 Y8.2936
G1 X9.6681 Y8.3586
G2 X9.6688 Y8.3628 I0.062 J-0.0082
G1 X9.6977 Y8.5059
G1 X9.6948 Y8.5523
G2 X9.6947 Y8.5562 I0.0624 J0.0039
G2 X9.6952 Y8.5644 I0.0625 J0
G1 X9.6975 Y8.5822
G1 X9.689 Y8.6473
G2 X9.6886 Y8.6515 I0.062 J0.0082
G1 X9.6794 Y8.7972
G1 X9.6646 Y8.8413
G2 X9.6619 Y8.853 I0.0592 J0.0199
G1 X9.6595 Y8.8709
G1 X9.6344 Y8.9315
G2 X9.6329 Y8.9355 I0.0577 J0.0239
G1 X9.5864 Y9.0738
G1 X9.5607 Y9.1126
G2 X9.5563 Y9.1203 I0.0521 J0.0346
G1 X9.5488 Y9.1361
G1 X9.5072 Y9.1932
G2 X9.5057 Y9.1954 I0.0505 J0.0368
G1 X9.425 Y9.317
G1 X9.3901 Y9.3478
G2 X9.3818 Y9.3566 I0.0413 J0.0469
G1 X9.3709 Y9.3709
G1 X9.3188 Y9.4108
G2 X9.3155 Y9.4135 I0.038 J0.0496
G1 X9.2061 Y9.5101
G1 X9.1644 Y9.5308
G2 X9.1542 Y9.5372 I0.0278 J0.056
G1 X9.1399 Y9.5481
G1 X9.0793 Y9.5732
G2 X9.0754 Y9.575 I0.0239 J0.0577
G1 X8.9447 Y9.6399
G1 X8.8991 Y9.6491
G2 X8.8875 Y9.6526 I0.0124 J0.0613
G1 X8.8709 Y9.6595
G1 X8.8058 Y9.6681
G2 X8.8016 Y9.6688 I0.0082 J0.062
G1 X8.6586 Y9.6977
G1 X8.6121 Y9.6948
G2 X8.6001 Y9.6952 I-0.0039 J0.0624
G1 X8.5822 Y9.6975
G1 X8.5172 Y9.689
G2 X8.5129 Y9.6886 I-0.0082 J0.062
G1 X8.3673 Y9.6794
G1 X8.3232 Y9.6646
G2 X8.3114 Y9.6619 I-0.0199 J0.0592
G1 X8.2936 Y9.6595
G1 X8.2329 Y9.6344
G2 X8.2289 Y9.6329 I-0.0239 J0.0577
G1 X8.0906 Y9.5864
G1 X8.0519 Y9.5607
G2 X8.0412 Y9.555 I-0.0346 J0.0521
G1 X8.0246 Y9.5481
G1 X7.9725 Y9.5082
G2 X7.969 Y9.5057 I-0.038 J0.0496
G1 X7.8475 Y9.425
G1 X7.8167 Y9.3901
G2 X7.8079 Y9.3818 I-0.0469 J0.0413
G1 X7.7936 Y9.3709
G1 X7.7536 Y9.3188
G2 X7.7509 Y9.3155 I-0.0496 J0.038
G1 X7.6544 Y9.2061
G1 X7.6337 Y9.1644
G2 X7.6297 Y9.1576 I-0.056 J0.0278
G1 X7.6169 Y9.1382
G1 X7.5908 Y9.0783
G2 X7.5895 Y9.0754 I-0.0573 J0.0249
G1 X7.5245 Y8.9447
G1 X7.5153 Y8.8991
G2 X7.5118 Y8.8875 I-0.0613 J0.0124
G1 X7.5049 Y8.8709
G1 X7.4964 Y8.8058
G2 X7.4957 Y8.8016 I-0.062 J0.0082
G1 X7.4668 Y8.6586
G1 X7.4697 Y8.6121
G2 X7.4698 Y8.6082 I-0.0624 J-0.0039
G2 X7.4693 Y8.6001 I-0.0625 J0
G1 X7.4669 Y8.5822
G1 X7.4755 Y8.5172
G2 X7.4759 Y8.5129 I-0.062 J-0.0082
G1 X7.485 Y8.3673
G1 X7.4999 Y8.3232
G2 X7.5026 Y8.3114 I-0.0592 J-0.0199
G1 X7.5049 Y8.2936
G1 X7.53 Y8.2329
G2 X7.5315 Y8.2289 I-0.0577 J-0.0239
G1 X7.578 Y8.0906
G1 X7.6038 Y8.0519
G2 X7.6095 Y8.0412 I-0.0521 J-0.0346
G1 X7.6163 Y8.0246
G1 X7.6563 Y7.9725
G2 X7.6588 Y7.969 I-0.0496 J-0.038
G1 X7.7395 Y7.8475
G1 X7.7744 Y7.8167
G2 X7.7826 Y7.8079 I-0.0413 J-0.0469
G1 X7.7936 Y7.7936
G1 X7.8457 Y7.7536
G2 X7.8489 Y7.7509 I-0.038 J-0.0496
G1 X7.9584 Y7.6544
G1 X8.0001 Y7.6337
G2 X8.0103 Y7.6273 I-0.0278 J-0.056
G1 X8.0246 Y7.6163
G1 X8.0852 Y7.5912
G2 X8.0891 Y7.5895 I-0.0239 J-0.0577
G1 X8.2198 Y7.5245
G1 X8.2654 Y7.5153
G2 X8.2769 Y7.5118 I-0.0124 J-0.0613
G1 X8.2936 Y7.5049
G1 X8.3586 Y7.4964
G2 X8.3628 Y7.4957 I-0.0082 J-0.062
G1 X8.5059 Y7.4668
G1 X8.5523 Y7.4697
G2 X8.5644 Y7.4693 I0.0039 J-0.0624
G1 X8.5822 Y7.4669
G1 X8.6473 Y7.4755
G2 X8.6515 Y7.4759 I0.0082 J-0.062
G1 X8.7972 Y7.485
G1 X8.8413 Y7.4999
G2 X8.853 Y7.5026 I0.0199 J-0.0592
G1 X8.8709 Y7.5049
G1 X8.9315 Y7.53
G2 X8.9355 Y7.5315 I0.0239 J-0.0577
G1 X9.0738 Y7.578
G1 X9.1126 Y7.6038
G2 X9.1233 Y7.6095 I0.0346 J-0.0521
G1 X9.1399 Y7.6163
G1 X9.1919 Y7.6563
G2 X9.1954 Y7.6588 I0.038 J-0.0496
G1 Z-0.45 F30
G1 X9.317 Y7.7395 F25
G1 X9.3478 Y7.7744
G2 X9.3566 Y7.7826 I0.0469 J-0.0413
G1 X9.3709 Y7.7936
G1 X9.4108 Y7.8457
G2 X9.4135 Y7.8489 I0.0496 J-0.038
G1 X9.5101 Y7.9584
G1 X9.5308 Y8.0001
G2 X9.5372 Y8.0103 I0.056 J-0.0278
G1 X9.5481 Y8.0246
G1 X9.5732 Y8.0852
G2 X9.575 Y8.0891 I0.0577 J-0.0239
G1 X9.6399 Y8.2198
G1 X9.6491 Y8.2654
G2 X9.6526 Y8.2769 I0.0613 J-0.0124
G1 X9.6595 Y8.2936
G1 X9.6681 Y8.3586
G2 X9.6688 Y8.3628 I0.062 J-0.0082
G1 X9.6977 Y8.5059
G1 X9.6948 Y8.5523
G2 X9.6947 Y8.5562 I0.0624 J0.0039
G2 X9.6952 Y8.5644 I0.0625 J0
G1 X9.6975 Y8.5822
G1 X9.689 Y8.6473
G2 X9.6886 Y8.6515 I0.062 J0.0082
G1 X9.6794 Y8.7972
G1 X9.6646 Y8.8413
G2 X9.6619 Y8.853 I0.0592 J0.0199
G1 X9.6595 Y8.8709
G1 X9.6344 Y8.9315
G2 X9.6329 Y8.9355 I0.0577 J0.0239
G1 X9.5864 Y9.0738
G1 X9.5607 Y9.1126
G2 X9.5563 Y9.1203 I0.0521 J0.0346
G1 X9.5488 Y9.1361
G1 X9.5072 Y9.1932
G2 X9.5057 Y9.1954 I0.0505 J0.0368
G1 X9.425 Y9.317
G1 X9.3901 Y9.3478
G2 X9.3818 Y9.3566 I0.0413 J0.0469
G1 X9.3709 Y9.3709
G1 X9.3188 Y9.4108
G2 X9.3155 Y9.4135 I0.038 J0.0496
G1 X9.2061 Y9.5101
G1 X9.1644 Y9.5308
G2 X9.1542 Y9.5372 I0.0278 J0.056
G1 X9.1399 Y9.5481
G1 X9.0793 Y9.5732
G2 X9.0754 Y9.575 I0.0239 J0.0577
G1 X8.9447 Y9.6399
G1 X8.8991 Y9.6491
G2 X8.8875 Y9.6526 I0.0124 J0.0613
G1 X8.8709 Y9.6595
G1 X8.8058 Y9.6681
G2 X8.8016 Y9.6688 I0.0082 J0.062
G1 X8.6586 Y9.6977
G1 X8.6121 Y9.6948
G2 X8.6001 Y9.6952 I-0.0039 J0.0624
G1 X8.5822 Y9.6975
G1 X8.5172 Y9.689
G2 X8.5129 Y9.6886 I-0.0082 J0.062
G1 X8.3673 Y9.6794
G1 X8.3232 Y9.6646
G2 X8.3114 Y9.6619 I-0.0199 J0.0592
G1 X8.2936 Y9.6595
G1 X8.2329 Y9.6344
G2 X8.2289 Y9.6329 I-0.0239 J0.0577
G1 X8.0906 Y9.5864
G1 X8.0519 Y9.5607
G2 X8.0412 Y9.555 I-0.0346 J0.0521
G1 X8.0246 Y9.5481
G1 X7.9725 Y9.5082
G2 X7.969 Y9.5057 I-0.038 J0.0496
G1 X7.8475 Y9.425
G1 X7.8167 Y9.3901
G2 X7.8079 Y9.3818 I-0.0469 J0.0413
G1 X7.7936 Y9.3709
G1 X7.7536 Y9.3188
G2 X7.7509 Y9.3155 I-0.0496 J0.038
G1 X7.6544 Y9.2061
G1 X7.6337 Y9.1644
G2 X7.6297 Y9.1576 I-0.056 J0.0278
G1 X7.6169 Y9.1382
G1 X7.5908 Y9.0783
G2 X7.5895 Y9.0754 I-0.0573 J0.0249
G1 X7.5245 Y8.9447
G1 X7.5153 Y8.8991
G2 X7.5118 Y8.8875 I-0.0613 J0.0124
G1 X7.5049 Y8.8709
G1 X7.4964 Y8.8058
G2 X7.4957 Y8.8016 I-0.062 J0.0082
G1 X7.4668 Y8.6586
G1 X7.4697 Y8.6121
G2 X7.4698 Y8.6082 I-0.0624 J-0.0039
G2 X7.4693 Y8.6001 I-0.0625 J0
G1 X7.4669 Y8.5822
G1 X7.4755 Y8.5172
G2 X7.4759 Y8.5129 I-0.062 J-0.0082
G1 X7.485 Y8.3673
G1 X7.4999 Y8.3232
G2 X7.5026 Y8.3114 I-0.0592 J-0.0199
G1 X7.5049 Y8.2936
G1 X7.53 Y8.2329
G2 X7.5315 Y8.2289 I-0.0577 J-0.0239
G1 X7.578 Y8.0906
G1 X7.6038 Y8.0519
G2 X7.6095 Y8.0412 I-0.0521 J-0.0346
G1 X7.6163 Y8.0246
G1 X7.6563 Y7.9725
G2 X7.6588 Y7.969 I-0.0496 J-0.038
G1 X7.7395 Y7.8475
G1 X7.7744 Y7.8167
G2 X7.7826 Y7.8079 I-0.0413 J-0.0469
G1 X7.7936 Y7.7936
G1 X7.8457 Y7.7536
G2 X7.8489 Y7.7509 I-0.038 J-0.0496
G1 X7.9584 Y7.6544
G1 X8.0001 Y7.6337
G2 X8.0103 Y7.6273 I-0.0278 J-0.056
G1 X8.0246 Y7.6163
G1 X8.0852 Y7.5912
G2 X8.0891 Y7.5895 I-0.0239 J-0.0577
G1 X8.2198 Y7.5245
G1 X8.2654 Y7.5153
G2 X8.2769 Y7.5118 I-0.0124 J-0.0613
G1 X8.2936 Y7.5049
G1 X8.3586 Y7.4964
G2 X8.3628 Y7.4957 I-0.0082 J-0.062
G1 X8.5059 Y7.4668
G1 X8.5523 Y7.4697
G2 X8.5644 Y7.4693 I0.0039 J-0.0624
G1 X8.5822 Y7.4669
G1 X8.6473 Y7.4755
G2 X8.6515 Y7.4759 I0.0082 J-0.062
G1 X8.7972 Y7.485
G1 X8.8413 Y7.4999
G2 X8.853 Y7.5026 I0.0199 J-0.0592
G1 X8.8709 Y7.5049
G1 X8.9315 Y7.53
G2 X8.9355 Y7.5315 I0.0239 J-0.0577
G1 X9.0738 Y7.578
G1 X9.1126 Y7.6038
G2 X9.1233 Y7.6095 I0.0346 J-0.0521
G1 X9.1399 Y7.6163
G1 X9.1919 Y7.6563
G2 X9.1954 Y7.6588 I0.038 J-0.0496
G1 Z-0.6 F30
G1 X9.317 Y7.7395 F25
G1 X9.3478 Y7.7744
G2 X9.3566 Y7.7826 I0.0469 J-0.0413
G1 X9.3709 Y7.7936
G1 X9.4108 Y7.8457
G2 X9.4135 Y7.8489 I0.0496 J-0.038
G1 X9.5101 Y7.9584
G1 X9.5308 Y8.0001
G2 X9.5372 Y8.0103 I0.056 J-0.0278
G1 X9.5481 Y8.0246
G1 X9.5732 Y8.0852
G2 X9.575 Y8.0891 I0.0577 J-0.0239
G1 X9.6399 Y8.2198
G1 X9.6491 Y8.2654
G2 X9.6526 Y8.2769 I0.0613 J-0.0124
G1 X9.6595 Y8.2936
G1 X9.6681 Y8.3586
G2 X9.6688 Y8.3628 I0.062 J-0.0082
G1 X9.6977 Y8.5059
G1 X9.6948 Y8.5523
G2 X9.6947 Y8.5562 I0.0624 J0.0039
G2 X9.6952 Y8.5644 I0.0625 J0
G1 X9.6975 Y8.5822
G1 X9.689 Y8.6473
G2 X9.6886 Y8.6515 I0.062 J0.0082
G1 X9.6794 Y8.7972
G1 X9.6646 Y8.8413
G2 X9.6619 Y8.853 I0.0592 J0.0199
G1 X9.6595 Y8.8709
G1 X9.6344 Y8.9315
G2 X9.6329 Y8.9355 I0.0577 J0.0239
G1 X9.5864 Y9.0738
G1 X9.5607 Y9.1126
G2 X9.5563 Y9.1203 I0.0521 J0.0346
G1 X9.5488 Y9.1361
G1 X9.5072 Y9.1932
G2 X9.5057 Y9.1954 I0.0505 J0.0368
G1 X9.425 Y9.317
G1 X9.3901 Y9.3478
G2 X9.3818 Y9.3566 I0.0413 J0.0469
G1 X9.3709 Y9.3709
G1 X9.3188 Y9.4108
G2 X9.3155 Y9.4135 I0.038 J0.0496
G1 X9.2061 Y9.5101
G1 X9.1644 Y9.5308
G2 X9.1542 Y9.5372 I0.0278 J0.056
G1 X9.1399 Y9.5481
G1 X9.0793 Y9.5732
G2 X9.0754 Y9.575 I0.0239 J0.0577
G1 X8.9447 Y9.6399
G1 X8.8991 Y9.6491
G2 X8.8875 Y9.6526 I0.0124 J0.0613
G1 X8.8709 Y9.6595
G1 X8.8058 Y9.6681
G2 X8.8016 Y9.6688 I0.0082 J0.062
G1 X8.6586 Y9.6977
G1 X8.6121 Y9.6948
G2 X8.6001 Y9.6952 I-0.0039 J0.0624
G1 X8.5822 Y9.6975
G1 X8.5172 Y9.689
G2 X8.5129 Y9.6886 I-0.0082 J0.062
G1 X8.3673 Y9.6794
G1 X8.3232 Y9.6646
G2 X8.3114 Y9.6619 I-0.0199 J0.0592
G1 X8.2936 Y9.6595
G1 X8.2329 Y9.6344
G2 X8.2289 Y9.6329 I-0.0239 J0.0577
G1 X8.0906 Y9.5864
G1 X8.0519 Y9.5607
G2 X8.0412 Y9.555 I-0.0346 J0.0521
G1 X8.0246 Y9.5481
G1 X7.9725 Y9.5082
G2 X7.969 Y9.5057 I-0.038 J0.0496
G1 X7.8475 Y9.425
G1 X7.8167 Y9.3901
G2 X7.8079 Y9.3818 I-0.0469 J0.0413
G1 X7.7936 Y9.3709
G1 X7.7536 Y9.3188
G2 X7.7509 Y9.3155 I-0.0496 J0.038
G1 X7.6544 Y9.2061
G1 X7.6337 Y9.1644
G2 X7.6297 Y9.1576 I-0.056 J0.0278
G1 X7.6169 Y9.1382
G1 X7.5908 Y9.0783
G2 X7.5895 Y9.0754 I-0.0573 J0.0249
G1 X7.5245 Y8.9447
G1 X7.5153 Y8.8991
G2 X7.5118 Y8.8875 I-0.0613 J0.0124
G1 X7.5049 Y8.8709
G1 X7.4964 Y8.8058
G2 X7.4957 Y8.8016 I-0.062 J0.0082
G1 X7.4668 Y8.6586
G1 X7.4697 Y8.6121
G2 X7.4698 Y8.6082 I-0.0624 J-0.0039
G2 X7.4693 Y8.6001 I-0.0625 J0
G1 X7.4669 Y8.5822
G1 X7.4755 Y8.5172
G2 X7.4759 Y8.5129 I-0.062 J-0.0082
G1 X7.485 Y8.3673
G1 X7.4999 Y8.3232
G2 X7.5026 Y8.3114 I-0.0592 J-0.0199
G1 X7.5049 Y8.2936
G1 X7.53 Y8.2329
G2 X7.5315 Y8.2289 I-0.0577 J-0.0239
G1 X7.578 Y8.0906
G1 X7.6038 Y8.0519
G2 X7.6095 Y8.0412 I-0.0521 J-0.0346
G1 X7.6163 Y8.0246
G1 X7.6563 Y7.9725
G2 X7.6588 Y7.969 I-0.0496 J-0.038
G1 X7.7395 Y7.8475
G1 X7.7744 Y7.8167
G2 X7.7826 Y7.8079 I-0.0413 J-0.0469
G1 X7.7936 Y7.7936
G1 X7.8457 Y7.7536
G2 X7.8489 Y7.7509 I-0.038 J-0.0496
G1 X7.9584 Y7.6544
G1 X8.0001 Y7.6337
G2 X8.0103 Y7.6273 I-0.0278 J-0.056
G1 X8.0246 Y7.6163
G1 X8.0852 Y7.5912
G2 X8.0891 Y7.5895 I-0.0239 J-0.0577
G1 X8.2198 Y7.5245
G1 X8.2654 Y7.5153
G2 X8.2769 Y7.5118 I-0.0124 J-0.0613
G1 X8.2936 Y7.5049
G1 X8.3586 Y7.4964
G2 X8.3628 Y7.4957 I-0.0082 J-0.062
G1 X8.5059 Y7.4668
G1 X8.5523 Y7.4697
G2 X8.5644 Y7.4693 I0.0039 J-0.0624
G1 X8.5822 Y7.4669
G1 X8.6473 Y7.4755
G2 X8.6515 Y7.4759 I0.0082 J-0.062
G1 X8.7972 Y7.485
G1 X8.8413 Y7.4999
G2 X8.853 Y7.5026 I0.0199 J-0.0592
G1 X8.8709 Y7.5049
G1 X8.9315 Y7.53
G2 X8.9355 Y7.5315 I0.0239 J-0.0577
G1 X9.0738 Y7.578
G1 X9.1126 Y7.6038
G2 X9.1233 Y7.6095 I0.0346 J-0.0521
G1 X9.1399 Y7.6163
G1 X9.1919 Y7.6563
G2 X9.1954 Y7.6588 I0.038 J-0.0496
G1 Z-0.75 F30
G1 X9.317 Y7.7395 F25
G1 X9.3478 Y7.7744
G2 X9.3566 Y7.7826 I0.0469 J-0.0413
G1 X9.3709 Y7.7936
G1 X9.4108 Y7.8457
G2 X9.4135 Y7.8489 I0.0496 J-0.038
G1 X9.5101 Y7.9584
G1 X9.5308 Y8.0001
G2 X9.5372 Y8.0103 I0.056 J-0.0278
G1 X9.5481 Y8.0246
G1 X9.5732 Y8.0852
G2 X9.575 Y8.0891 I0.0577 J-0.0239
G1 X9.6399 Y8.2198
G1 X9.6491 Y8.2654
G2 X9.6526 Y8.2769 I0.0613 J-0.0124
G1 X9.6595 Y8.2936
G1 X9.6681 Y8.3586
G2 X9.6688 Y8.3628 I0.062 J-0.0082
G1 X9.6977 Y8.5059
G1 X9.6948 Y8.5523
G2 X9.6947 Y8.5562 I0.0624 J0.0039
G2 X9.6952 Y8.5644 I0.0625 J0
G1 X9.6975 Y8.5822
G1 X9.689 Y8.6473
G2 X9.6886 Y8.6515 I0.062 J0.0082
G1 X9.6794 Y8.7972
G1 X9.6646 Y8.8413
G2 X9.6619 Y8.853 I0.0592 J0.0199
G1 X9.6595 Y8.8709
G1 X9.6344 Y8.9315
G2 X9.6329 Y8.9355 I0.0577 J0.0239
G1 X9.5864 Y9.0738
G1 X9.5607 Y9.1126
G2 X9.5563 Y9.1203 I0.0521 J0.0346
G1 X9.5488 Y9.1361
G1 X9.5072 Y9.1932
G2 X9.5057 Y9.1954 I0.0505 J0.0368
G1 X9.425 Y9.317
G1 X9.3901 Y9.3478
G2 X9.3818 Y9.3566 I0.0413 J0.0469
G1 X9.3709 Y9.3709
G1 X9.3188 Y9.4108
G2 X9.3155 Y9.4135 I0.038 J0.0496
G1 X9.2061 Y9.5101
G1 X9.1644 Y9.5308
G2 X9.1542 Y9.5372 I0.0278 J0.056
G1 X9.1399 Y9.5481
G1 X9.0793 Y9.5732
G2 X9.0754 Y9.575 I0.0239 J0.0577
G1 X8.9447 Y9.6399
G1 X8.8991 Y9.6491
G2 X8.8875 Y9.6526 I0.0124 J0.0613
G1 X8.8709 Y9.6595
G1 X8.8058 Y9.6681
G2 X8.8016 Y9.6688 I0.0082 J0.062
G1 X8.6586 Y9.6977
G1 X8.6121 Y9.6948
G2 X8.6001 Y9.6952 I-0.0039 J0.0624
G1 X8.5822 Y9.6975
G1 X8.5172 Y9.689
G2 X8.5129 Y9.6886 I-0.0082 J0.062
G1 X8.3673 Y9.6794
G1 X8.3232 Y9.6646
G2 X8.3114 Y9.6619 I-0.0199 J0.0592
G1 X8.2936 Y9.6595
G1 X8.2329 Y9.6344
G2 X8.2289 Y9.6329 I-0.0239 J0.0577
G1 X8.0906 Y9.5864
G1 X8.0519 Y9.5607
G2 X8.0412 Y9.555 I-0.0346 J0.0521
G1 X8.0246 Y9.5481
G1 X7.9725 Y9.5082
G2 X7.969 Y9.5057 I-0.038 J0.0496
G1 X7.8475 Y9.425
G1 X7.8167 Y9.3901
G2 X7.8079 Y9.3818 I-0.0469 J0.0413
G1 X7.7936 Y9.3709
G1 X7.7536 Y9.3188
G2 X7.7509 Y9.3155 I-0.0496 J0.038
G1 X7.6544 Y9.2061
G1 X7.6337 Y9.1644
G2 X7.6297 Y9.1576 I-0.056 J0.0278
G1 X7.6169 Y9.1382
G1 X7.5908 Y9.0783
G2 X7.5895 Y9.0754 I-0.0573 J0.0249
G1 X7.5245 Y8.9447
G1 X7.5153 Y8.8991
G2 X7.5118 Y8.8875 I-0.0613 J0.0124
G1 X7.5049 Y8.8709
G1 X7.4964 Y8.8058
G2 X7.4957 Y8.8016 I-0.062 J0.0082
G1 X7.4668 Y8.6586
G1 X7.4697 Y8.6121
G2 X7.4698 Y8.6082 I-0.0624 J-0.0039
G2 X7.4693 Y8.6001 I-0.0625 J0
G1 X7.4669 Y8.5822
G1 X7.4755 Y8.5172
G2 X7.4759 Y8.5129 I-0.062 J-0.0082
G1 X7.485 Y8.3673
G1 X7.4999 Y8.3232
G2 X7.5026 Y8.3114 I-0.0592 J-0.0199
G1 X7.5049 Y8.2936
G1 X7.53 Y8.2329
G2 X7.5315 Y8.2289 I-0.0577 J-0.0239
G1 X7.578 Y8.0906
G1 X7.6038 Y8.0519
G2 X7.6095 Y8.0412 I-0.0521 J-0.0346
G1 X7.6163 Y8.0246
G1 X7.6563 Y7.9725
G2 X7.6588 Y7.969 I-0.0496 J-0.038
G1 X7.7395 Y7.8475
G1 X7.7744 Y7.8167
G2 X7.7826 Y7.8079 I-0.0413 J-0.0469
G1 X7.7936 Y7.7936
G1 X7.8457 Y7.7536
G2 X7.8489 Y7.7509 I-0.038 J-0.0496
G1 X7.9584 Y7.6544
G1 X8.0001 Y7.6337
G2 X8.0103 Y7.6273 I-0.0278 J-0.056
G1 X8.0246 Y7.6163
G1 X8.0852 Y7.5912
G2 X8.0891 Y7.5895 I-0.0239 J-0.0577
G1 X8.2198 Y7.5245
G1 X8.2654 Y7.5153
G2 X8.2769 Y7.5118 I-0.0124 J-0.0613
G1 X8.2936 Y7.5049
G1 X8.3586 Y7.4964
G2 X8.3628 Y7.4957 I-0.0082 J-0.062
G1 X8.5059 Y7.4668
G1 X8.5523 Y7.4697
G2 X8.5644 Y7.4693 I0.0039 J-0.0624
G1 X8.5822 Y7.4669
G1 X8.6473 Y7.4755
G2 X8.6515 Y7.4759 I0.0082 J-0.062
G1 X8.7972 Y7.485
G1 X8.8413 Y7.4999
G2 X8.853 Y7.5026 I0.0199 J-0.0592
G1 X8.8709 Y7.5049
G1 X8.9315 Y7.53
G2 X8.9355 Y7.5315 I0.0239 J-0.0577
G1 X9.0738 Y7.578
G1 X9.1126 Y7.6038
G2 X9.1233 Y7.6095 I0.0346 J-0.0521
G1 X9.1399 Y7.6163
G1 X9.1919 Y7.6563
G2 X9.1954 Y7.6588 I0.038 J-0.0496
G1 Z-0.85 F30
G1 X9.317 Y7.7395 F25
G1 X9.3478 Y7.7744
G2 X9.3566 Y7.7826 I0.0469 J-0.0413
G1 X9.3709 Y7.7936
G1 X9.4108 Y7.8457
G2 X9.4135 Y7.8489 I0.0496 J-0.038
G1 X9.5101 Y7.9584
G1 X9.5308 Y8.0001
G2 X9.5372 Y8.0103 I0.056 J-0.0278
G1 X9.5481 Y8.0246
G1 X9.5732 Y8.0852
G2 X9.575 Y8.0891 I0.0577 J-0.0239
G1 X9.6399 Y8.2198
G1 X9.6491 Y8.2654
G2 X9.6526 Y8.2769 I0.0613 J-0.0124
G1 X9.6595 Y8.2936
G1 X9.6681 Y8.3586
G2 X9.6688 Y8.3628 I0.062 J-0.0082
G1 X9.6977 Y8.5059
G1 X9.6948 Y8.5523
G2 X9.6947 Y8.5562 I0.0624 J0.0039
G2 X9.6952 Y8.5644 I0.0625 J0
G1 X9.6975 Y8.5822
G1 X9.689 Y8.6473
G2 X9.6886 Y8.6515 I0.062 J0.0082
G1 X9.6794 Y8.7972
G1 X9.6646 Y8.8413
G2 X9.6619 Y8.853 I0.0592 J0.0199
G1 X9.6595 Y8.8709
G1 X9.6344 Y8.9315
G2 X9.6329 Y8.9355 I0.0577 J0.0239
G1 X9.5864 Y9.0738
G1 X9.5607 Y9.1126
G2 X9.5563 Y9.1203 I0.0521 J0.0346
G1 X9.5488 Y9.1361
G1 X9.5072 Y9.1932
G2 X9.5057 Y9.1954 I0.0505 J0.0368
G1 X9.425 Y9.317
G1 X9.3901 Y9.3478
G2 X9.3818 Y9.3566 I0.0413 J0.0469
G1 X9.3709 Y9.3709
G1 X9.3188 Y9.4108
G2 X9.3155 Y9.4135 I0.038 J0.0496
G1 X9.2061 Y9.5101
G1 X9.1644 Y9.5308
G2 X9.1542 Y9.5372 I0.0278 J0.056
G1 X9.1399 Y9.5481
G1 X9.0793 Y9.5732
G2 X9.0754 Y9.575 I0.0239 J0.0577
G1 X8.9447 Y9.6399
G1 X8.8991 Y9.6491
G2 X8.8875 Y9.6526 I0.0124 J0.0613
G1 X8.8709 Y9.6595
G1 X8.8058 Y9.6681
G2 X8.8016 Y9.6688 I0.0082 J0.062
G1 X8.6586 Y9.6977
G1 X8.6121 Y9.6948
G2 X8.6001 Y9.6952 I-0.0039 J0.0624
G1 X8.5822 Y9.6975
G1 X8.5172 Y9.689
G2 X8.5129 Y9.6886 I-0.0082 J0.062
G1 X8.3673 Y9.6794
G1 X8.3232 Y9.6646
G2 X8.3114 Y9.6619 I-0.0199 J0.0592
G1 X8.2936 Y9.6595
G1 X8.2329 Y9.6344
G2 X8.2289 Y9.6329 I-0.0239 J0.0577
G1 X8.0906 Y9.5864
G1 X8.0519 Y9.5607
G2 X8.0412 Y9.555 I-0.0346 J0.0521
G1 X8.0246 Y9.5481
G1 X7.9725 Y9.5082
G2 X7.969 Y9.5057 I-0.038 J0.0496
G1 X7.8475 Y9.425
G1 X7.8167 Y9.3901
G2 X7.8079 Y9.3818 I-0.0469 J0.0413
G1 X7.7936 Y9.3709
G1 X7.7536 Y9.3188
G2 X7.7509 Y9.3155 I-0.0496 J0.038
G1 X7.6544 Y9.2061
G1 X7.6337 Y9.1644
G2 X7.6297 Y9.1576 I-0.056 J0.0278
G1 X7.6169 Y9.1382
G1 X7.5908 Y9.0783
G2 X7.5895 Y9.0754 I-0.0573 J0.0249
G1 X7.5245 Y8.9447
G1 X7.5153 Y8.8991
G2 X7.5118 Y8.8875 I-0.0613 J0.0124
G1 X7.5049 Y8.8709
G1 X7.4964 Y8.8058
G2 X7.4957 Y8.8016 I-0.062 J0.0082
G1 X7.4668 Y8.6586
G1 X7.4697 Y8.6121
G2 X7.4698 Y8.6082 I-0.0624 J-0.0039
G2 X7.4693 Y8.6001 I-0.0625 J0
G1 X7.4669 Y8.5822
G1 X7.4755 Y8.5172
G2 X7.4759 Y8.5129 I-0.062 J-0.0082
G1 X7.485 Y8.3673
G1 X7.4999 Y8.3232
G2 X7.5026 Y8.3114 I-0.0592 J-0.0199
G1 X7.5049 Y8.2936
G1 X7.53 Y8.2329
G2 X7.5315 Y8.2289 I-0.0577 J-0.0239
G1 X7.578 Y8.0906
G1 X7.6038 Y8.0519
G2 X7.6095 Y8.0412 I-0.0521 J-0.0346
G1 X7.6163 Y8.0246
G1 X7.6563 Y7.9725
G2 X7.6588 Y7.969 I-0.0496 J-0.038
G1 X7.7395 Y7.8475
G1 X7.7744 Y7.8167
G2 X7.7826 Y7.8079 I-0.0413 J-0.0469
G1 X7.7936 Y7.7936
G1 X7.8457 Y7.7536
G2 X7.8489 Y7.7509 I-0.038 J-0.0496
G1 X7.9584 Y7.6544
G1 X8.0001 Y7.6337
G2 X8.0103 Y7.6273 I-0.0278 J-0.056
G1 X8.0246 Y7.6163
G1 X8.0852 Y7.5912
G2 X8.0891 Y7.5895 I-0.0239 J-0.0577
G1 X8.2198 Y7.5245
G1 X8.2654 Y7.5153
G2 X8.2769 Y7.5118 I-0.0124 J-0.0613
G1 X8.2936 Y7.5049
G1 X8.3586 Y7.4964
G2 X8.3628 Y7.4957 I-0.0082 J-0.062
G1 X8.5059 Y7.4668
G1 X8.5523 Y7.4697
G2 X8.5644 Y7.4693 I0.0039 J-0.0624
G1 X8.5822 Y7.4669
G1 X8.6473 Y7.4755
G2 X8.6515 Y7.4759 I0.0082 J-0.062
G1 X8.7972 Y7.485
G1 X8.8413 Y7.4999
G2 X8.853 Y7.5026 I0.0199 J-0.0592
G1 X8.8709 Y7.5049
G1 X8.9315 Y7.53
G2 X8.9355 Y7.5315 I0.0239 J-0.0577
G1 X9.0738 Y7.578
G1 X9.1126 Y7.6038
G2 X9.1233 Y7.6095 I0.0346 J-0.0521
G1 X9.1399 Y7.6163
G1 X9.1919 Y7.6563
G2 X9.1954 Y7.6588 I0.038 J-0.0496

(profile 2)
G0 Z0.25
G0 X12.1698 Y15.4615
G1 Z-0.15 F30
G1 X12.2021 Y15.4482 F25
G1 X12.2368 Y15.4436
G1 X12.2714 Y15.4482
G1 X12.3037 Y15.4615
G1 X12.3314 Y15.4828
G1 X12.3526 Y15.5105
G1 X12.366 Y15.5428
G1 X12.3706 Y15.5774
G1 X12.366 Y15.612
G1 X12.3526 Y15.6443
G1 X12.3314 Y15.672
G1 X12.3037 Y15.6933
G1 X12.2714 Y15.7067
G1 X12.2368 Y15.7112
G1 X12.2021 Y15.7067
G1 X12.1698 Y15.6933
G1 X12.1421 Y15.672
G1 X12.1209 Y15.6443
G1 X12.1075 Y15.612
G1 X12.1029 Y15.5774
G1 X12.1075 Y15.5428
G1 X12.1209 Y15.5105
G1 X12.1421 Y15.4828
G1 X12.1698 Y15.4615
G1 Z-0.3 F30
G1 X12.2021 Y15.4482 F25
G1 X12.2368 Y15.4436
G1 X12.2714 Y15.4482
G1 X12.3037 Y15.4615
G1 X12.3314 Y15.4828
G1 X12.3526 Y15.5105
G1 X12.366 Y15.5428
G1 X12.3706 Y15.5774
G1 X12.366 Y15.612
G1 X12.3526 Y15.6443
G1 X12.3314 Y15.672
G1 X12.3037 Y15.6933
G1 X12.2714 Y15.7067
G1 X12.2368 Y15.7112
G1 X12.2021 Y15.7067
G1 X12.1698 Y15.6933
G1 X12.1421 Y15.672
G1 X12.1209 Y15.6443
G1 X12.1075 Y15.612
G1 X12.1029 Y15.5774
G1 X12.1075 Y15.5428
G1 X12.1209 Y15.5105
G1 X12.1421 Y15.4828
G1 X12.1698 Y15.4615
G1 Z-0.45 F30
G1 X12.2021 Y15.4482 F25
G1 X12.2368 Y15.4436
G1 X12.2714 Y15.4482
G1 X12.3037 Y15.4615
G1 X12.3314 Y15.4828
G1 X12.3526 Y15.5105
G1 X12.366 Y15.5428
G1 X12.3706 Y15.5774
G1 X12.366 Y15.612
G1 X12.3526 Y15.6443
G1 X12.3314 Y15.672
G1 X12.3037 Y15.6933
G1 X12.2714 Y15.7067
G1 X12.2368 Y15.7112
G1 X12.2021 Y15.7067
G1 X12.1698 Y15.6933
G1 X12.1421 Y15.672
G1 X12.1209 Y15.6443
G1 X12.1075 Y15.612
G1 X12.1029 Y15.5774
G1 X12.1075 Y15.5428
G1 X12.1209 Y15.5105
G1 X12.1421 Y15.4828
G1 X12.1698 Y15.4615
G1 Z-0.6 F30
G1 X12.2021 Y15.4482 F25
G1 X12.2368 Y15.4436
G1 X12.2714 Y15.4482
G1 X12.3037 Y15.4615
G1 X12.3314 Y15.4828
G1 X12.3526 Y15.5105
G1 X12.366 Y15.5428
G1 X12.3706 Y15.5774
G1 X12.366 Y15.612
G1 X12.3526 Y15.6443
G1 X12.3314 Y15.672
G1 X12.3037 Y15.6933
G1 X12.2714 Y15.7067
G1 X12.2368 Y15.7112
G1 X12.2021 Y15.7067
G1 X12.1698 Y15.6933
G1 X12.1421 Y15.672
G1 X12.1209 Y15.6443
G1 X12.1075 Y15.612
G1 X12.1029 Y15.5774
G1 X12.1075 Y15.5428
G1 X12.1209 Y15.5105
G1 X12.1421 Y15.4828
G1 X12.1698 Y15.4615
G1 Z-0.75 F30
G1 X12.2021 Y15.4482 F25
G1 X12.2368 Y15.4436
G1 X12.2714 Y15.4482
G1 X12.3037 Y15.4615
G1 X12.3314 Y15.4828
G1 X12.3526 Y15.5105
G1 X12.366 Y15.5428
G1 X12.3706 Y15.5774
G1 X12.366 Y15.612
G1 X12.3526 Y15.6443
G1 X12.3314 Y15.672
G1 X12.3037 Y15.6933
G1 X12.2714 Y15.7067
G1 X12.2368 Y15.7112
G1 X12.2021 Y15.7067
G1 X12.1698 Y15.6933
G1 X12.1421 Y15.672
G1 X12.1209 Y15.6443
G1 X12.1075 Y15.612
G1 X12.1029 Y15.5774
G1 X12.1075 Y15.5428
G1 X12.1209 Y15.5105
G1 X12.1421 Y15.4828
G1 X12.1698 Y15.4615
G1 Z-0.85 F30
G1 X12.2021 Y15.4482 F25
G1 X12.2368 Y15.4436
G1 X12.2714 Y15.4482
G1 X12.3037 Y15.4615
G1 X12.3314 Y15.4828
G1 X12.3526 Y15.5105
G1 X12.366 Y15.5428
G1 X12.3706 Y15.5774
G1 X12.366 Y15.612
G1 X12.3526 Y15.6443
G1 X12.3314 Y15.672
G1 X12.3037 Y15.6933
G1 X12.2714 Y15.7067
G1 X12.2368 Y15.7112
G1 X12.2021 Y15.7067
G1 X12.1698 Y15.6933
G1 X12.1421 Y15.672
G1 X12.1209 Y15.6443
G1 X12.1075 Y15.612
G1 X12.1029 Y15.5774
G1 X12.1075 Y15.5428
G1 X12.1209 Y15.5105
G1 X12.1421 Y15.4828
G1 X12.1698 Y15.4615
G0 Z0.25
G0 X4.8331 Y15.4828
G1 Z-0.15 F30
G1 X4.8608 Y15.4615 F25
G1 X4.8931 Y15.4482
G1 X4.9277 Y15.4436
G1 X4.9623 Y15.4482
G1 X4.9946 Y15.4615
G1 X5.0223 Y15.4828
G1 X5.0436 Y15.5105
G1 X5.057 Y15.5428
G1 X5.0615 Y15.5774
G1 X5.057 Y15.612
G1 X5.0436 Y15.6443
G1 X5.0223 Y15.672
G1 X4.9946 Y15.6933
G1 X4.9623 Y15.7067
G1 X4.9277 Y15.7112
G1 X4.8931 Y15.7067
G1 X4.8608 Y15.6933
G1 X4.8331 Y15.672
G1 X4.8118 Y15.6443
G1 X4.7985 Y15.612
G1 X4.7939 Y15.5774
G1 X4.7985 Y15.5428
G1 X4.8118 Y15.5105
G1 X4.8331 Y15.4828
G1 Z-0.3 F30
G1 X4.8608 Y15.4615 F25
G1 X4.8931 Y15.4482
G1 X4.9277 Y15.4436
G1 X4.9623 Y15.4482
G1 X4.9946 Y15.4615
G1 X5.0223 Y15.4828
G1 X5.0436 Y15.5105
G1 X5.057 Y15.5428
G1 X5.0615 Y15.5774
G1 X5.057 Y15.612
G1 X5.0436 Y15.6443
G1 X5.0223 Y15.672
G1 X4.9946 Y15.6933
G1 X4.9623 Y15.7067
G1 X4.9277 Y15.7112
G1 X4.8931 Y15.7067
G1 X4.8608 Y15.6933
G1 X4.8331 Y15.672
G1 X4.8118 Y15.6443
G1 X4.7985 Y15.612
G1 X4.7939 Y15.5774
G1 X4.7985 Y15.5428
G1 X4.8118 Y15.5105
G1 X4.8331 Y15.4828
G1 Z-0.45 F30
G1 X4.8608 Y15.4615 F25
G1 X4.8931 Y15.4482
G1 X4.9277 Y15.4436
G1 X4.9623 Y15.4482
G1 X4.9946 Y15.4615
G1 X5.0223 Y15.4828
G1 X5.0436 Y15.5105
G1 X5.057 Y15.5428
G1 X5.0615 Y15.5774
G1 X5.057 Y15.612
G1 X5.0436 Y15.6443
G1 X5.0223 Y15.672
G1 X4.9946 Y15.6933
G1 X4.9623 Y15.7067
G1 X4.9277 Y15.7112
G1 X4.8931 Y15.7067
G1 X4.8608 Y15.6933
G1 X4.8331 Y15.672
G1 X4.8118 Y15.6443
G1 X4.7985 Y15.612
G1 X4.7939 Y15.5774
G1 X4.7985 Y15.5428
G1 X4.8118 Y15.5105
G1 X4.8331 Y15.4828
G1 Z-0.6 F30
G1 X4.8608 Y15.4615 F25
G1 X4.8931 Y15.4482
G1 X4.9277 Y15.4436
G1 X4.9623 Y15.4482
G1 X4.9946 Y15.4615
G1 X5.0223 Y15.4828
G1 X5.0436 Y15.5105
G1 X5.057 Y15.5428
G1 X5.0615 Y15.5774
G1 X5.057 Y15.612
G1 X5.0436 Y15.6443
G1 X5.0223 Y15.672
G1 X4.9946 Y15.6933
G1 X4.9623 Y15.7067
G1 X4.9277 Y15.7112
G1 X4.8931 Y15.7067
G1 X4.8608 Y15.6933
G1 X4.8331 Y15.672
G1 X4.8118 Y15.6443
G1 X4.7985 Y15.612
G1 X4.7939 Y15.5774
G1 X4.7985 Y15.5428
G1 X4.8118 Y15.5105
G1 X4.8331 Y15.4828
G1 Z-0.75 F30
G1 X4.8608 Y15.4615 F25
G1 X4.8931 Y15.4482
G1 X4.9277 Y15.4436
G1 X4.9623 Y15.4482
G1 X4.9946 Y15.4615
G1 X5.0223 Y15.4828
G1 X5.0436 Y15.5105
G1 X5.057 Y15.5428
G1 X5.0615 Y15.5774
G1 X5.057 Y15.612
G1 X5.0436 Y15.6443
G1 X5.0223 Y15.672
G1 X4.9946 Y15.6933
G1 X4.9623 Y15.7067
G1 X4.9277 Y15.7112
G1 X4.8931 Y15.7067
G1 X4.8608 Y15.6933
G1 X4.8331 Y15.672
G1 X4.8118 Y15.6443
G1 X4.7985 Y15.612
G1 X4.7939 Y15.5774
G1 X4.7985 Y15.5428
G1 X4.8118 Y15.5105
G1 X4.8331 Y15.4828
G1 Z-0.85 F30
G1 X4.8608 Y15.4615 F25
G1 X4.8931 Y15.4482
G1 X4.9277 Y15.4436
G1 X4.9623 Y15.4482
G1 X4.9946 Y15.4615
G1 X5.0223 Y15.4828
G1 X5.0436 Y15.5105
G1 X5.057 Y15.5428
G1 X5.0615 Y15.5774
G1 X5.057 Y15.612
G1 X5.0436 Y15.6443
G1 X5.0223 Y15.672
G1 X4.9946 Y15.6933
G1 X4.9623 Y15.7067
G1 X4.9277 Y15.7112
G1 X4.8931 Y15.7067
G1 X4.8608 Y15.6933
G1 X4.8331 Y15.672
G1 X4.8118 Y15.6443
G1 X4.7985 Y15.612
G1 X4.7939 Y15.5774
G1 X4.7985 Y15.5428
G1 X4.8118 Y15.5105
G1 X4.8331 Y15.4828
G0 Z0.25
G0 X1.7185 Y12.212
G1 Z-0.15 F30
G1 X1.7205 Y12.2469 F25
G1 X1.7133 Y12.2811
G1 X1.6975 Y12.3122
G1 X1.6742 Y12.3383
G1 X1.645 Y12.3574
G1 X1.6118 Y12.3683
G1 X1.5769 Y12.3702
G1 X1.5427 Y12.363
G1 X1.5116 Y12.3472
G1 X1.4855 Y12.3239
G1 X1.4664 Y12.2947
G1 X1.4555 Y12.2615
G1 X1.4536 Y12.2266
G1 X1.4608 Y12.1924
G1 X1.4766 Y12.1613
G1 X1.4999 Y12.1352
G1 X1.5291 Y12.1161
G1 X1.5623 Y12.1053
G1 X1.5972 Y12.1033
G1 X1.6314 Y12.1105
G1 X1.6625 Y12.1263
G1 X1.6885 Y12.1496
G1 X1.7077 Y12.1788
G1 X1.7185 Y12.212
G1 Z-0.3 F30
G1 X1.7205 Y12.2469 F25
G1 X1.7133 Y12.2811
G1 X1.6975 Y12.3122
G1 X1.6742 Y12.3383
G1 X1.645 Y12.3574
G1 X1.6118 Y12.3683
G1 X1.5769 Y12.3702
G1 X1.5427 Y12.363
G1 X1.5116 Y12.3472
G1 X1.4855 Y12.3239
G1 X1.4664 Y12.2947
G1 X1.4555 Y12.2615
G1 X1.4536 Y12.2266
G1 X1.4608 Y12.1924
G1 X1.4766 Y12.1613
G1 X1.4999 Y12.1352
G1 X1.5291 Y12.1161
G1 X1.5623 Y12.1053
G1 X1.5972 Y12.1033
G1 X1.6314 Y12.1105
G1 X1.6625 Y12.1263
G1 X1.6885 Y12.1496
G1 X1.7077 Y12.1788
G1 X1.7185 Y12.212
G1 Z-0.45 F30
G1 X1.7205 Y12.2469 F25
G1 X1.7133 Y12.2811
G1 X1.6975 Y12.3122
G1 X1.6742 Y12.3383
G1 X1.645 Y12.3574
G1 X1.6118 Y12.3683
G1 X1.5769 Y12.3702
G1 X1.5427 Y12.363
G1 X1.5116 Y12.3472
G1 X1.4855 Y12.3239
G1 X1.4664 Y12.2947
G1 X1.4555 Y12.2615
G1 X1.4536 Y12.2266
G1 X1.4608 Y12.1924
G1 X1.4766 Y12.1613
G1 X1.4999 Y12.1352
G1 X1.5291 Y12.1161
G1 X1.5623 Y12.1053
G1 X1.5972 Y12.1033
G1 X1.6314 Y12.1105
G1 X1.6625 Y12.1263
G1 X1.6885 Y12.1496
G1 X1.7077 Y12.1788
G1 X1.7185 Y12.212
G1 Z-0.6 F30
G1 X1.7205 Y12.2469 F25
G1 X1.7133 Y12.2811
G1 X1.6975 Y12.3122
G1 X1.6742 Y12.3383
G1 X1.645 Y12.3574
G1 X1.6118 Y12.3683
G1 X1.5769 Y12.3702
G1 X1.5427 Y12.363
G1 X1.5116 Y12.3472
G1 X1.4855 Y12.3239
G1 X1.4664 Y12.2947
G1 X1.4555 Y12.2615
G1 X1.4536 Y12.2266
G1 X1.4608 Y12.1924
G1 X1.4766 Y12.1613
G1 X1.4999 Y12.1352
G1 X1.5291 Y12.1161
G1 X1.5623 Y12.1053
G1 X1.5972 Y12.1033
G1 X1.6314 Y12.1105
G1 X1.6625 Y12.1263
G1 X1.6885 Y12.1496
G1 X1.7077 Y12.1788
G1 X1.7185 Y12.212
G1 Z-0.75 F30
G1 X1.7205 Y12.2469 F25
G1 X1.7133 Y12.2811
G1 X1.6975 Y12.3122
G1 X1.6742 Y12.3383
G1 X1.645 Y12.3574
G1 X1.6118 Y12.3683
G1 X1.5769 Y12.3702
G1 X1.5427 Y12.363
G1 X1.5116 Y12.3472
G1 X1.4855 Y12.3239
G1 X1.4664 Y12.2947
G1 X1.4555 Y12.2615
G1 X1.4536 Y12.2266
G1 X1.4608 Y12.1924
G1 X1.4766 Y12.1613
G1 X1.4999 Y12.1352
G1 X1.5291 Y12.1161
G1 X1.5623 Y12.1053
G1 X1.5972 Y12.1033
G1 X1.6314 Y12.1105
G1 X1.6625 Y12.1263
G1 X1.6885 Y12.1496
G1 X1.7077 Y12.1788
G1 X1.7185 Y12.212
G1 Z-0.85 F30
G1 X1.7205 Y12.2469 F25
G1 X1.7133 Y12.2811
G1 X1.6975 Y12.3122
G1 X1.6742 Y12.3383
G1 X1.645 Y12.3574
G1 X1.6118 Y12.3683
G1 X1.5769 Y12.3702
G1 X1.5427 Y12.363
G1 X1.5116 Y12.3472
G1 X1.4855 Y12.3239
G1 X1.4664 Y12.2947
G1 X1.4555 Y12.2615
G1 X1.4536 Y12.2266
G1 X1.4608 Y12.1924
G1 X1.4766 Y12.1613
G1 X1.4999 Y12.1352
G1 X1.5291 Y12.1161
G1 X1.5623 Y12.1053
G1 X1.5972 Y12.1033
G1 X1.6314 Y12.1105
G1 X1.6625 Y12.1263
G1 X1.6885 Y12.1496
G1 X1.7077 Y12.1788
G1 X1.7185 Y12.212
G0 Z0.25
G0 X15.612 Y12.1075
G1 Z-0.15 F30
G1 X15.6443 Y12.1209 F25
G1 X15.672 Y12.1421
G1 X15.6933 Y12.1698
G1 X15.7067 Y12.2021
G1 X15.7112 Y12.2368
G1 X15.7067 Y12.2714
G1 X15.6933 Y12.3037
G1 X15.672 Y12.3314
G1 X15.6443 Y12.3526
G1 X15.612 Y12.366
G1 X15.5774 Y12.3706
G1 X15.5428 Y12.366
G1 X15.5105 Y12.3526
G1 X15.4828 Y12.3314
G1 X15.4615 Y12.3037
G1 X15.4482 Y12.2714
G1 X15.4436 Y12.2368
G1 X15.4482 Y12.2021
G1 X15.4615 Y12.1698
G1 X15.4828 Y12.1421
G1 X15.5105 Y12.1209
G1 X15.5428 Y12.1075
G1 X15.5774 Y12.1029
G1 X15.612 Y12.1075
G1 Z-0.3 F30
G1 X15.6443 Y12.1209 F25
G1 X15.672 Y12.1421
G1 X15.6933 Y12.1698
G1 X15.7067 Y12.2021
G1 X15.7112 Y12.2368
G1 X15.7067 Y12.2714
G1 X15.6933 Y12.3037
G1 X15.672 Y12.3314
G1 X15.6443 Y12.3526
G1 X15.612 Y12.366
G1 X15.5774 Y12.3706
G1 X15.5428 Y12.366
G1 X15.5105 Y12.3526
G1 X15.4828 Y12.3314
G1 X15.4615 Y12.3037
G1 X15.4482 Y12.2714
G1 X15.4436 Y12.2368
G1 X15.4482 Y12.2021
G1 X15.4615 Y12.1698
G1 X15.4828 Y12.1421
G1 X15.5105 Y12.1209
G1 X15.5428 Y12.1075
G1 X15.5774 Y12.1029
G1 X15.612 Y12.1075
G1 Z-0.45 F30
G1 X15.6443 Y12.1209 F25
G1 X15.672 Y12.1421
G1 X15.6933 Y12.1698
G1 X15.7067 Y12.2021
G1 X15.7112 Y12.2368
G1 X15.7067 Y12.2714
G1 X15.6933 Y12.3037
G1 X15.672 Y12.3314
G1 X15.6443 Y12.3526
G1 X15.612 Y12.366
G1 X15.5774 Y12.3706
G1 X15.5428 Y12.366
G1 X15.5105 Y12.3526
G1 X15.4828 Y12.3314
G1 X15.4615 Y12.3037
G1 X15.4482 Y12.2714
G1 X15.4436 Y12.2368
G1 X15.4482 Y12.2021
G1 X15.4615 Y12.1698
G1 X15.4828 Y12.1421
G1 X15.5105 Y12.1209
G1 X15.5428 Y12.1075
G1 X15.5774 Y12.1029
G1 X15.612 Y12.1075
G1 Z-0.6 F30
G1 X15.6443 Y12.1209 F25
G1 X15.672 Y12.1421
G1 X15.6933 Y12.1698
G1 X15.7067 Y12.2021
G1 X15.7112 Y12.2368
G1 X15.7067 Y12.2714
G1 X15.6933 Y12.3037
G1 X15.672 Y12.3314
G1 X15.6443 Y12.3526
G1 X15.612 Y12.366
G1 X15.5774 Y12.3706
G1 X15.5428 Y12.366
G1 X15.5105 Y12.3526
G1 X15.4828 Y12.3314
G1 X15.4615 Y12.3037
G1 X15.4482 Y12.2714
G1 X15.4436 Y12.2368
G1 X15.4482 Y12.2021
G1 X15.4615 Y12.1698
G1 X15.4828 Y12.1421
G1 X15.5105 Y12.1209
G1 X15.5428 Y12.1075
G1 X15.5774 Y12.1029
G1 X15.612 Y12.1075
G1 Z-0.75 F30
G1 X15.6443 Y12.1209 F25
G1 X15.672 Y12.1421
G1 X15.6933 Y12.1698
G1 X15.7067 Y12.2021
G1 X15.7112 Y12.2368
G1 X15.7067 Y12.2714
G1 X15.6933 Y12.3037
G1 X15.672 Y12.3314
G1 X15.6443 Y12.3526
G1 X15.612 Y12.366
G1 X15.5774 Y12.3706
G1 X15.5428 Y12.366
G1 X15.5105 Y12.3526
G1 X15.4828 Y12.3314
G1 X15.4615 Y12.3037
G1 X15.4482 Y12.2714
G1 X15.4436 Y12.2368
G1 X15.4482 Y12.2021
G1 X15.4615 Y12.1698
G1 X15.4828 Y12.1421
G1 X15.5105 Y12.1209
G1 X15.5428 Y12.1075
G1 X15.5774 Y12.1029
G1 X15.612 Y12.1075
G1 Z-0.85 F30
G1 X15.6443 Y12.1209 F25
G1 X15.672 Y12.1421
G1 X15.6933 Y12.1698
G1 X15.7067 Y12.2021
G1 X15.7112 Y12.2368
G1 X15.7067 Y12.2714
G1 X15.6933 Y12.3037
G1 X15.672 Y12.3314
G1 X15.6443 Y12.3526
G1 X15.612 Y12.366
G1 X15.5774 Y12.3706
G1 X15.5428 Y12.366
G1 X15.5105 Y12.3526
G1 X15.4828 Y12.3314
G1 X15.4615 Y12.3037
G1 X15.4482 Y12.2714
G1 X15.4436 Y12.2368
G1 X15.4482 Y12.2021
G1 X15.4615 Y12.1698
G1 X15.4828 Y12.1421
G1 X15.5105 Y12.1209
G1 X15.5428 Y12.1075
G1 X15.5774 Y12.1029
G1 X15.612 Y12.1075
G0 Z0.25
G0 X3.5375 Y3.5721
G1 Z-0.15 F30
G1 X3.5525 Y3.5525 F25
G1 X3.5721 Y3.5375
G1 X3.5948 Y3.5281
G1 X3.6193 Y3.5248
G1 X3.6437 Y3.5281
G1 X3.6665 Y3.5375
G1 X3.6861 Y3.5525
G1 X3.7011 Y3.5721
G1 X3.7105 Y3.5948
G1 X3.7137 Y3.6193
G1 X3.7105 Y3.6437
G1 X3.7011 Y3.6665
G1 X3.6861 Y3.6861
G1 X3.6665 Y3.7011
G1 X3.6437 Y3.7105
G1 X3.6193 Y3.7137
G1 X3.5948 Y3.7105
G1 X3.5721 Y3.7011
G1 X3.5525 Y3.6861
G1 X3.5375 Y3.6665
G1 X3.5281 Y3.6437
G1 X3.5248 Y3.6193
G1 X3.5281 Y3.5948
G1 X3.5375 Y3.5721
G1 Z-0.3 F30
G1 X3.5525 Y3.5525 F25
G1 X3.5721 Y3.5375
G1 X3.5948 Y3.5281
G1 X3.6193 Y3.5248
G1 X3.6437 Y3.5281
G1 X3.6665 Y3.5375
G1 X3.6861 Y3.5525
G1 X3.7011 Y3.5721
G1 X3.7105 Y3.5948
G1 X3.7137 Y3.6193
G1 X3.7105 Y3.6437
G1 X3.7011 Y3.6665
G1 X3.6861 Y3.6861
G1 X3.6665 Y3.7011
G1 X3.6437 Y3.7105
G1 X3.6193 Y3.7137
G1 X3.5948 Y3.7105
G1 X3.5721 Y3.7011
G1 X3.5525 Y3.6861
G1 X3.5375 Y3.6665
G1 X3.5281 Y3.6437
G1 X3.5248 Y3.6193
G1 X3.5281 Y3.5948
G1 X3.5375 Y3.5721
G1 Z-0.45 F30
G1 X3.5525 Y3.5525 F25
G1 X3.5721 Y3.5375
G1 X3.5948 Y3.5281
G1 X3.6193 Y3.5248
G1 X3.6437 Y3.5281
G1 X3.6665 Y3.5375
G1 X3.6861 Y3.5525
G1 X3.7011 Y3.5721
G1 X3.7105 Y3.5948
G1 X3.7137 Y3.6193
G1 X3.7105 Y3.6437
G1 X3.7011 Y3.6665
G1 X3.6861 Y3.6861
G1 X3.6665 Y3.7011
G1 X3.6437 Y3.7105
G1 X3.6193 Y3.7137
G1 X3.5948 Y3.7105
G1 X3.5721 Y3.7011
G1 X3.5525 Y3.6861
G1 X3.5375 Y3.6665
G1 X3.5281 Y3.6437
G1 X3.5248 Y3.6193
G1 X3.5281 Y3.5948
G1 X3.5375 Y3.5721
G1 Z-0.6 F30
G1 X3.5525 Y3.5525 F25
G1 X3.5721 Y3.5375
G1 X3.5948 Y3.5281
G1 X3.6193 Y3.5248
G1 X3.6437 Y3.5281
G1 X3.6665 Y3.5375
G1 X3.6861 Y3.5525
G1 X3.7011 Y3.5721
G1 X3.7105 Y3.5948
G1 X3.7137 Y3.6193
G1 X3.7105 Y3.6437
G1 X3.7011 Y3.6665
G1 X3.6861 Y3.6861
G1 X3.6665 Y3.7011
G1 X3.6437 Y3.7105
G1 X3.6193 Y3.7137
G1 X3.5948 Y3.7105
G1 X3.5721 Y3.7011
G1 X3.5525 Y3.6861
G1 X3.5375 Y3.6665
G1 X3.5281 Y3.6437
G1 X3.5248 Y3.6193
G1 X3.5281 Y3.5948
G1 X3.5375 Y3.5721
G1 Z-0.75 F30
G1 X3.5525 Y3.5525 F25
G1 X3.5721 Y3.5375
G1 X3.5948 Y3.5281
G1 X3.6193 Y3.5248
G1 X3.6437 Y3.5281
G1 X3.6665 Y3.5375
G1 X3.6861 Y3.5525
G1 X3.7011 Y3.5721
G1 X3.7105 Y3.5948
G1 X3.7137 Y3.6193
G1 X3.7105 Y3.6437
G1 X3.7011 Y3.6665
G1 X3.6861 Y3.6861
G1 X3.6665 Y3.7011
G1 X3.6437 Y3.7105
G1 X3.6193 Y3.7137
G1 X3.5948 Y3.7105
G1 X3.5721 Y3.7011
G1 X3.5525 Y3.6861
G1 X3.5375 Y3.6665
G1 X3.5281 Y3.6437
G1 X3.5248 Y3.6193
G1 X3.5281 Y3.5948
G1 X3.5375 Y3.5721
G1 Z-0.85 F30
G1 X3.5525 Y3.5525 F25
G1 X3.5721 Y3.5375
G1 X3.5948 Y3.5281
G1 X3.6193 Y3.5248
G1 X3.6437 Y3.5281
G1 X3.6665 Y3.5375
G1 X3.6861 Y3.5525
G1 X3.7011 Y3.5721
G1 X3.7105 Y3.5948
G1 X3.7137 Y3.6193
G1 X3.7105 Y3.6437
G1 X3.7011 Y3.6665
G1 X3.6861 Y3.6861
G1 X3.6665 Y3.7011
G1 X3.6437 Y3.7105
G1 X3.6193 Y3.7137
G1 X3.5948 Y3.7105
G1 X3.5721 Y3.7011
G1 X3.5525 Y3.6861
G1 X3.5375 Y3.6665
G1 X3.5281 Y3.6437
G1 X3.5248 Y3.6193
G1 X3.5281 Y3.5948
G1 X3.5375 Y3.5721
G0 Z0.25
G0 X13.5696 Y3.7105
G1 Z-0.15 F30
G1 X13.5452 Y3.7137 F25
G1 X13.5207 Y3.7105
G1 X13.498 Y3.7011
G1 X13.4784 Y3.6861
G1 X13.4634 Y3.6665
G1 X13.454 Y3.6437
G1 X13.4507 Y3.6193
G1 X13.454 Y3.5948
G1 X13.4634 Y3.5721
G1 X13.4784 Y3.5525
G1 X13.498 Y3.5375
G1 X13.5207 Y3.5281
G1 X13.5452 Y3.5248
G1 X13.5696 Y3.5281
G1 X13.5924 Y3.5375
G1 X13.612 Y3.5525
G1 X13.627 Y3.5721
G1 X13.6364 Y3.5948
G1 X13.6396 Y3.6193
G1 X13.6364 Y3.6437
G1 X13.627 Y3.6665
G1 X13.612 Y3.6861
G1 X13.5924 Y3.7011
G1 X13.5696 Y3.7105
G1 Z-0.3 F30
G1 X13.5452 Y3.7137 F25
G1 X13.5207 Y3.7105
G1 X13.498 Y3.7011
G1 X13.4784 Y3.6861
G1 X13.4634 Y3.6665
G1 X13.454 Y3.6437
G1 X13.4507 Y3.6193
G1 X13.454 Y3.5948
G1 X13.4634 Y3.5721
G1 X13.4784 Y3.5525
G1 X13.498 Y3.5375
G1 X13.5207 Y3.5281
G1 X13.5452 Y3.5248
G1 X13.5696 Y3.5281
G1 X13.5924 Y3.5375
G1 X13.612 Y3.5525
G1 X13.627 Y3.5721
G1 X13.6364 Y3.5948
G1 X13.6396 Y3.6193
G1 X13.6364 Y3.6437
G1 X13.627 Y3.6665
G1 X13.612 Y3.6861
G1 X13.5924 Y3.7011
G1 X13.5696 Y3.7105
G1 Z-0.45 F30
G1 X13.5452 Y3.7137 F25
G1 X13.5207 Y3.7105
G1 X13.498 Y3.7011
G1 X13.4784 Y3.6861
G1 X13.4634 Y3.6665
G1 X13.454 Y3.6437
G1 X13.4507 Y3.6193
G1 X13.454 Y3.5948
G1 X13.4634 Y3.5721
G1 X13.4784 Y3.5525
G1 X13.498 Y3.5375
G1 X13.5207 Y3.5281
G1 X13.5452 Y3.5248
G1 X13.5696 Y3.5281
G1 X13.5924 Y3.5375
G1 X13.612 Y3.5525
G1 X13.627 Y3.5721
G1 X13.6364 Y3.5948
G1 X13.6396 Y3.6193
G1 X13.6364 Y3.6437
G1 X13.627 Y3.6665
G1 X13.612 Y3.6861
G1 X13.5924 Y3.7011
G1 X13.5696 Y3.7105
G1 Z-0.6 F30
G1 X13.5452 Y3.7137 F25
G1 X13.5207 Y3.7105
G1 X13.498 Y3.7011
G1 X13.4784 Y3.6861
G1 X13.4634 Y3.6665
G1 X13.454 Y3.6437
G1 X13.4507 Y3.6193
G1 X13.454 Y3.5948
G1 X13.4634 Y3.5721
G1 X13.4784 Y3.5525
G1 X13.498 Y3.5375
G1 X13.5207 Y3.5281
G1 X13.5452 Y3.5248
G1 X13.5696 Y3.5281
G1 X13.5924 Y3.5375
G1 X13.612 Y3.5525
G1 X13.627 Y3.5721
G1 X13.6364 Y3.5948
G1 X13.6396 Y3.6193
G1 X13.6364 Y3.6437
G1 X13.627 Y3.6665
G1 X13.612 Y3.6861
G1 X13.5924 Y3.7011
G1 X13.5696 Y3.7105
G1 Z-0.75 F30
G1 X13.5452 Y3.7137 F25
G1 X13.5207 Y3.7105
G1 X13.498 Y3.7011
G1 X13.4784 Y3.6861
G1 X13.4634 Y3.6665
G1 X13.454 Y3.6437
G1 X13.4507 Y3.6193
G1 X13.454 Y3.5948
G1 X13.4634 Y3.5721
G1 X13.4784 Y3.5525
G1 X13.498 Y3.5375
G1 X13.5207 Y3.5281
G1 X13.5452 Y3.5248
G1 X13.5696 Y3.5281
G1 X13.5924 Y3.5375
G1 X13.612 Y3.5525
G1 X13.627 Y3.5721
G1 X13.6364 Y3.5948
G1 X13.6396 Y3.6193
G1 X13.6364 Y3.6437
G1 X13.627 Y3.6665
G1 X13.612 Y3.6861
G1 X13.5924 Y3.7011
G1 X13.5696 Y3.7105
G1 Z-0.85 F30
G1 X13.5452 Y3.7137 F25
G1 X13.5207 Y3.7105
G1 X13.498 Y3.7011
G1 X13.4784 Y3.6861
G1 X13.4634 Y3.6665
G1 X13.454 Y3.6437
G1 X13.4507 Y3.6193
G1 X13.454 Y3.5948
G1 X13.4634 Y3.5721
G1 X13.4784 Y3.5525
G1 X13.498 Y3.5375
G1 X13.5207 Y3.5281
G1 X13.5452 Y3.5248
G1 X13.5696 Y3.5281
G1 X13.5924 Y3.5375
G1 X13.612 Y3.5525
G1 X13.627 Y3.5721
G1 X13.6364 Y3.5948
G1 X13.6396 Y3.6193
G1 X13.6364 Y3.6437
G1 X13.627 Y3.6665
G1 X13.612 Y3.6861
G1 X13.5924 Y3.7011
G1 X13.5696 Y3.7105
G0 Z0.25
G0 X12.8492 Y4.2208
G1 Z-0.15 F30
G1 X12.8736 Y4.224 F25
G1 X12.8964 Y4.2335
G1 X12.916 Y4.2485
G1 X12.931 Y4.268
G1 X12.9404 Y4.2908
G1 X12.9436 Y4.3153
G1 X12.9404 Y4.3397
G1 X12.931 Y4.3625
G1 X12.916 Y4.382
G1 X12.8964 Y4.397
G1 X12.8736 Y4.4065
G1 X12.8492 Y4.4097
G1 X12.8248 Y4.4065
G1 X12.802 Y4.397
G1 X12.7824 Y4.382
G1 X12.7674 Y4.3625
G1 X12.758 Y4.3397
G1 X12.7548 Y4.3153
G1 X12.758 Y4.2908
G1 X12.7674 Y4.268
G1 X12.7824 Y4.2485
G1 X12.802 Y4.2335
G1 X12.8248 Y4.224
G1 X12.8492 Y4.2208
G1 Z-0.3 F30
G1 X12.8736 Y4.224 F25
G1 X12.8964 Y4.2335
G1 X12.916 Y4.2485
G1 X12.931 Y4.268
G1 X12.9404 Y4.2908
G1 X12.9436 Y4.3153
G1 X12.9404 Y4.3397
G1 X12.931 Y4.3625
G1 X12.916 Y4.382
G1 X12.8964 Y4.397
G1 X12.8736 Y4.4065
G1 X12.8492 Y4.4097
G1 X12.8248 Y4.4065
G1 X12.802 Y4.397
G1 X12.7824 Y4.382
G1 X12.7674 Y4.3625
G1 X12.758 Y4.3397
G1 X12.7548 Y4.3153
G1 X12.758 Y4.2908
G1 X12.7674 Y4.268
G1 X12.7824 Y4.2485
G1 X12.802 Y4.2335
G1 X12.8248 Y4.224
G1 X12.8492 Y4.2208
G1 Z-0.45 F30
G1 X12.8736 Y4.224 F25
G1 X12.8964 Y4.2335
G1 X12.916 Y4.2485
G1 X12.931 Y4.268
G1 X12.9404 Y4.2908
G1 X12.9436 Y4.3153
G1 X12.9404 Y4.3397
G1 X12.931 Y4.3625
G1 X12.916 Y4.382
G1 X12.8964 Y4.397
G1 X12.8736 Y4.4065
G1 X12.8492 Y4.4097
G1 X12.8248 Y4.4065
G1 X12.802 Y4.397
G1 X12.7824 Y4.382
G1 X12.7674 Y4.3625
G1 X12.758 Y4.3397
G1 X12.7548 Y4.3153
G1 X12.758 Y4.2908
G1 X12.7674 Y4.268
G1 X12.7824 Y4.2485
G1 X12.802 Y4.2335
G1 X12.8248 Y4.224
G1 X12.8492 Y4.2208
G1 Z-0.6 F30
G1 X12.8736 Y4.224 F25
G1 X12.8964 Y4.2335
G1 X12.916 Y4.2485
G1 X12.931 Y4.268
G1 X12.9404 Y4.2908
G1 X12.9436 Y4.3153
G1 X12.9404 Y4.3397
G1 X12.931 Y4.3625
G1 X12.916 Y4.382
G1 X12.8964 Y4.397
G1 X12.8736 Y4.4065
G1 X12.8492 Y4.4097
G1 X12.8248 Y4.4065
G1 X12.802 Y4.397
G1 X12.7824 Y4.382
G1 X12.7674 Y4.3625
G1 X12.758 Y4.3397
G1 X12.7548 Y4.3153
G1 X12.758 Y4.2908
G1 X12.7674 Y4.268
G1 X12.7824 Y4.2485
G1 X12.802 Y4.2335
G1 X12.8248 Y4.224
G1 X12.8492 Y4.2208
G1 Z-0.75 F30
G1 X12.8736 Y4.224 F25
G1 X12.8964 Y4.2335
G1 X12.916 Y4.2485
G1 X12.931 Y4.268
G1 X12.9404 Y4.2908
G1 X12.9436 Y4.3153
G1 X12.9404 Y4.3397
G1 X12.931 Y4.3625
G1 X12.916 Y4.382
G1 X12.8964 Y4.397
G1 X12.8736 Y4.4065
G1 X12.8492 Y4.4097
G1 X12.8248 Y4.4065
G1 X12.802 Y4.397
G1 X12.7824 Y4.382
G1 X12.7674 Y4.3625
G1 X12.758 Y4.3397
G1 X12.7548 Y4.3153
G1 X12.758 Y4.2908
G1 X12.7674 Y4.268
G1 X12.7824 Y4.2485
G1 X12.802 Y4.2335
G1 X12.8248 Y4.224
G1 X12.8492 Y4.2208
G1 Z-0.85 F30
G1 X12.8736 Y4.224 F25
G1 X12.8964 Y4.2335
G1 X12.916 Y4.2485
G1 X12.931 Y4.268
G1 X12.9404 Y4.2908
G1 X12.9436 Y4.3153
G1 X12.9404 Y4.3397
G1 X12.931 Y4.3625
G1 X12.916 Y4.382
G1 X12.8964 Y4.397
G1 X12.8736 Y4.4065
G1 X12.8492 Y4.4097
G1 X12.8248 Y4.4065
G1 X12.802 Y4.397
G1 X12.7824 Y4.382
G1 X12.7674 Y4.3625
G1 X12.758 Y4.3397
G1 X12.7548 Y4.3153
G1 X12.758 Y4.2908
G1 X12.7674 Y4.268
G1 X12.7824 Y4.2485
G1 X12.802 Y4.2335
G1 X12.8248 Y4.224
G1 X12.8492 Y4.2208
G0 Z0.25
G0 X4.2245 Y4.2892
G1 Z-0.15 F30
G1 X4.2343 Y4.2666 F25
G1 X4.2497 Y4.2473
G1 X4.2695 Y4.2326
G1 X4.2924 Y4.2236
G1 X4.3169 Y4.2208
G1 X4.3413 Y4.2245
G1 X4.3639 Y4.2343
G1 X4.3832 Y4.2497
G1 X4.3979 Y4.2695
G1 X4.4069 Y4.2924
G1 X4.4097 Y4.3169
G1 X4.406 Y4.3413
G1 X4.3962 Y4.3639
G1 X4.3808 Y4.3832
G1 X4.361 Y4.3979
G1 X4.3381 Y4.4069
G1 X4.3136 Y4.4097
G1 X4.2892 Y4.406
G1 X4.2666 Y4.3962
G1 X4.2473 Y4.3808
G1 X4.2326 Y4.361
G1 X4.2236 Y4.3381
G1 X4.2208 Y4.3136
G1 X4.2245 Y4.2892
G1 Z-0.3 F30
G1 X4.2343 Y4.2666 F25
G1 X4.2497 Y4.2473
G1 X4.2695 Y4.2326
G1 X4.2924 Y4.2236
G1 X4.3169 Y4.2208
G1 X4.3413 Y4.2245
G1 X4.3639 Y4.2343
G1 X4.3832 Y4.2497
G1 X4.3979 Y4.2695
G1 X4.4069 Y4.2924
G1 X4.4097 Y4.3169
G1 X4.406 Y4.3413
G1 X4.3962 Y4.3639
G1 X4.3808 Y4.3832
G1 X4.361 Y4.3979
G1 X4.3381 Y4.4069
G1 X4.3136 Y4.4097
G1 X4.2892 Y4.406
G1 X4.2666 Y4.3962
G1 X4.2473 Y4.3808
G1 X4.2326 Y4.361
G1 X4.2236 Y4.3381
G1 X4.2208 Y4.3136
G1 X4.2245 Y4.2892
G1 Z-0.45 F30
G1 X4.2343 Y4.2666 F25
G1 X4.2497 Y4.2473
G1 X4.2695 Y4.2326
G1 X4.2924 Y4.2236
G1 X4.3169 Y4.2208
G1 X4.3413 Y4.2245
G1 X4.3639 Y4.2343
G1 X4.3832 Y4.2497
G1 X4.3979 Y4.2695
G1 X4.4069 Y4.2924
G1 X4.4097 Y4.3169
G1 X4.406 Y4.3413
G1 X4.3962 Y4.3639
G1 X4.3808 Y4.3832
G1 X4.361 Y4.3979
G1 X4.3381 Y4.4069
G1 X4.3136 Y4.4097
G1 X4.2892 Y4.406
G1 X4.2666 Y4.3962
G1 X4.2473 Y4.3808
G1 X4.2326 Y4.361
G1 X4.2236 Y4.3381
G1 X4.2208 Y4.3136
G1 X4.2245 Y4.2892
G1 Z-0.6 F30
G1 X4.2343 Y4.2666 F25
G1 X4.2497 Y4.2473
G1 X4.2695 Y4.2326
G1 X4.2924 Y4.2236
G1 X4.3169 Y4.2208
G1 X4.3413 Y4.2245
G1 X4.3639 Y4.2343
G1 X4.3832 Y4.2497
G1 X4.3979 Y4.2695
G1 X4.4069 Y4.2924
G1 X4.4097 Y4.3169
G1 X4.406 Y4.3413
G1 X4.3962 Y4.3639
G1 X4.3808 Y4.3832
G1 X4.361 Y4.3979
G1 X4.3381 Y4.4069
G1 X4.3136 Y4.4097
G1 X4.2892 Y4.406
G1 X4.2666 Y4.3962
G1 X4.2473 Y4.3808
G1 X4.2326 Y4.361
G1 X4.2236 Y4.3381
G1 X4.2208 Y4.3136
G1 X4.2245 Y4.2892
G1 Z-0.75 F30
G1 X4.2343 Y4.2666 F25
G1 X4.2497 Y4.2473
G1 X4.2695 Y4.2326
G1 X4.2924 Y4.2236
G1 X4.3169 Y4.2208
G1 X4.3413 Y4.2245
G1 X4.3639 Y4.2343
G1 X4.3832 Y4.2497
G1 X4.3979 Y4.2695
G1 X4.4069 Y4.2924
G1 X4.4097 Y4.3169
G1 X4.406 Y4.3413
G1 X4.3962 Y4.3639
G1 X4.3808 Y4.3832
G1 X4.361 Y4.3979
G1 X4.3381 Y4.4069
G1 X4.3136 Y4.4097
G1 X4.2892 Y4.406
G1 X4.2666 Y4.3962
G1 X4.2473 Y4.3808
G1 X4.2326 Y4.361
G1 X4.2236 Y4.3381
G1 X4.2208 Y4.3136
G1 X4.2245 Y4.2892
G1 Z-0.85 F30
G1 X4.2343 Y4.2666 F25
G1 X4.2497 Y4.2473
G1 X4.2695 Y4.2326
G1 X4.2924 Y4.2236
G1 X4.3169 Y4.2208
G1 X4.3413 Y4.2245
G1 X4.3639 Y4.2343
G1 X4.3832 Y4.2497
G1 X4.3979 Y4.2695
G1 X4.4069 Y4.2924
G1 X4.4097 Y4.3169
G1 X4.406 Y4.3413
G1 X4.3962 Y4.3639
G1 X4.3808 Y4.3832
G1 X4.361 Y4.3979
G1 X4.3381 Y4.4069
G1 X4.3136 Y4.4097
G1 X4.2892 Y4.406
G1 X4.2666 Y4.3962
G1 X4.2473 Y4.3808
G1 X4.2326 Y4.361
G1 X4.2236 Y4.3381
G1 X4.2208 Y4.3136
G1 X4.2245 Y4.2892

(profile 3)
G0 Z0.25
G0 X17.2216 Y8.8976
G1 Z-0.15 F30
G1 X17.2105 Y9.122 F25
G3 X17.2104 Y9.1236 I-0.0624 J-0.0031
G1 X17.1935 Y9.3477
G3 X17.1933 Y9.3493 I-0.0623 J-0.0047
G1 X17.1705 Y9.5728
G3 X17.1703 Y9.5744 I-0.0622 J-0.0064
G1 X17.1416 Y9.7973
G3 X17.1414 Y9.7989 I-0.062 J-0.008
G1 X17.1069 Y10.0209
G3 X17.1066 Y10.0225 I-0.0618 J-0.0096
G1 X17.0663 Y10.2436
G3 X17.066 Y10.2452 I-0.0615 J-0.0112
G1 X17.0199 Y10.4651
G3 X17.0195 Y10.4667 I-0.0612 J-0.0128
G1 X16.9677 Y10.6853
G3 X16.9673 Y10.6869 I-0.0608 J-0.0144
G1 X16.9098 Y10.9041
G3 X16.9093 Y10.9057 I-0.0604 J-0.016
G1 X16.8461 Y11.1213
G3 X16.8457 Y11.1229 I-0.06 J-0.0176
G1 X16.7768 Y11.3368
G3 X16.7763 Y11.3383 I-0.0595 J-0.0191
G1 X16.7019 Y11.5503
G3 X16.7014 Y11.5519 I-0.059 J-0.0207
G1 X16.6214 Y11.7619
G3 X16.6208 Y11.7634 I-0.0584 J-0.0222
G1 X16.5355 Y11.9712
G3 X16.5348 Y11.9727 I-0.0578 J-0.0238
G1 X16.444 Y12.1782
G3 X16.4433 Y12.1797 I-0.0572 J-0.0253
G1 X16.3472 Y12.3828
G3 X16.3465 Y12.3843 I-0.0565 J-0.0267
G1 X16.245 Y12.5848
G3 X16.2443 Y12.5862 I-0.0558 J-0.0282
G1 X16.1376 Y12.784
G3 X16.1369 Y12.7854 I-0.055 J-0.0297
G1 X16.0251 Y12.9803
G3 X16.0242 Y12.9817 I-0.0542 J-0.0311
G1 X15.9074 Y13.1736
G3 X15.9065 Y13.175 I-0.0534 J-0.0325
G1 X15.7847 Y13.3638
G3 X15.7838 Y13.3652 I-0.0525 J-0.0339
G1 X15.6571 Y13.5507
G3 X15.6561 Y13.5521 I-0.0516 J-0.0353
G1 X15.5246 Y13.7342
G3 X15.5236 Y13.7355 I-0.0507 J-0.0366
G1 X15.3873 Y13.9142
G3 X15.3863 Y13.9155 I-0.0497 J-0.0379
G1 X15.2454 Y14.0905
G3 X15.2444 Y14.0917 I-0.0487 J-0.0392
G1 X15.099 Y14.263
G3 X15.0979 Y14.2643 I-0.0476 J-0.0405
G1 X14.948 Y14.4317
G3 X14.9469 Y14.4329 I-0.0466 J-0.0417
G1 X14.7927 Y14.5963
G3 X14.7916 Y14.5975 I-0.0455 J-0.0429
G1 X14.6332 Y14.7568
G3 X14.632 Y14.7579 I-0.0443 J-0.0441
G1 X14.4694 Y14.9131
G3 X14.4682 Y14.9142 I-0.0432 J-0.0452
G1 X14.3017 Y15.065
G3 X14.3005 Y15.0661 I-0.042 J-0.0463
G1 X14.13 Y15.2125
G3 X14.1288 Y15.2136 I-0.0407 J-0.0474
G1 X13.9546 Y15.3555
G3 X13.9533 Y15.3565 I-0.0395 J-0.0485
G1 X13.7754 Y15.4938
G3 X13.7741 Y15.4948 I-0.0382 J-0.0495
G1 X13.5927 Y15.6274
G3 X13.5914 Y15.6283 I-0.0369 J-0.0505
G1 X13.4066 Y15.7561
G3 X13.4052 Y15.757 I-0.0355 J-0.0514
G1 X13.2172 Y15.8799
G3 X13.2158 Y15.8808 I-0.0342 J-0.0523
G1 X13.0245 Y15.9988
G3 X13.0231 Y15.9996 I-0.0328 J-0.0532
G1 X12.8289 Y16.1125
G3 X12.8274 Y16.1133 I-0.0314 J-0.054
G1 X12.6303 Y16.2211
G3 X12.6289 Y16.2219 I-0.03 J-0.0548
G1 X12.429 Y16.3244
G3 X12.4275 Y16.3252 I-0.0285 J-0.0556
G1 X12.225 Y16.4225
G3 X12.2235 Y16.4232 I-0.0271 J-0.0563
G1 X12.0185 Y16.5151
G3 X12.017 Y16.5158 I-0.0256 J-0.057
G1 X11.8096 Y16.6024
G3 X11.8081 Y16.603 I-0.0241 J-0.0577
G1 X11.5986 Y16.6841
G3 X11.5971 Y16.6847 I-0.0226 J-0.0583
G1 X11.3855 Y16.7603
G3 X11.3839 Y16.7608 I-0.021 J-0.0589
G1 X11.1704 Y16.8309
G3 X11.1689 Y16.8314 I-0.0195 J-0.0594
G1 X10.9536 Y16.8958
G3 X10.9521 Y16.8962 I-0.0179 J-0.0599
G1 X10.7352 Y16.955
G3 X10.7336 Y16.9554 I-0.0164 J-0.0603
G1 X10.5153 Y17.0085
G3 X10.5137 Y17.0089 I-0.0148 J-0.0607
G1 X10.294 Y17.0562
G3 X10.2924 Y17.0566 I-0.0132 J-0.0611
G1 X10.0716 Y17.0981
G3 X10.07 Y17.0984 I-0.0116 J-0.0614
G1 X9.8482 Y17.1342
G3 X9.8466 Y17.1344 I-0.01 J-0.0617
G1 X9.6239 Y17.1644
G3 X9.6223 Y17.1646 I-0.0083 J-0.0619
G1 X9.3989 Y17.1887
G3 X9.3973 Y17.1889 I-0.0067 J-0.0621
G1 X9.1733 Y17.2072
G3 X9.1717 Y17.2073 I-0.0051 J-0.0623
G1 X8.9473 Y17.2197
G3 X8.9457 Y17.2198 I-0.0035 J-0.0624
G1 X8.7211 Y17.2263
G3 X8.7195 Y17.2263 I-0.0018 J-0.0625
G1 X8.4948 Y17.227
G3 X8.4932 Y17.2269 I-0.0002 J-0.0625
G1 X8.2685 Y17.2217
G3 X8.2669 Y17.2216 I0.0015 J-0.0625
G1 X8.0425 Y17.2105
G3 X8.0409 Y17.2104 I0.0031 J-0.0624
G1 X7.8168 Y17.1935
G3 X7.8152 Y17.1933 I0.0047 J-0.0623
G1 X7.5917 Y17.1705
G3 X7.59 Y17.1703 I0.0064 J-0.0622
G1 X7.3672 Y17.1416
G3 X7.3656 Y17.1414 I0.008 J-0.062
G1 X7.1435 Y17.1069
G3 X7.1419 Y17.1066 I0.0096 J-0.0618
G1 X6.9209 Y17.0663
G3 X6.9193 Y17.066 I0.0112 J-0.0615
G1 X6.6994 Y17.0199
G3 X6.6978 Y17.0195 I0.0128 J-0.0612
G1 X6.4791 Y16.9677
G3 X6.4776 Y16.9673 I0.0144 J-0.0608
G1 X6.2604 Y16.9098
G3 X6.2588 Y16.9093 I0.016 J-0.0604
G1 X6.0432 Y16.8461
G3 X6.0416 Y16.8457 I0.0176 J-0.06
G1 X5.8277 Y16.7768
G3 X5.8262 Y16.7763 I0.0191 J-0.0595
G1 X5.6141 Y16.7019
G3 X5.6126 Y16.7014 I0.0207 J-0.059
G1 X5.4026 Y16.6214
G3 X5.4011 Y16.6208 I0.0222 J-0.0584
G1 X5.1933 Y16.5355
G3 X5.1918 Y16.5348 I0.0238 J-0.0578
G1 X4.9862 Y16.444
G3 X4.9847 Y16.4433 I0.0253 J-0.0572
G1 X4.7817 Y16.3472
G3 X4.7802 Y16.3465 I0.0267 J-0.0565
G1 X4.5797 Y16.245
G3 X4.5783 Y16.2443 I0.0282 J-0.0558
G1 X4.3805 Y16.1376
G3 X4.3791 Y16.1369 I0.0297 J-0.055
G1 X4.1841 Y16.0251
G3 X4.1827 Y16.0242 I0.0311 J-0.0542
G1 X3.9908 Y15.9074
G3 X3.9894 Y15.9065 I0.0325 J-0.0534
G1 X3.8006 Y15.7847
G3 X3.7993 Y15.7838 I0.0339 J-0.0525
G1 X3.6137 Y15.6571
G3 X3.6124 Y15.6561 I0.0353 J-0.0516
G1 X3.4302 Y15.5246
G3 X3.4289 Y15.5236 I0.0366 J-0.0507
G1 X3.2503 Y15.3873
G3 X3.249 Y15.3863 I0.0379 J-0.0497
G1 X3.074 Y15.2454
G3 X3.0727 Y15.2444 I0.0392 J-0.0487
G1 X2.9014 Y15.099
G3 X2.9002 Y15.0979 I0.0405 J-0.0476
G1 X2.7328 Y14.948
G3 X2.7316 Y14.9469 I0.0417 J-0.0466
G1 X2.5682 Y14.7927
G3 X2.567 Y14.7916 I0.0429 J-0.0455
G1 X2.4077 Y14.6332
G3 X2.4065 Y14.632 I0.0441 J-0.0443
G1 X2.2514 Y14.4694
G3 X2.2503 Y14.4682 I0.0452 J-0.0432
G1 X2.0994 Y14.3017
G3 X2.0984 Y14.3005 I0.0463 J-0.042
G1 X1.9519 Y14.13
G3 X1.9509 Y14.1288 I0.0474 J-0.0407
G1 X1.809 Y13.9546
G3 X1.808 Y13.9533 I0.0485 J-0.0395
G1 X1.6707 Y13.7754
G3 X1.6697 Y13.7741 I0.0495 J-0.0382
G1 X1.5371 Y13.5927
G3 X1.5362 Y13.5914 I0.0505 J-0.0369
G1 X1.4084 Y13.4066
G3 X1.4074 Y13.4052 I0.0514 J-0.0355
G1 X1.2845 Y13.2172
G3 X1.2837 Y13.2158 I0.0523 J-0.0342
G1 X1.1657 Y13.0245
G3 X1.1649 Y13.0231 I0.0532 J-0.0328
G1 X1.052 Y12.8289
G3 X1.0512 Y12.8274 I0.054 J-0.0314
G1 X0.9434 Y12.6303
G3 X0.9426 Y12.6289 I0.0548 J-0.03
G1 X0.84 Y12.429
G3 X0.8393 Y12.4275 I0.0556 J-0.0285
G1 X0.742 Y12.225
G3 X0.7413 Y12.2235 I0.0563 J-0.0271
G1 X0.6493 Y12.0185
G3 X0.6487 Y12.017 I0.057 J-0.0256
G1 X0.5621 Y11.8096
G3 X0.5615 Y11.8081 I0.0577 J-0.0241
G1 X0.4803 Y11.5986
G3 X0.4798 Y11.5971 I0.0583 J-0.0226
G1 X0.4042 Y11.3855
G3 X0.4036 Y11.3839 I0.0589 J-0.021
G1 X0.3336 Y11.1704
G3 X0.3331 Y11.1689 I0.0594 J-0.0195
G1 X0.2687 Y10.9536
G3 X0.2682 Y10.9521 I0.0599 J-0.0179
G1 X0.2094 Y10.7352
G3 X0.209 Y10.7336 I0.0603 J-0.0164
G1 X0.1559 Y10.5153
G3 X0.1556 Y10.5137 I0.0607 J-0.0148
G1 X0.1082 Y10.294
G3 X0.1079 Y10.2924 I0.0611 J-0.0132
G1 X0.0663 Y10.0716
G3 X0.066 Y10.07 I0.0614 J-0.0116
G1 X0.0303 Y9.8482
G3 X0.03 Y9.8466 I0.0617 J-0.01
G1 X0 Y9.6239
G3 X-0.0002 Y9.6223 I0.0619 J-0.0083
G1 X-0.0243 Y9.3989
G3 X-0.0244 Y9.3973 I0.0621 J-0.0067
G1 X-0.0427 Y9.1733
G3 X-0.0428 Y9.1717 I0.0623 J-0.0051
G1 X-0.0552 Y8.9473
G3 X-0.0553 Y8.9457 I0.0624 J-0.0035
G1 X-0.0618 Y8.7211
G3 X-0.0619 Y8.7195 I0.0625 J-0.0018
G1 X-0.0625 Y8.4948
G1 X-0.0625 Y8.4946
G3 X-0.0625 Y8.4932 I0.0625 J0
G1 X-0.0572 Y8.2685
G3 X-0.0572 Y8.2669 I0.0625 J0.0015
G1 X-0.0461 Y8.0425
G3 X-0.046 Y8.0409 I0.0624 J0.0031
G1 X-0.029 Y7.8168
G3 X-0.0288 Y7.8152 I0.0623 J0.0047
G1 X-0.006 Y7.5917
G3 X-0.0058 Y7.59 I0.0622 J0.0064
G1 X0.0229 Y7.3672
G3 X0.0231 Y7.3656 I0.062 J0.008
G1 X0.0576 Y7.1435
G3 X0.0579 Y7.1419 I0.0618 J0.0096
G1 X0.0982 Y6.9209
G3 X0.0985 Y6.9193 I0.0615 J0.0112
G1 X0.1446 Y6.6994
G3 X0.1449 Y6.6978 I0.0612 J0.0128
G1 X0.1968 Y6.4791
G3 X0.1972 Y6.4776 I0.0608 J0.0144
G1 X0.2547 Y6.2604
G3 X0.2551 Y6.2588 I0.0604 J0.016
G1 X0.3183 Y6.0432
G3 X0.3188 Y6.0416 I0.06 J0.0176
G1 X0.3876 Y5.8277
G3 X0.3881 Y5.8262 I0.0595 J0.0191
G1 X0.4625 Y5.6141
G3 X0.4631 Y5.6126 I0.059 J0.0207
G1 X0.543 Y5.4026
G3 X0.5436 Y5.4011 I0.0584 J0.0222
G1 X0.629 Y5.1933
G3 X0.6296 Y5.1918 I0.0578 J0.0238
G1 X0.7204 Y4.9862
G3 X0.7211 Y4.9847 I0.0572 J0.0253
G1 X0.8173 Y4.7817
G3 X0.818 Y4.7802 I0.0565 J0.0267
G1 X0.9194 Y4.5797
G3 X0.9202 Y4.5783 I0.0558 J0.0282
G1 X1.0268 Y4.3805
G3 X1.0276 Y4.3791 I0.055 J0.0297
G1 X1.1394 Y4.1841
G3 X1.1402 Y4.1827 I0.0542 J0.0311
G1 X1.2571 Y3.9908
G3 X1.2579 Y3.9894 I0.0534 J0.0325
G1 X1.3798 Y3.8006
G3 X1.3807 Y3.7993 I0.0525 J0.0339
G1 X1.5074 Y3.6137
G3 X1.5083 Y3.6124 I0.0516 J0.0353
G1 X1.6399 Y3.4302
G3 X1.6409 Y3.4289 I0.0507 J0.0366
G1 X1.7771 Y3.2503
G3 X1.7781 Y3.249 I0.0497 J0.0379
G1 X1.919 Y3.074
G3 X1.9201 Y3.0727 I0.0487 J0.0392
G1 X2.0655 Y2.9014
G3 X2.0666 Y2.9002 I0.0476 J0.0405
G1 X2.2164 Y2.7328
G3 X2.2176 Y2.7316 I0.0466 J0.0417
G1 X2.3718 Y2.5682
G3 X2.3729 Y2.567 I0.0455 J0.0429
G1 X2.5313 Y2.4077
G3 X2.5325 Y2.4065 I0.0443 J0.0441
G1 X2.695 Y2.2514
G3 X2.6962 Y2.2503 I0.0432 J0.0452
G1 X2.8628 Y2.0994
G3 X2.864 Y2.0984 I0.042 J0.0463
G1 X3.0344 Y1.9519
G3 X3.0357 Y1.9509 I0.0407 J0.0474
G1 X3.2099 Y1.809
G3 X3.2112 Y1.808 I0.0395 J0.0485
G1 X3.389 Y1.6707
G3 X3.3903 Y1.6697 I0.0382 J0.0495
G1 X3.5717 Y1.5371
G3 X3.5731 Y1.5362 I0.0369 J0.0505
G1 X3.7579 Y1.4084
G3 X3.7592 Y1.4074 I0.0355 J0.0514
G1 X3.9473 Y1.2845
G3 X3.9487 Y1.2837 I0.0342 J0.0523
G1 X4.1399 Y1.1657
G3 X4.1413 Y1.1649 I0.0328 J0.0532
G1 X4.3356 Y1.052
G3 X4.337 Y1.0512 I0.0314 J0.054
G1 X4.5342 Y0.9434
G3 X4.5356 Y0.9426 I0.03 J0.0548
G1 X4.7355 Y0.84
G3 X4.737 Y0.8393 I0.0285 J0.0556
G1 X4.9395 Y0.742
G3 X4.941 Y0.7413 I0.0271 J0.0563
G1 X5.146 Y0.6493
G3 X5.1475 Y0.6487 I0.0256 J0.057
G1 X5.3548 Y0.5621
G3 X5.3563 Y0.5615 I0.0241 J0.0577
G1 X5.5659 Y0.4803
G3 X5.5674 Y0.4798 I0.0226 J0.0583
G1 X5.779 Y0.4042
G3 X5.7805 Y0.4036 I0.021 J0.0589
G1 X5.994 Y0.3336
G3 X5.9956 Y0.3331 I0.0195 J0.0594
G1 X6.2108 Y0.2687
G3 X6.2124 Y0.2682 I0.0179 J0.0599
G1 X6.4293 Y0.2094
G3 X6.4308 Y0.209 I0.0164 J0.0603
G1 X6.6492 Y0.1559
G3 X6.6508 Y0.1556 I0.0148 J0.0607
G1 X6.8704 Y0.1082
G3 X6.872 Y0.1079 I0.0132 J0.0611
G1 X7.0928 Y0.0663
G3 X7.0944 Y0.066 I0.0116 J0.0614
G1 X7.3163 Y0.0303
G3 X7.3179 Y0.03 I0.01 J0.0617
G1 X7.5406 Y0
G3 X7.5422 Y-0.0002 I0.0083 J0.0619
G1 X7.7656 Y-0.0243
G3 X7.7672 Y-0.0244 I0.0067 J0.0621
G1 X7.9911 Y-0.0427
G3 X7.9928 Y-0.0428 I0.0051 J0.0623
G1 X8.2171 Y-0.0552
G3 X8.2187 Y-0.0553 I0.0035 J0.0624
G1 X8.4433 Y-0.0618
G3 X8.445 Y-0.0619 I0.0018 J0.0625
G1 X8.6697 Y-0.0625
G3 X8.6713 Y-0.0625 I0.0002 J0.0625
G1 X8.8959 Y-0.0572
G3 X8.8976 Y-0.0572 I-0.0015 J0.0625
G1 X9.122 Y-0.0461
G3 X9.1236 Y-0.046 I-0.0031 J0.0624
G1 X9.3477 Y-0.029
G3 X9.3493 Y-0.0288 I-0.0047 J0.0623
G1 X9.5728 Y-0.006
G3 X9.5744 Y-0.0058 I-0.0064 J0.0622
G1 X9.7973 Y0.0229
G3 X9.7989 Y0.0231 I-0.008 J0.062
G1 X10.0209 Y0.0576
G3 X10.0225 Y0.0579 I-0.0096 J0.0618
G1 X10.2436 Y0.0982
G3 X10.2452 Y0.0985 I-0.0112 J0.0615
G1 X10.4651 Y0.1446
G3 X10.4667 Y0.1449 I-0.0128 J0.0612
G1 X10.6853 Y0.1968
G3 X10.6869 Y0.1972 I-0.0144 J0.0608
G1 X10.9041 Y0.2547
G3 X10.9057 Y0.2551 I-0.016 J0.0604
G1 X11.1213 Y0.3183
G3 X11.1229 Y0.3188 I-0.0176 J0.06
G1 X11.3368 Y0.3876
G3 X11.3383 Y0.3881 I-0.0191 J0.0595
G1 X11.5503 Y0.4625
G3 X11.5519 Y0.4631 I-0.0207 J0.059
G1 X11.7619 Y0.543
G3 X11.7634 Y0.5436 I-0.0222 J0.0584
G1 X11.9712 Y0.629
G3 X11.9727 Y0.6296 I-0.0238 J0.0578
G1 X12.1782 Y0.7204
G3 X12.1797 Y0.7211 I-0.0253 J0.0572
G1 X12.3828 Y0.8173
G3 X12.3843 Y0.818 I-0.0267 J0.0565
G1 X12.5848 Y0.9194
G3 X12.5862 Y0.9202 I-0.0282 J0.0558
G1 X12.784 Y1.0268
G3 X12.7854 Y1.0276 I-0.0297 J0.055
G1 X12.9803 Y1.1394
G3 X12.9817 Y1.1402 I-0.0311 J0.0542
G1 X13.1736 Y1.2571
G3 X13.175 Y1.2579 I-0.0325 J0.0534
G1 X13.3638 Y1.3798
G3 X13.3652 Y1.3807 I-0.0339 J0.0525
G1 X13.5507 Y1.5074
G3 X13.5521 Y1.5083 I-0.0353 J0.0516
G1 X13.7342 Y1.6399
G3 X13.7355 Y1.6409 I-0.0366 J0.0507
G1 X13.9142 Y1.7771
G3 X13.9155 Y1.7781 I-0.0379 J0.0497
G1 X14.0905 Y1.919
G3 X14.0917 Y1.9201 I-0.0392 J0.0487
G1 X14.263 Y2.0655
G3 X14.2643 Y2.0666 I-0.0405 J0.0476
G1 X14.4317 Y2.2164
G3 X14.4329 Y2.2176 I-0.0417 J0.0466
G1 X14.5963 Y2.3718
G3 X14.5975 Y2.3729 I-0.0429 J0.0455
G1 X14.7568 Y2.5313
G3 X14.7579 Y2.5325 I-0.0441 J0.0443
G1 X14.9131 Y2.695
G3 X14.9142 Y2.6962 I-0.0452 J0.0432
G1 X15.065 Y2.8628
G3 X15.0661 Y2.864 I-0.0463 J0.042
G1 X15.2125 Y3.0344
G3 X15.2136 Y3.0357 I-0.0474 J0.0407
G1 X15.3555 Y3.2099
G3 X15.3565 Y3.2112 I-0.0485 J0.0395
G1 X15.4938 Y3.389
G3 X15.4948 Y3.3903 I-0.0495 J0.0382
G1 X15.6274 Y3.5717
G3 X15.6283 Y3.5731 I-0.0505 J0.0369
G1 X15.7561 Y3.7579
G3 X15.757 Y3.7592 I-0.0514 J0.0355
G1 X15.8799 Y3.9473
G3 X15.8808 Y3.9487 I-0.0523 J0.0342
G1 X15.9988 Y4.1399
G3 X15.9996 Y4.1413 I-0.0532 J0.0328
G1 X16.1125 Y4.3356
G3 X16.1133 Y4.337 I-0.054 J0.0314
G1 X16.2211 Y4.5342
G3 X16.2219 Y4.5356 I-0.0548 J0.03
G1 X16.3244 Y4.7355
G3 X16.3252 Y4.737 I-0.0556 J0.0285
G1 X16.4225 Y4.9395
G3 X16.4232 Y4.941 I-0.0563 J0.0271
G1 X16.5151 Y5.146
G3 X16.5158 Y5.1475 I-0.057 J0.0256
G1 X16.6024 Y5.3548
G3 X16.603 Y5.3563 I-0.0577 J0.0241
G1 X16.6841 Y5.5659
G3 X16.6847 Y5.5674 I-0.0583 J0.0226
G1 X16.7603 Y5.779
G3 X16.7608 Y5.7805 I-0.0589 J0.021
G1 X16.8309 Y5.994
G3 X16.8314 Y5.9956 I-0.0594 J0.0195
G1 X16.8958 Y6.2108
G3 X16.8962 Y6.2124 I-0.0599 J0.0179
G1 X16.955 Y6.4293
G3 X16.9554 Y6.4308 I-0.0603 J0.0164
G1 X17.0085 Y6.6492
G3 X17.0089 Y6.6508 I-0.0607 J0.0148
G1 X17.0562 Y6.8704
G3 X17.0566 Y6.872 I-0.0611 J0.0132
G1 X17.0981 Y7.0928
G3 X17.0984 Y7.0944 I-0.0614 J0.0116
G1 X17.1342 Y7.3163
G3 X17.1344 Y7.3179 I-0.0617 J0.01
G1 X17.1644 Y7.5406
G3 X17.1646 Y7.5422 I-0.0619 J0.0083
G1 X17.1887 Y7.7656
G3 X17.1889 Y7.7672 I-0.0621 J0.0067
G1 X17.2072 Y7.9911
G3 X17.2073 Y7.9928 I-0.0623 J0.0051
G1 X17.2197 Y8.2171
G3 X17.2198 Y8.2187 I-0.0624 J0.0035
G1 X17.2263 Y8.4433
G3 X17.2263 Y8.445 I-0.0625 J0.0018
G1 X17.227 Y8.6697
G1 X17.227 Y8.6698
G3 X17.2269 Y8.6713 I-0.0625 J0
G1 X17.2217 Y8.8959
G3 X17.2216 Y8.8976 I-0.0625 J-0.0015
G1 Z-0.3 F30
G1 X17.2105 Y9.122 F25
G3 X17.2104 Y9.1236 I-0.0624 J-0.0031
G1 X17.1935 Y9.3477
G3 X17.1933 Y9.3493 I-0.0623 J-0.0047
G1 X17.1705 Y9.5728
G3 X17.1703 Y9.5744 I-0.0622 J-0.0064
G1 X17.1416 Y9.7973
G3 X17.1414 Y9.7989 I-0.062 J-0.008
G1 X17.1069 Y10.0209
G3 X17.1066 Y10.0225 I-0.0618 J-0.0096
G1 X17.0663 Y10.2436
G3 X17.066 Y10.2452 I-0.0615 J-0.0112
G1 X17.0199 Y10.4651
G3 X17.0195 Y10.4667 I-0.0612 J-0.0128
G1 X16.9677 Y10.6853
G3 X16.9673 Y10.6869 I-0.0608 J-0.0144
G1 X16.9098 Y10.9041
G3 X16.9093 Y10.9057 I-0.0604 J-0.016
G1 X16.8461 Y11.1213
G3 X16.8457 Y11.1229 I-0.06 J-0.0176
G1 X16.7768 Y11.3368
G3 X16.7763 Y11.3383 I-0.0595 J-0.0191
G1 X16.7019 Y11.5503
G3 X16.7014 Y11.5519 I-0.059 J-0.0207
G1 X16.6214 Y11.7619
G3 X16.6208 Y11.7634 I-0.0584 J-0.0222
G1 X16.5355 Y11.9712
G3 X16.5348 Y11.9727 I-0.0578 J-0.0238
G1 X16.444 Y12.1782
G3 X16.4433 Y12.1797 I-0.0572 J-0.0253
G1 X16.3472 Y12.3828
G3 X16.3465 Y12.3843 I-0.0565 J-0.0267
G1 X16.245 Y12.5848
G3 X16.2443 Y12.5862 I-0.0558 J-0.0282
G1 X16.1376 Y12.784
G3 X16.1369 Y12.7854 I-0.055 J-0.0297
G1 X16.0251 Y12.9803
G3 X16.0242 Y12.9817 I-0.0542 J-0.0311
G1 X15.9074 Y13.1736
G3 X15.9065 Y13.175 I-0.0534 J-0.0325
G1 X15.7847 Y13.3638
G3 X15.7838 Y13.3652 I-0.0525 J-0.0339
G1 X15.6571 Y13.5507
G3 X15.6561 Y13.5521 I-0.0516 J-0.0353
G1 X15.5246 Y13.7342
G3 X15.5236 Y13.7355 I-0.0507 J-0.0366
G1 X15.3873 Y13.9142
G3 X15.3863 Y13.9155 I-0.0497 J-0.0379
G1 X15.2454 Y14.0905
G3 X15.2444 Y14.0917 I-0.0487 J-0.0392
G1 X15.099 Y14.263
G3 X15.0979 Y14.2643 I-0.0476 J-0.0405
G1 X14.948 Y14.4317
G3 X14.9469 Y14.4329 I-0.0466 J-0.0417
G1 X14.7927 Y14.5963
G3 X14.7916 Y14.5975 I-0.0455 J-0.0429
G1 X14.6332 Y14.7568
G3 X14.632 Y14.7579 I-0.0443 J-0.0441
G1 X14.4694 Y14.9131
G3 X14.4682 Y14.9142 I-0.0432 J-0.0452
G1 X14.3017 Y15.065
G3 X14.3005 Y15.0661 I-0.042 J-0.0463
G1 X14.13 Y15.2125
G3 X14.1288 Y15.2136 I-0.0407 J-0.0474
G1 X13.9546 Y15.3555
G3 X13.9533 Y15.3565 I-0.0395 J-0.0485
G1 X13.7754 Y15.4938
G3 X13.7741 Y15.4948 I-0.0382 J-0.0495
G1 X13.5927 Y15.6274
G3 X13.5914 Y15.6283 I-0.0369 J-0.0505
G1 X13.4066 Y15.7561
G3 X13.4052 Y15.757 I-0.0355 J-0.0514
G1 X13.2172 Y15.8799
G3 X13.2158 Y15.8808 I-0.0342 J-0.0523
G1 X13.0245 Y15.9988
G3 X13.0231 Y15.9996 I-0.0328 J-0.0532
G1 X12.8289 Y16.1125
G3 X12.8274 Y16.1133 I-0.0314 J-0.054
G1 X12.6303 Y16.2211
G3 X12.6289 Y16.2219 I-0.03 J-0.0548
G1 X12.429 Y16.3244
G3 X12.4275 Y16.3252 I-0.0285 J-0.0556
G1 X12.225 Y16.4225
G3 X12.2235 Y16.4232 I-0.0271 J-0.0563
G1 X12.0185 Y16.5151
G3 X12.017 Y16.5158 I-0.0256 J-0.057
G1 X11.8096 Y16.6024
G3 X11.8081 Y16.603 I-0.0241 J-0.0577
G1 X11.5986 Y16.6841
G3 X11.5971 Y16.6847 I-0.0226 J-0.0583
G1 X11.3855 Y16.7603
G3 X11.3839 Y16.7608 I-0.021 J-0.0589
G1 X11.1704 Y16.8309
G3 X11.1689 Y16.8314 I-0.0195 J-0.0594
G1 X10.9536 Y16.8958
G3 X10.9521 Y16.8962 I-0.0179 J-0.0599
G1 X10.7352 Y16.955
G3 X10.7336 Y16.9554 I-0.0164 J-0.0603
G1 X10.5153 Y17.0085
G3 X10.5137 Y17.0089 I-0.0148 J-0.0607
G1 X10.294 Y17.0562
G3 X10.2924 Y17.0566 I-0.0132 J-0.0611
G1 X10.0716 Y17.0981
G3 X10.07 Y17.0984 I-0.0116 J-0.0614
G1 X9.8482 Y17.1342
G3 X9.8466 Y17.1344 I-0.01 J-0.0617
G1 X9.6239 Y17.1644
G3 X9.6223 Y17.1646 I-0.0083 J-0.0619
G1 X9.3989 Y17.1887
G3 X9.3973 Y17.1889 I-0.0067 J-0.0621
G1 X9.1733 Y17.2072
G3 X9.1717 Y17.2073 I-0.0051 J-0.0623
G1 X8.9473 Y17.2197
G3 X8.9457 Y17.2198 I-0.0035 J-0.0624
G1 X8.7211 Y17.2263
G3 X8.7195 Y17.2263 I-0.0018 J-0.0625
G1 X8.4948 Y17.227
G3 X8.4932 Y17.2269 I-0.0002 J-0.0625
G1 X8.2685 Y17.2217
G3 X8.2669 Y17.2216 I0.0015 J-0.0625
G1 X8.0425 Y17.2105
G3 X8.0409 Y17.2104 I0.0031 J-0.0624
G1 X7.8168 Y17.1935
G3 X7.8152 Y17.1933 I0.0047 J-0.0623
G1 X7.5917 Y17.1705
G3 X7.59 Y17.1703 I0.0064 J-0.0622
G1 X7.3672 Y17.1416
G3 X7.3656 Y17.1414 I0.008 J-0.062
G1 X7.1435 Y17.1069
G3 X7.1419 Y17.1066 I0.0096 J-0.0618
G1 X6.9209 Y17.0663
G3 X6.9193 Y17.066 I0.0112 J-0.0615
G1 X6.6994 Y17.0199
G3 X6.6978 Y17.0195 I0.0128 J-0.0612
G1 X6.4791 Y16.9677
G3 X6.4776 Y16.9673 I0.0144 J-0.0608
G1 X6.2604 Y16.9098
G3 X6.2588 Y16.9093 I0.016 J-0.0604
G1 X6.0432 Y16.8461
G3 X6.0416 Y16.8457 I0.0176 J-0.06
G1 X5.8277 Y16.7768
G3 X5.8262 Y16.7763 I0.0191 J-0.0595
G1 X5.6141 Y16.7019
G3 X5.6126 Y16.7014 I0.0207 J-0.059
G1 X5.4026 Y16.6214
G3 X5.4011 Y16.6208 I0.0222 J-0.0584
G1 X5.1933 Y16.5355
G3 X5.1918 Y16.5348 I0.0238 J-0.0578
G1 X4.9862 Y16.444
G3 X4.9847 Y16.4433 I0.0253 J-0.0572
G1 X4.7817 Y16.3472
G3 X4.7802 Y16.3465 I0.0267 J-0.0565
G1 X4.5797 Y16.245
G3 X4.5783 Y16.2443 I0.0282 J-0.0558
G1 X4.3805 Y16.1376
G3 X4.3791 Y16.1369 I0.0297 J-0.055
G1 X4.1841 Y16.0251
G3 X4.1827 Y16.0242 I0.0311 J-0.0542
G1 X3.9908 Y15.9074
G3 X3.9894 Y15.9065 I0.0325 J-0.0534
G1 X3.8006 Y15.7847
G3 X3.7993 Y15.7838 I0.0339 J-0.0525
G1 X3.6137 Y15.6571
G3 X3.6124 Y15.6561 I0.0353 J-0.0516
G1 X3.4302 Y15.5246
G3 X3.4289 Y15.5236 I0.0366 J-0.0507
G1 X3.2503 Y15.3873
G3 X3.249 Y15.3863 I0.0379 J-0.0497
G1 X3.074 Y15.2454
G3 X3.0727 Y15.2444 I0.0392 J-0.0487
G1 X2.9014 Y15.099
G3 X2.9002 Y15.0979 I0.0405 J-0.0476
G1 X2.7328 Y14.948
G3 X2.7316 Y14.9469 I0.0417 J-0.0466
G1 X2.5682 Y14.7927
G3 X2.567 Y14.7916 I0.0429 J-0.0455
G1 X2.4077 Y14.6332
G3 X2.4065 Y14.632 I0.0441 J-0.0443
G1 X2.2514 Y14.4694
G3 X2.2503 Y14.4682 I0.0452 J-0.0432
G1 X2.0994 Y14.3017
G3 X2.0984 Y14.3005 I0.0463 J-0.042
G1 X1.9519 Y14.13
G3 X1.9509 Y14.1288 I0.0474 J-0.0407
G1 X1.809 Y13.9546
G3 X1.808 Y13.9533 I0.0485 J-0.0395
G1 X1.6707 Y13.7754
G3 X1.6697 Y13.7741 I0.0495 J-0.0382
G1 X1.5371 Y13.5927
G3 X1.5362 Y13.5914 I0.0505 J-0.0369
G1 X1.4084 Y13.4066
G3 X1.4074 Y13.4052 I0.0514 J-0.0355
G1 X1.2845 Y13.2172
G3 X1.2837 Y13.2158 I0.0523 J-0.0342
G1 X1.1657 Y13.0245
G3 X1.1649 Y13.0231 I0.0532 J-0.0328
G1 X1.052 Y12.8289
G3 X1.0512 Y12.8274 I0.054 J-0.0314
G1 X0.9434 Y12.6303
G3 X0.9426 Y12.6289 I0.0548 J-0.03
G1 X0.84 Y12.429
G3 X0.8393 Y12.4275 I0.0556 J-0.0285
G1 X0.742 Y12.225
G3 X0.7413 Y12.2235 I0.0563 J-0.0271
G1 X0.6493 Y12.0185
G3 X0.6487 Y12.017 I0.057 J-0.0256
G1 X0.5621 Y11.8096
G3 X0.5615 Y11.8081 I0.0577 J-0.0241
G1 X0.4803 Y11.5986
G3 X0.4798 Y11.5971 I0.0583 J-0.0226
G1 X0.4042 Y11.3855
G3 X0.4036 Y11.3839 I0.0589 J-0.021
G1 X0.3336 Y11.1704
G3 X0.3331 Y11.1689 I0.0594 J-0.0195
G1 X0.2687 Y10.9536
G3 X0.2682 Y10.9521 I0.0599 J-0.0179
G1 X0.2094 Y10.7352
G3 X0.209 Y10.7336 I0.0603 J-0.0164
G1 X0.1559 Y10.5153
G3 X0.1556 Y10.5137 I0.0607 J-0.0148
G1 X0.1082 Y10.294
G3 X0.1079 Y10.2924 I0.0611 J-0.0132
G1 X0.0663 Y10.0716
G3 X0.066 Y10.07 I0.0614 J-0.0116
G1 X0.0303 Y9.8482
G3 X0.03 Y9.8466 I0.0617 J-0.01
G1 X0 Y9.6239
G3 X-0.0002 Y9.6223 I0.0619 J-0.0083
G1 X-0.0243 Y9.3989
G3 X-0.0244 Y9.3973 I0.0621 J-0.0067
G1 X-0.0427 Y9.1733
G3 X-0.0428 Y9.1717 I0.0623 J-0.0051
G1 X-0.0552 Y8.9473
G3 X-0.0553 Y8.9457 I0.0624 J-0.0035
G1 X-0.0618 Y8.7211
G3 X-0.0619 Y8.7195 I0.0625 J-0.0018
G1 X-0.0625 Y8.4948
G1 X-0.0625 Y8.4946
G3 X-0.0625 Y8.4932 I0.0625 J0
G1 X-0.0572 Y8.2685
G3 X-0.0572 Y8.2669 I0.0625 J0.0015
G1 X-0.0461 Y8.0425
G3 X-0.046 Y8.0409 I0.0624 J0.0031
G1 X-0.029 Y7.8168
G3 X-0.0288 Y7.8152 I0.0623 J0.0047
G1 X-0.006 Y7.5917
G3 X-0.0058 Y7.59 I0.0622 J0.0064
G1 X0.0229 Y7.3672
G3 X0.0231 Y7.3656 I0.062 J0.008
G1 X0.0576 Y7.1435
G3 X0.0579 Y7.1419 I0.0618 J0.0096
G1 X0.0982 Y6.9209
G3 X0.0985 Y6.9193 I0.0615 J0.0112
G1 X0.1446 Y6.6994
G3 X0.1449 Y6.6978 I0.0612 J0.0128
G1 X0.1968 Y6.4791
G3 X0.1972 Y6.4776 I0.0608 J0.0144
G1 X0.2547 Y6.2604
G3 X0.2551 Y6.2588 I0.0604 J0.016
G1 X0.3183 Y6.0432
G3 X0.3188 Y6.0416 I0.06 J0.0176
G1 X0.3876 Y5.8277
G3 X0.3881 Y5.8262 I0.0595 J0.0191
G1 X0.4625 Y5.6141
G3 X0.4631 Y5.6126 I0.059 J0.0207
G1 X0.543 Y5.4026
G3 X0.5436 Y5.4011 I0.0584 J0.0222
G1 X0.629 Y5.1933
G3 X0.6296 Y5.1918 I0.0578 J0.0238
G1 X0.7204 Y4.9862
G3 X0.7211 Y4.9847 I0.0572 J0.0253
G1 X0.8173 Y4.7817
G3 X0.818 Y4.7802 I0.0565 J0.0267
G1 X0.9194 Y4.5797
G3 X0.9202 Y4.5783 I0.0558 J0.0282
G1 X1.0268 Y4.3805
G3 X1.0276 Y4.3791 I0.055 J0.0297
G1 X1.1394 Y4.1841
G3 X1.1402 Y4.1827 I0.0542 J0.0311
G1 X1.2571 Y3.9908
G3 X1.2579 Y3.9894 I0.0534 J0.0325
G1 X1.3798 Y3.8006
G3 X1.3807 Y3.7993 I0.0525 J0.0339
G1 X1.5074 Y3.6137
G3 X1.5083 Y3.6124 I0.0516 J0.0353
G1 X1.6399 Y3.4302
G3 X1.6409 Y3.4289 I0.0507 J0.0366
G1 X1.7771 Y3.2503
G3 X1.7781 Y3.249 I0.0497 J0.0379
G1 X1.919 Y3.074
G3 X1.9201 Y3.0727 I0.0487 J0.0392
G1 X2.0655 Y2.9014
G3 X2.0666 Y2.9002 I0.0476 J0.0405
G1 X2.2164 Y2.7328
G3 X2.2176 Y2.7316 I0.0466 J0.0417
G1 X2.3718 Y2.5682
G3 X2.3729 Y2.567 I0.0455 J0.0429
G1 X2.5313 Y2.4077
G3 X2.5325 Y2.4065 I0.0443 J0.0441
G1 X2.695 Y2.2514
G3 X2.6962 Y2.2503 I0.0432 J0.0452
G1 X2.8628 Y2.0994
G3 X2.864 Y2.0984 I0.042 J0.0463
G1 X3.0344 Y1.9519
G3 X3.0357 Y1.9509 I0.0407 J0.0474
G1 X3.2099 Y1.809
G3 X3.2112 Y1.808 I0.0395 J0.0485
G1 X3.389 Y1.6707
G3 X3.3903 Y1.6697 I0.0382 J0.0495
G1 X3.5717 Y1.5371
G3 X3.5731 Y1.5362 I0.0369 J0.0505
G1 X3.7579 Y1.4084
G3 X3.7592 Y1.4074 I0.0355 J0.0514
G1 X3.9473 Y1.2845
G3 X3.9487 Y1.2837 I0.0342 J0.0523
G1 X4.1399 Y1.1657
G3 X4.1413 Y1.1649 I0.0328 J0.0532
G1 X4.3356 Y1.052
G3 X4.337 Y1.0512 I0.0314 J0.054
G1 X4.5342 Y0.9434
G3 X4.5356 Y0.9426 I0.03 J0.0548
G1 X4.7355 Y0.84
G3 X4.737 Y0.8393 I0.0285 J0.0556
G1 X4.9395 Y0.742
G3 X4.941 Y0.7413 I0.0271 J0.0563
G1 X5.146 Y0.6493
G3 X5.1475 Y0.6487 I0.0256 J0.057
G1 X5.3548 Y0.5621
G3 X5.3563 Y0.5615 I0.0241 J0.0577
G1 X5.5659 Y0.4803
G3 X5.5674 Y0.4798 I0.0226 J0.0583
G1 X5.779 Y0.4042
G3 X5.7805 Y0.4036 I0.021 J0.0589
G1 X5.994 Y0.3336
G3 X5.9956 Y0.3331 I0.0195 J0.0594
G1 X6.2108 Y0.2687
G3 X6.2124 Y0.2682 I0.0179 J0.0599
G1 X6.4293 Y0.2094
G3 X6.4308 Y0.209 I0.0164 J0.0603
G1 X6.6492 Y0.1559
G3 X6.6508 Y0.1556 I0.0148 J0.0607
G1 X6.8704 Y0.1082
G3 X6.872 Y0.1079 I0.0132 J0.0611
G1 X7.0928 Y0.0663
G3 X7.0944 Y0.066 I0.0116 J0.0614
G1 X7.3163 Y0.0303
G3 X7.3179 Y0.03 I0.01 J0.0617
G1 X7.5406 Y0
G3 X7.5422 Y-0.0002 I0.0083 J0.0619
G1 X7.7656 Y-0.0243
G3 X7.7672 Y-0.0244 I0.0067 J0.0621
G1 X7.9911 Y-0.0427
G3 X7.9928 Y-0.0428 I0.0051 J0.0623
G1 X8.2171 Y-0.0552
G3 X8.2187 Y-0.0553 I0.0035 J0.0624
G1 X8.4433 Y-0.0618
G3 X8.445 Y-0.0619 I0.0018 J0.0625
G1 X8.6697 Y-0.0625
G3 X8.6713 Y-0.0625 I0.0002 J0.0625
G1 X8.8959 Y-0.0572
G3 X8.8976 Y-0.0572 I-0.0015 J0.0625
G1 X9.122 Y-0.0461
G3 X9.1236 Y-0.046 I-0.0031 J0.0624
G1 X9.3477 Y-0.029
G3 X9.3493 Y-0.0288 I-0.0047 J0.0623
G1 X9.5728 Y-0.006
G3 X9.5744 Y-0.0058 I-0.0064 J0.0622
G1 X9.7973 Y0.0229
G3 X9.7989 Y0.0231 I-0.008 J0.062
G1 X10.0209 Y0.0576
G3 X10.0225 Y0.0579 I-0.0096 J0.0618
G1 X10.2436 Y0.0982
G3 X10.2452 Y0.0985 I-0.0112 J0.0615
G1 X10.4651 Y0.1446
G3 X10.4667 Y0.1449 I-0.0128 J0.0612
G1 X10.6853 Y0.1968
G3 X10.6869 Y0.1972 I-0.0144 J0.0608
G1 X10.9041 Y0.2547
G3 X10.9057 Y0.2551 I-0.016 J0.0604
G1 X11.1213 Y0.3183
G3 X11.1229 Y0.3188 I-0.0176 J0.06
G1 X11.3368 Y0.3876
G3 X11.3383 Y0.3881 I-0.0191 J0.0595
G1 X11.5503 Y0.4625
G3 X11.5519 Y0.4631 I-0.0207 J0.059
G1 X11.7619 Y0.543
G3 X11.7634 Y0.5436 I-0.0222 J0.0584
G1 X11.9712 Y0.629
G3 X11.9727 Y0.6296 I-0.0238 J0.0578
G1 X12.1782 Y0.7204
G3 X12.1797 Y0.7211 I-0.0253 J0.0572
G1 X12.3828 Y0.8173
G3 X12.3843 Y0.818 I-0.0267 J0.0565
G1 X12.5848 Y0.9194
G3 X12.5862 Y0.9202 I-0.0282 J0.0558
G1 X12.784 Y1.0268
G3 X12.7854 Y1.0276 I-0.0297 J0.055
G1 X12.9803 Y1.1394
G3 X12.9817 Y1.1402 I-0.0311 J0.0542
G1 X13.1736 Y1.2571
G3 X13.175 Y1.2579 I-0.0325 J0.0534
G1 X13.3638 Y1.3798
G3 X13.3652 Y1.3807 I-0.0339 J0.0525
G1 X13.5507 Y1.5074
G3 X13.5521 Y1.5083 I-0.0353 J0.0516
G1 X13.7342 Y1.6399
G3 X13.7355 Y1.6409 I-0.0366 J0.0507
G1 X13.9142 Y1.7771
G3 X13.9155 Y1.7781 I-0.0379 J0.0497
G1 X14.0905 Y1.919
G3 X14.0917 Y1.9201 I-0.0392 J0.0487
G1 X14.263 Y2.0655
G3 X14.2643 Y2.0666 I-0.0405 J0.0476
G1 X14.4317 Y2.2164
G3 X14.4329 Y2.2176 I-0.0417 J0.0466
G1 X14.5963 Y2.3718
G3 X14.5975 Y2.3729 I-0.0429 J0.0455
G1 X14.7568 Y2.5313
G3 X14.7579 Y2.5325 I-0.0441 J0.0443
G1 X14.9131 Y2.695
G3 X14.9142 Y2.6962 I-0.0452 J0.0432
G1 X15.065 Y2.8628
G3 X15.0661 Y2.864 I-0.0463 J0.042
G1 X15.2125 Y3.0344
G3 X15.2136 Y3.0357 I-0.0474 J0.0407
G1 X15.3555 Y3.2099
G3 X15.3565 Y3.2112 I-0.0485 J0.0395
G1 X15.4938 Y3.389
G3 X15.4948 Y3.3903 I-0.0495 J0.0382
G1 X15.6274 Y3.5717
G3 X15.6283 Y3.5731 I-0.0505 J0.0369
G1 X15.7561 Y3.7579
G3 X15.757 Y3.7592 I-0.0514 J0.0355
G1 X15.8799 Y3.9473
G3 X15.8808 Y3.9487 I-0.0523 J0.0342
G1 X15.9988 Y4.1399
G3 X15.9996 Y4.1413 I-0.0532 J0.0328
G1 X16.1125 Y4.3356
G3 X16.1133 Y4.337 I-0.054 J0.0314
G1 X16.2211 Y4.5342
G3 X16.2219 Y4.5356 I-0.0548 J0.03
G1 X16.3244 Y4.7355
G3 X16.3252 Y4.737 I-0.0556 J0.0285
G1 X16.4225 Y4.9395
G3 X16.4232 Y4.941 I-0.0563 J0.0271
G1 X16.5151 Y5.146
G3 X16.5158 Y5.1475 I-0.057 J0.0256
G1 X16.6024 Y5.3548
G3 X16.603 Y5.3563 I-0.0577 J0.0241
G1 X16.6841 Y5.5659
G3 X16.6847 Y5.5674 I-0.0583 J0.0226
G1 X16.7603 Y5.779
G3 X16.7608 Y5.7805 I-0.0589 J0.021
G1 X16.8309 Y5.994
G3 X16.8314 Y5.9956 I-0.0594 J0.0195
G1 X16.8958 Y6.2108
G3 X16.8962 Y6.2124 I-0.0599 J0.0179
G1 X16.955 Y6.4293
G3 X16.9554 Y6.4308 I-0.0603 J0.0164
G1 X17.0085 Y6.6492
G3 X17.0089 Y6.6508 I-0.0607 J0.0148
G1 X17.0562 Y6.8704
G3 X17.0566 Y6.872 I-0.0611 J0.0132
G1 X17.0981 Y7.0928
G3 X17.0984 Y7.0944 I-0.0614 J0.0116
G1 X17.1342 Y7.3163
G3 X17.1344 Y7.3179 I-0.0617 J0.01
G1 X17.1644 Y7.5406
G3 X17.1646 Y7.5422 I-0.0619 J0.0083
G1 X17.1887 Y7.7656
G3 X17.1889 Y7.7672 I-0.0621 J0.0067
G1 X17.2072 Y7.9911
G3 X17.2073 Y7.9928 I-0.0623 J0.0051
G1 X17.2197 Y8.2171
G3 X17.2198 Y8.2187 I-0.0624 J0.0035
G1 X17.2263 Y8.4433
G3 X17.2263 Y8.445 I-0.0625 J0.0018
G1 X17.227 Y8.6697
G1 X17.227 Y8.6698
G3 X17.2269 Y8.6713 I-0.0625 J0
G1 X17.2217 Y8.8959
G3 X17.2216 Y8.8976 I-0.0625 J-0.0015
G1 Z-0.45 F30
G1 X17.2105 Y9.122 F25
G3 X17.2104 Y9.1236 I-0.0624 J-0.0031
G1 X17.1935 Y9.3477
G3 X17.1933 Y9.3493 I-0.0623 J-0.0047
G1 X17.1705 Y9.5728
G3 X17.1703 Y9.5744 I-0.0622 J-0.0064
G1 X17.1416 Y9.7973
G3 X17.1414 Y9.7989 I-0.062 J-0.008
G1 X17.1069 Y10.0209
G3 X17.1066 Y10.0225 I-0.0618 J-0.0096
G1 X17.0663 Y10.2436
G3 X17.066 Y10.2452 I-0.0615 J-0.0112
G1 X17.0199 Y10.4651
G3 X17.0195 Y10.4667 I-0.0612 J-0.0128
G1 X16.9677 Y10.6853
G3 X16.9673 Y10.6869 I-0.0608 J-0.0144
G1 X16.9098 Y10.9041
G3 X16.9093 Y10.9057 I-0.0604 J-0.016
G1 X16.8461 Y11.1213
G3 X16.8457 Y11.1229 I-0.06 J-0.0176
G1 X16.7768 Y11.3368
G3 X16.7763 Y11.3383 I-0.0595 J-0.0191
G1 X16.7019 Y11.5503
G3 X16.7014 Y11.5519 I-0.059 J-0.0207
G1 X16.6214 Y11.7619
G3 X16.6208 Y11.7634 I-0.0584 J-0.0222
G1 X16.5355 Y11.9712
G3 X16.5348 Y11.9727 I-0.0578 J-0.0238
G1 X16.444 Y12.1782
G3 X16.4433 Y12.1797 I-0.0572 J-0.0253
G1 X16.3472 Y12.3828
G3 X16.3465 Y12.3843 I-0.0565 J-0.0267
G1 X16.245 Y12.5848
G3 X16.2443 Y12.5862 I-0.0558 J-0.0282
G1 X16.1376 Y12.784
G3 X16.1369 Y12.7854 I-0.055 J-0.0297
G1 X16.0251 Y12.9803
G3 X16.0242 Y12.9817 I-0.0542 J-0.0311
G1 X15.9074 Y13.1736
G3 X15.9065 Y13.175 I-0.0534 J-0.0325
G1 X15.7847 Y13.3638
G3 X15.7838 Y13.3652 I-0.0525 J-0.0339
G1 X15.6571 Y13.5507
G3 X15.6561 Y13.5521 I-0.0516 J-0.0353
G1 X15.5246 Y13.7342
G3 X15.5236 Y13.7355 I-0.0507 J-0.0366
G1 X15.3873 Y13.9142
G3 X15.3863 Y13.9155 I-0.0497 J-0.0379
G1 X15.2454 Y14.0905
G3 X15.2444 Y14.0917 I-0.0487 J-0.0392
G1 X15.099 Y14.263
G3 X15.0979 Y14.2643 I-0.0476 J-0.0405
G1 X14.948 Y14.4317
G3 X14.9469 Y14.4329 I-0.0466 J-0.0417
G1 X14.7927 Y14.5963
G3 X14.7916 Y14.5975 I-0.0455 J-0.0429
G1 X14.6332 Y14.7568
G3 X14.632 Y14.7579 I-0.0443 J-0.0441
G1 X14.4694 Y14.9131
G3 X14.4682 Y14.9142 I-0.0432 J-0.0452
G1 X14.3017 Y15.065
G3 X14.3005 Y15.0661 I-0.042 J-0.0463
G1 X14.13 Y15.2125
G3 X14.1288 Y15.2136 I-0.0407 J-0.0474
G1 X13.9546 Y15.3555
G3 X13.9533 Y15.3565 I-0.0395 J-0.0485
G1 X13.7754 Y15.4938
G3 X13.7741 Y15.4948 I-0.0382 J-0.0495
G1 X13.5927 Y15.6274
G3 X13.5914 Y15.6283 I-0.0369 J-0.0505
G1 X13.4066 Y15.7561
G3 X13.4052 Y15.757 I-0.0355 J-0.0514
G1 X13.2172 Y15.8799
G3 X13.2158 Y15.8808 I-0.0342 J-0.0523
G1 X13.0245 Y15.9988
G3 X13.0231 Y15.9996 I-0.0328 J-0.0532
G1 X12.8289 Y16.1125
G3 X12.8274 Y16.1133 I-0.0314 J-0.054
G1 X12.6303 Y16.2211
G3 X12.6289 Y16.2219 I-0.03 J-0.0548
G1 X12.429 Y16.3244
G3 X12.4275 Y16.3252 I-0.0285 J-0.0556
G1 X12.225 Y16.4225
G3 X12.2235 Y16.4232 I-0.0271 J-0.0563
G1 X12.0185 Y16.5151
G3 X12.017 Y16.5158 I-0.0256 J-0.057
G1 X11.8096 Y16.6024
G3 X11.8081 Y16.603 I-0.0241 J-0.0577
G1 X11.5986 Y16.6841
G3 X11.5971 Y16.6847 I-0.0226 J-0.0583
G1 X11.3855 Y16.7603
G3 X11.3839 Y16.7608 I-0.021 J-0.0589
G1 X11.1704 Y16.8309
G3 X11.1689 Y16.8314 I-0.0195 J-0.0594
G1 X10.9536 Y16.8958
G3 X10.9521 Y16.8962 I-0.0179 J-0.0599
G1 X10.7352 Y16.955
G3 X10.7336 Y16.9554 I-0.0164 J-0.0603
G1 X10.5153 Y17.0085
G3 X10.5137 Y17.0089 I-0.0148 J-0.0607
G1 X10.294 Y17.0562
G3 X10.2924 Y17.0566 I-0.0132 J-0.0611
G1 X10.0716 Y17.0981
G3 X10.07 Y17.0984 I-0.0116 J-0.0614
G1 X9.8482 Y17.1342
G3 X9.8466 Y17.1344 I-0.01 J-0.0617
G1 X9.6239 Y17.1644
G3 X9.6223 Y17.1646 I-0.0083 J-0.0619
G1 X9.3989 Y17.1887
G3 X9.3973 Y17.1889 I-0.0067 J-0.0621
G1 X9.1733 Y17.2072
G3 X9.1717 Y17.2073 I-0.0051 J-0.0623
G1 X8.9473 Y17.2197
G3 X8.9457 Y17.2198 I-0.0035 J-0.0624
G1 X8.7211 Y17.2263
G3 X8.7195 Y17.2263 I-0.0018 J-0.0625
G1 X8.4948 Y17.227
G3 X8.4932 Y17.2269 I-0.0002 J-0.0625
G1 X8.2685 Y17.2217
G3 X8.2669 Y17.2216 I0.0015 J-0.0625
G1 X8.0425 Y17.2105
G3 X8.0409 Y17.2104 I0.0031 J-0.0624
G1 X7.8168 Y17.1935
G3 X7.8152 Y17.1933 I0.0047 J-0.0623
G1 X7.5917 Y17.1705
G3 X7.59 Y17.1703 I0.0064 J-0.0622
G1 X7.3672 Y17.1416
G3 X7.3656 Y17.1414 I0.008 J-0.062
G1 X7.1435 Y17.1069
G3 X7.1419 Y17.1066 I0.0096 J-0.0618
G1 X6.9209 Y17.0663
G3 X6.9193 Y17.066 I0.0112 J-0.0615
G1 X6.6994 Y17.0199
G3 X6.6978 Y17.0195 I0.0128 J-0.0612
G1 X6.4791 Y16.9677
G3 X6.4776 Y16.9673 I0.0144 J-0.0608
G1 X6.2604 Y16.9098
G3 X6.2588 Y16.9093 I0.016 J-0.0604
G1 X6.0432 Y16.8461
G3 X6.0416 Y16.8457 I0.0176 J-0.06
G1 X5.8277 Y16.7768
G3 X5.8262 Y16.7763 I0.0191 J-0.0595
G1 X5.6141 Y16.7019
G3 X5.6126 Y16.7014 I0.0207 J-0.059
G1 X5.4026 Y16.6214
G3 X5.4011 Y16.6208 I0.0222 J-0.0584
G1 X5.1933 Y16.5355
G3 X5.1918 Y16.5348 I0.0238 J-0.0578
G1 X4.9862 Y16.444
G3 X4.9847 Y16.4433 I0.0253 J-0.0572
G1 X4.7817 Y16.3472
G3 X4.7802 Y16.3465 I0.0267 J-0.0565
G1 X4.5797 Y16.245
G3 X4.5783 Y16.2443 I0.0282 J-0.0558
G1 X4.3805 Y16.1376
G3 X4.3791 Y16.1369 I0.0297 J-0.055
G1 X4.1841 Y16.0251
G3 X4.1827 Y16.0242 I0.0311 J-0.0542
G1 X3.9908 Y15.9074
G3 X3.9894 Y15.9065 I0.0325 J-0.0534
G1 X3.8006 Y15.7847
G3 X3.7993 Y15.7838 I0.0339 J-0.0525
G1 X3.6137 Y15.6571
G3 X3.6124 Y15.6561 I0.0353 J-0.0516
G1 X3.4302 Y15.5246
G3 X3.4289 Y15.5236 I0.0366 J-0.0507
G1 X3.2503 Y15.3873
G3 X3.249 Y15.3863 I0.0379 J-0.0497
G1 X3.074 Y15.2454
G3 X3.0727 Y15.2444 I0.0392 J-0.0487
G1 X2.9014 Y15.099
G3 X2.9002 Y15.0979 I0.0405 J-0.0476
G1 X2.7328 Y14.948
G3 X2.7316 Y14.9469 I0.0417 J-0.0466
G1 X2.5682 Y14.7927
G3 X2.567 Y14.7916 I0.0429 J-0.0455
G1 X2.4077 Y14.6332
G3 X2.4065 Y14.632 I0.0441 J-0.0443
G1 X2.2514 Y14.4694
G3 X2.2503 Y14.4682 I0.0452 J-0.0432
G1 X2.0994 Y14.3017
G3 X2.0984 Y14.3005 I0.0463 J-0.042
G1 X1.9519 Y14.13
G3 X1.9509 Y14.1288 I0.0474 J-0.0407
G1 X1.809 Y13.9546
G3 X1.808 Y13.9533 I0.0485 J-0.0395
G1 X1.6707 Y13.7754
G3 X1.6697 Y13.7741 I0.0495 J-0.0382
G1 X1.5371 Y13.5927
G3 X1.5362 Y13.5914 I0.0505 J-0.0369
G1 X1.4084 Y13.4066
G3 X1.4074 Y13.4052 I0.0514 J-0.0355
G1 X1.2845 Y13.2172
G3 X1.2837 Y13.2158 I0.0523 J-0.0342
G1 X1.1657 Y13.0245
G3 X1.1649 Y13.0231 I0.0532 J-0.0328
G1 X1.052 Y12.8289
G3 X1.0512 Y12.8274 I0.054 J-0.0314
G1 X0.9434 Y12.6303
G3 X0.9426 Y12.6289 I0.0548 J-0.03
G1 X0.84 Y12.429
G3 X0.8393 Y12.4275 I0.0556 J-0.0285
G1 X0.742 Y12.225
G3 X0.7413 Y12.2235 I0.0563 J-0.0271
G1 X0.6493 Y12.0185
G3 X0.6487 Y12.017 I0.057 J-0.0256
G1 X0.5621 Y11.8096
G3 X0.5615 Y11.8081 I0.0577 J-0.0241
G1 X0.4803 Y11.5986
G3 X0.4798 Y11.5971 I0.0583 J-0.0226
G1 X0.4042 Y11.3855
G3 X0.4036 Y11.3839 I0.0589 J-0.021
G1 X0.3336 Y11.1704
G3 X0.3331 Y11.1689 I0.0594 J-0.0195
G1 X0.2687 Y10.9536
G3 X0.2682 Y10.9521 I0.0599 J-0.0179
G1 X0.2094 Y10.7352
G3 X0.209 Y10.7336 I0.0603 J-0.0164
G1 X0.1559 Y10.5153
G3 X0.1556 Y10.5137 I0.0607 J-0.0148
G1 X0.1082 Y10.294
G3 X0.1079 Y10.2924 I0.0611 J-0.0132
G1 X0.0663 Y10.0716
G3 X0.066 Y10.07 I0.0614 J-0.0116
G1 X0.0303 Y9.8482
G3 X0.03 Y9.8466 I0.0617 J-0.01
G1 X0 Y9.6239
G3 X-0.0002 Y9.6223 I0.0619 J-0.0083
G1 X-0.0243 Y9.3989
G3 X-0.0244 Y9.3973 I0.0621 J-0.0067
G1 X-0.0427 Y9.1733
G3 X-0.0428 Y9.1717 I0.0623 J-0.0051
G1 X-0.0552 Y8.9473
G3 X-0.0553 Y8.9457 I0.0624 J-0.0035
G1 X-0.0618 Y8.7211
G3 X-0.0619 Y8.7195 I0.0625 J-0.0018
G1 X-0.0625 Y8.4948
G1 X-0.0625 Y8.4946
G3 X-0.0625 Y8.4932 I0.0625 J0
G1 X-0.0572 Y8.2685
G3 X-0.0572 Y8.2669 I0.0625 J0.0015
G1 X-0.0461 Y8.0425
G3 X-0.046 Y8.0409 I0.0624 J0.0031
G1 X-0.029 Y7.8168
G3 X-0.0288 Y7.8152 I0.0623 J0.0047
G1 X-0.006 Y7.5917
G3 X-0.0058 Y7.59 I0.0622 J0.0064
G1 X0.0229 Y7.3672
G3 X0.0231 Y7.3656 I0.062 J0.008
G1 X0.0576 Y7.1435
G3 X0.0579 Y7.1419 I0.0618 J0.0096
G1 X0.0982 Y6.9209
G3 X0.0985 Y6.9193 I0.0615 J0.0112
G1 X0.1446 Y6.6994
G3 X0.1449 Y6.6978 I0.0612 J0.0128
G1 X0.1968 Y6.4791
G3 X0.1972 Y6.4776 I0.0608 J0.0144
G1 X0.2547 Y6.2604
G3 X0.2551 Y6.2588 I0.0604 J0.016
G1 X0.3183 Y6.0432
G3 X0.3188 Y6.0416 I0.06 J0.0176
G1 X0.3876 Y5.8277
G3 X0.3881 Y5.8262 I0.0595 J0.0191
G1 X0.4625 Y5.6141
G3 X0.4631 Y5.6126 I0.059 J0.0207
G1 X0.543 Y5.4026
G3 X0.5436 Y5.4011 I0.0584 J0.0222
G1 X0.629 Y5.1933
G3 X0.6296 Y5.1918 I0.0578 J0.0238
G1 X0.7204 Y4.9862
G3 X0.7211 Y4.9847 I0.0572 J0.0253
G1 X0.8173 Y4.7817
G3 X0.818 Y4.7802 I0.0565 J0.0267
G1 X0.9194 Y4.5797
G3 X0.9202 Y4.5783 I0.0558 J0.0282
G1 X1.0268 Y4.3805
G3 X1.0276 Y4.3791 I0.055 J0.0297
G1 X1.1394 Y4.1841
G3 X1.1402 Y4.1827 I0.0542 J0.0311
G1 X1.2571 Y3.9908
G3 X1.2579 Y3.9894 I0.0534 J0.0325
G1 X1.3798 Y3.8006
G3 X1.3807 Y3.7993 I0.0525 J0.0339
G1 X1.5074 Y3.6137
G3 X1.5083 Y3.6124 I0.0516 J0.0353
G1 X1.6399 Y3.4302
G3 X1.6409 Y3.4289 I0.0507 J0.0366
G1 X1.7771 Y3.2503
G3 X1.7781 Y3.249 I0.0497 J0.0379
G1 X1.919 Y3.074
G3 X1.9201 Y3.0727 I0.0487 J0.0392
G1 X2.0655 Y2.9014
G3 X2.0666 Y2.9002 I0.0476 J0.0405
G1 X2.2164 Y2.7328
G3 X2.2176 Y2.7316 I0.0466 J0.0417
G1 X2.3718 Y2.5682
G3 X2.3729 Y2.567 I0.0455 J0.0429
G1 X2.5313 Y2.4077
G3 X2.5325 Y2.4065 I0.0443 J0.0441
G1 X2.695 Y2.2514
G3 X2.6962 Y2.2503 I0.0432 J0.0452
G1 X2.8628 Y2.0994
G3 X2.864 Y2.0984 I0.042 J0.0463
G1 X3.0344 Y1.9519
G3 X3.0357 Y1.9509 I0.0407 J0.0474
G1 X3.2099 Y1.809
G3 X3.2112 Y1.808 I0.0395 J0.0485
G1 X3.389 Y1.6707
G3 X3.3903 Y1.6697 I0.0382 J0.0495
G1 X3.5717 Y1.5371
G3 X3.5731 Y1.5362 I0.0369 J0.0505
G1 X3.7579 Y1.4084
G3 X3.7592 Y1.4074 I0.0355 J0.0514
G1 X3.9473 Y1.2845
G3 X3.9487 Y1.2837 I0.0342 J0.0523
G1 X4.1399 Y1.1657
G3 X4.1413 Y1.1649 I0.0328 J0.0532
G1 X4.3356 Y1.052
G3 X4.337 Y1.0512 I0.0314 J0.054
G1 X4.5342 Y0.9434
G3 X4.5356 Y0.9426 I0.03 J0.0548
G1 X4.7355 Y0.84
G3 X4.737 Y0.8393 I0.0285 J0.0556
G1 X4.9395 Y0.742
G3 X4.941 Y0.7413 I0.0271 J0.0563
G1 X5.146 Y0.6493
G3 X5.1475 Y0.6487 I0.0256 J0.057
G1 X5.3548 Y0.5621
G3 X5.3563 Y0.5615 I0.0241 J0.0577
G1 X5.5659 Y0.4803
G3 X5.5674 Y0.4798 I0.0226 J0.0583
G1 X5.779 Y0.4042
G3 X5.7805 Y0.4036 I0.021 J0.0589
G1 X5.994 Y0.3336
G3 X5.9956 Y0.3331 I0.0195 J0.0594
G1 X6.2108 Y0.2687
G3 X6.2124 Y0.2682 I0.0179 J0.0599
G1 X6.4293 Y0.2094
G3 X6.4308 Y0.209 I0.0164 J0.0603
G1 X6.6492 Y0.1559
G3 X6.6508 Y0.1556 I0.0148 J0.0607
G1 X6.8704 Y0.1082
G3 X6.872 Y0.1079 I0.0132 J0.0611
G1 X7.0928 Y0.0663
G3 X7.0944 Y0.066 I0.0116 J0.0614
G1 X7.3163 Y0.0303
G3 X7.3179 Y0.03 I0.01 J0.0617
G1 X7.5406 Y0
G3 X7.5422 Y-0.0002 I0.0083 J0.0619
G1 X7.7656 Y-0.0243
G3 X7.7672 Y-0.0244 I0.0067 J0.0621
G1 X7.9911 Y-0.0427
G3 X7.9928 Y-0.0428 I0.0051 J0.0623
G1 X8.2171 Y-0.0552
G3 X8.2187 Y-0.0553 I0.0035 J0.0624
G1 X8.4433 Y-0.0618
G3 X8.445 Y-0.0619 I0.0018 J0.0625
G1 X8.6697 Y-0.0625
G3 X8.6713 Y-0.0625 I0.0002 J0.0625
G1 X8.8959 Y-0.0572
G3 X8.8976 Y-0.0572 I-0.0015 J0.0625
G1 X9.122 Y-0.0461
G3 X9.1236 Y-0.046 I-0.0031 J0.0624
G1 X9.3477 Y-0.029
G3 X9.3493 Y-0.0288 I-0.0047 J0.0623
G1 X9.5728 Y-0.006
G3 X9.5744 Y-0.0058 I-0.0064 J0.0622
G1 X9.7973 Y0.0229
G3 X9.7989 Y0.0231 I-0.008 J0.062
G1 X10.0209 Y0.0576
G3 X10.0225 Y0.0579 I-0.0096 J0.0618
G1 X10.2436 Y0.0982
G3 X10.2452 Y0.0985 I-0.0112 J0.0615
G1 X10.4651 Y0.1446
G3 X10.4667 Y0.1449 I-0.0128 J0.0612
G1 X10.6853 Y0.1968
G3 X10.6869 Y0.1972 I-0.0144 J0.0608
G1 X10.9041 Y0.2547
G3 X10.9057 Y0.2551 I-0.016 J0.0604
G1 X11.1213 Y0.3183
G3 X11.1229 Y0.3188 I-0.0176 J0.06
G1 X11.3368 Y0.3876
G3 X11.3383 Y0.3881 I-0.0191 J0.0595
G1 X11.5503 Y0.4625
G3 X11.5519 Y0.4631 I-0.0207 J0.059
G1 X11.7619 Y0.543
G3 X11.7634 Y0.5436 I-0.0222 J0.0584
G1 X11.9712 Y0.629
G3 X11.9727 Y0.6296 I-0.0238 J0.0578
G1 X12.1782 Y0.7204
G3 X12.1797 Y0.7211 I-0.0253 J0.0572
G1 X12.3828 Y0.8173
G3 X12.3843 Y0.818 I-0.0267 J0.0565
G1 X12.5848 Y0.9194
G3 X12.5862 Y0.9202 I-0.0282 J0.0558
G1 X12.784 Y1.0268
G3 X12.7854 Y1.0276 I-0.0297 J0.055
G1 X12.9803 Y1.1394
G3 X12.9817 Y1.1402 I-0.0311 J0.0542
G1 X13.1736 Y1.2571
G3 X13.175 Y1.2579 I-0.0325 J0.0534
G1 X13.3638 Y1.3798
G3 X13.3652 Y1.3807 I-0.0339 J0.0525
G1 X13.5507 Y1.5074
G3 X13.5521 Y1.5083 I-0.0353 J0.0516
G1 X13.7342 Y1.6399
G3 X13.7355 Y1.6409 I-0.0366 J0.0507
G1 X13.9142 Y1.7771
G3 X13.9155 Y1.7781 I-0.0379 J0.0497
G1 X14.0905 Y1.919
G3 X14.0917 Y1.9201 I-0.0392 J0.0487
G1 X14.263 Y2.0655
G3 X14.2643 Y2.0666 I-0.0405 J0.0476
G1 X14.4317 Y2.2164
G3 X14.4329 Y2.2176 I-0.0417 J0.0466
G1 X14.5963 Y2.3718
G3 X14.5975 Y2.3729 I-0.0429 J0.0455
G1 X14.7568 Y2.5313
G3 X14.7579 Y2.5325 I-0.0441 J0.0443
G1 X14.9131 Y2.695
G3 X14.9142 Y2.6962 I-0.0452 J0.0432
G1 X15.065 Y2.8628
G3 X15.0661 Y2.864 I-0.0463 J0.042
G1 X15.2125 Y3.0344
G3 X15.2136 Y3.0357 I-0.0474 J0.0407
G1 X15.3555 Y3.2099
G3 X15.3565 Y3.2112 I-0.0485 J0.0395
G1 X15.4938 Y3.389
G3 X15.4948 Y3.3903 I-0.0495 J0.0382
G1 X15.6274 Y3.5717
G3 X15.6283 Y3.5731 I-0.0505 J0.0369
G1 X15.7561 Y3.7579
G3 X15.757 Y3.7592 I-0.0514 J0.0355
G1 X15.8799 Y3.9473
G3 X15.8808 Y3.9487 I-0.0523 J0.0342
G1 X15.9988 Y4.1399
G3 X15.9996 Y4.1413 I-0.0532 J0.0328
G1 X16.1125 Y4.3356
G3 X16.1133 Y4.337 I-0.054 J0.0314
G1 X16.2211 Y4.5342
G3 X16.2219 Y4.5356 I-0.0548 J0.03
G1 X16.3244 Y4.7355
G3 X16.3252 Y4.737 I-0.0556 J0.0285
G1 X16.4225 Y4.9395
G3 X16.4232 Y4.941 I-0.0563 J0.0271
G1 X16.5151 Y5.146
G3 X16.5158 Y5.1475 I-0.057 J0.0256
G1 X16.6024 Y5.3548
G3 X16.603 Y5.3563 I-0.0577 J0.0241
G1 X16.6841 Y5.5659
G3 X16.6847 Y5.5674 I-0.0583 J0.0226
G1 X16.7603 Y5.779
G3 X16.7608 Y5.7805 I-0.0589 J0.021
G1 X16.8309 Y5.994
G3 X16.8314 Y5.9956 I-0.0594 J0.0195
G1 X16.8958 Y6.2108
G3 X16.8962 Y6.2124 I-0.0599 J0.0179
G1 X16.955 Y6.4293
G3 X16.9554 Y6.4308 I-0.0603 J0.0164
G1 X17.0085 Y6.6492
G3 X17.0089 Y6.6508 I-0.0607 J0.0148
G1 X17.0562 Y6.8704
G3 X17.0566 Y6.872 I-0.0611 J0.0132
G1 X17.0981 Y7.0928
G3 X17.0984 Y7.0944 I-0.0614 J0.0116
G1 X17.1342 Y7.3163
G3 X17.1344 Y7.3179 I-0.0617 J0.01
G1 X17.1644 Y7.5406
G3 X17.1646 Y7.5422 I-0.0619 J0.0083
G1 X17.1887 Y7.7656
G3 X17.1889 Y7.7672 I-0.0621 J0.0067
G1 X17.2072 Y7.9911
G3 X17.2073 Y7.9928 I-0.0623 J0.0051
G1 X17.2197 Y8.2171
G3 X17.2198 Y8.2187 I-0.0624 J0.0035
G1 X17.2263 Y8.4433
G3 X17.2263 Y8.445 I-0.0625 J0.0018
G1 X17.227 Y8.6697
G1 X17.227 Y8.6698
G3 X17.2269 Y8.6713 I-0.0625 J0
G1 X17.2217 Y8.8959
G3 X17.2216 Y8.8976 I-0.0625 J-0.0015
G1 Z-0.6 F30
G1 X17.2105 Y9.122 F25
G3 X17.2104 Y9.1236 I-0.0624 J-0.0031
G1 X17.1935 Y9.3477
G3 X17.1933 Y9.3493 I-0.0623 J-0.0047
G1 X17.1705 Y9.5728
G3 X17.1703 Y9.5744 I-0.0622 J-0.0064
G1 X17.1416 Y9.7973
G3 X17.1414 Y9.7989 I-0.062 J-0.008
G1 X17.1069 Y10.0209
G3 X17.1066 Y10.0225 I-0.0618 J-0.0096
G1 X17.0663 Y10.2436
G3 X17.066 Y10.2452 I-0.0615 J-0.0112
G1 X17.0199 Y10.4651
G3 X17.0195 Y10.4667 I-0.0612 J-0.0128
G1 X16.9677 Y10.6853
G3 X16.9673 Y10.6869 I-0.0608 J-0.0144
G1 X16.9098 Y10.9041
G3 X16.9093 Y10.9057 I-0.0604 J-0.016
G1 X16.8461 Y11.1213
G3 X16.8457 Y11.1229 I-0.06 J-0.0176
G1 X16.7768 Y11.3368
G3 X16.7763 Y11.3383 I-0.0595 J-0.0191
G1 X16.7019 Y11.5503
G3 X16.7014 Y11.5519 I-0.059 J-0.0207
G1 X16.6214 Y11.7619
G3 X16.6208 Y11.7634 I-0.0584 J-0.0222
G1 X16.5355 Y11.9712
G3 X16.5348 Y11.9727 I-0.0578 J-0.0238
G1 X16.444 Y12.1782
G3 X16.4433 Y12.1797 I-0.0572 J-0.0253
G1 X16.3472 Y12.3828
G3 X16.3465 Y12.3843 I-0.0565 J-0.0267
G1 X16.245 Y12.5848
G3 X16.2443 Y12.5862 I-0.0558 J-0.0282
G1 X16.1376 Y12.784
G3 X16.1369 Y12.7854 I-0.055 J-0.0297
G1 X16.0251 Y12.9803
G3 X16.0242 Y12.9817 I-0.0542 J-0.0311
G1 X15.9074 Y13.1736
G3 X15.9065 Y13.175 I-0.0534 J-0.0325
G1 X15.7847 Y13.3638
G3 X15.7838 Y13.3652 I-0.0525 J-0.0339
G1 X15.6571 Y13.5507
G3 X15.6561 Y13.5521 I-0.0516 J-0.0353
G1 X15.5246 Y13.7342
G3 X15.5236 Y13.7355 I-0.0507 J-0.0366
G1 X15.3873 Y13.9142
G3 X15.3863 Y13.9155 I-0.0497 J-0.0379
G1 X15.2454 Y14.0905
G3 X15.2444 Y14.0917 I-0.0487 J-0.0392
G1 X15.099 Y14.263
G3 X15.0979 Y14.2643 I-0.0476 J-0.0405
G1 X14.948 Y14.4317
G3 X14.9469 Y14.4329 I-0.0466 J-0.0417
G1 X14.7927 Y14.5963
G3 X14.7916 Y14.5975 I-0.0455 J-0.0429
G1 X14.6332 Y14.7568
G3 X14.632 Y14.7579 I-0.0443 J-0.0441
G1 X14.4694 Y14.9131
G3 X14.4682 Y14.9142 I-0.0432 J-0.0452
G1 X14.3017 Y15.065
G3 X14.3005 Y15.0661 I-0.042 J-0.0463
G1 X14.13 Y15.2125
G3 X14.1288 Y15.2136 I-0.0407 J-0.0474
G1 X13.9546 Y15.3555
G3 X13.9533 Y15.3565 I-0.0395 J-0.0485
G1 X13.7754 Y15.4938
G3 X13.7741 Y15.4948 I-0.0382 J-0.0495
G1 X13.5927 Y15.6274
G3 X13.5914 Y15.6283 I-0.0369 J-0.0505
G1 X13.4066 Y15.7561
G3 X13.4052 Y15.757 I-0.0355 J-0.0514
G1 X13.2172 Y15.8799
G3 X13.2158 Y15.8808 I-0.0342 J-0.0523
G1 X13.0245 Y15.9988
G3 X13.0231 Y15.9996 I-0.0328 J-0.0532
G1 X12.8289 Y16.1125
G3 X12.8274 Y16.1133 I-0.0314 J-0.054
G1 X12.6303 Y16.2211
G3 X12.6289 Y16.2219 I-0.03 J-0.0548
G1 X12.429 Y16.3244
G3 X12.4275 Y16.3252 I-0.0285 J-0.0556
G1 X12.225 Y16.4225
G3 X12.2235 Y16.4232 I-0.0271 J-0.0563
G1 X12.0185 Y16.5151
G3 X12.017 Y16.5158 I-0.0256 J-0.057
G1 X11.8096 Y16.6024
G3 X11.8081 Y16.603 I-0.0241 J-0.0577
G1 X11.5986 Y16.6841
G3 X11.5971 Y16.6847 I-0.0226 J-0.0583
G1 X11.3855 Y16.7603
G3 X11.3839 Y16.7608 I-0.021 J-0.0589
G1 X11.1704 Y16.8309
G3 X11.1689 Y16.8314 I-0.0195 J-0.0594
G1 X10.9536 Y16.8958
G3 X10.9521 Y16.8962 I-0.0179 J-0.0599
G1 X10.7352 Y16.955
G3 X10.7336 Y16.9554 I-0.0164 J-0.0603
G1 X10.5153 Y17.0085
G3 X10.5137 Y17.0089 I-0.0148 J-0.0607
G1 X10.294 Y17.0562
G3 X10.2924 Y17.0566 I-0.0132 J-0.0611
G1 X10.0716 Y17.0981
G3 X10.07 Y17.0984 I-0.0116 J-0.0614
G1 X9.8482 Y17.1342
G3 X9.8466 Y17.1344 I-0.01 J-0.0617
G1 X9.6239 Y17.1644
G3 X9.6223 Y17.1646 I-0.0083 J-0.0619
G1 X9.3989 Y17.1887
G3 X9.3973 Y17.1889 I-0.0067 J-0.0621
G1 X9.1733 Y17.2072
G3 X9.1717 Y17.2073 I-0.0051 J-0.0623
G1 X8.9473 Y17.2197
G3 X8.9457 Y17.2198 I-0.0035 J-0.0624
G1 X8.7211 Y17.2263
G3 X8.7195 Y17.2263 I-0.0018 J-0.0625
G1 X8.4948 Y17.227
G3 X8.4932 Y17.2269 I-0.0002 J-0.0625
G1 X8.2685 Y17.2217
G3 X8.2669 Y17.2216 I0.0015 J-0.0625
G1 X8.0425 Y17.2105
G3 X8.0409 Y17.2104 I0.0031 J-0.0624
G1 X7.8168 Y17.1935
G3 X7.8152 Y17.1933 I0.0047 J-0.0623
G1 X7.5917 Y17.1705
G3 X7.59 Y17.1703 I0.0064 J-0.0622
G1 X7.3672 Y17.1416
G3 X7.3656 Y17.1414 I0.008 J-0.062
G1 X7.1435 Y17.1069
G3 X7.1419 Y17.1066 I0.0096 J-0.0618
G1 X6.9209 Y17.0663
G3 X6.9193 Y17.066 I0.0112 J-0.0615
G1 X6.6994 Y17.0199
G3 X6.6978 Y17.0195 I0.0128 J-0.0612
G1 X6.4791 Y16.9677
G3 X6.4776 Y16.9673 I0.0144 J-0.0608
G1 X6.2604 Y16.9098
G3 X6.2588 Y16.9093 I0.016 J-0.0604
G1 X6.0432 Y16.8461
G3 X6.0416 Y16.8457 I0.0176 J-0.06
G1 X5.8277 Y16.7768
G3 X5.8262 Y16.7763 I0.0191 J-0.0595
G1 X5.6141 Y16.7019
G3 X5.6126 Y16.7014 I0.0207 J-0.059
G1 X5.4026 Y16.6214
G3 X5.4011 Y16.6208 I0.0222 J-0.0584
G1 X5.1933 Y16.5355
G3 X5.1918 Y16.5348 I0.0238 J-0.0578
G1 X4.9862 Y16.444
G3 X4.9847 Y16.4433 I0.0253 J-0.0572
G1 X4.7817 Y16.3472
G3 X4.7802 Y16.3465 I0.0267 J-0.0565
G1 X4.5797 Y16.245
G3 X4.5783 Y16.2443 I0.0282 J-0.0558
G1 X4.3805 Y16.1376
G3 X4.3791 Y16.1369 I0.0297 J-0.055
G1 X4.1841 Y16.0251
G3 X4.1827 Y16.0242 I0.0311 J-0.0542
G1 X3.9908 Y15.9074
G3 X3.9894 Y15.9065 I0.0325 J-0.0534
G1 X3.8006 Y15.7847
G3 X3.7993 Y15.7838 I0.0339 J-0.0525
G1 X3.6137 Y15.6571
G3 X3.6124 Y15.6561 I0.0353 J-0.0516
G1 X3.4302 Y15.5246
G3 X3.4289 Y15.5236 I0.0366 J-0.0507
G1 X3.2503 Y15.3873
G3 X3.249 Y15.3863 I0.0379 J-0.0497
G1 X3.074 Y15.2454
G3 X3.0727 Y15.2444 I0.0392 J-0.0487
G1 X2.9014 Y15.099
G3 X2.9002 Y15.0979 I0.0405 J-0.0476
G1 X2.7328 Y14.948
G3 X2.7316 Y14.9469 I0.0417 J-0.0466
G1 X2.5682 Y14.7927
G3 X2.567 Y14.7916 I0.0429 J-0.0455
G1 X2.4077 Y14.6332
G3 X2.4065 Y14.632 I0.0441 J-0.0443
G1 X2.2514 Y14.4694
G3 X2.2503 Y14.4682 I0.0452 J-0.0432
G1 X2.0994 Y14.3017
G3 X2.0984 Y14.3005 I0.0463 J-0.042
G1 X1.9519 Y14.13
G3 X1.9509 Y14.1288 I0.0474 J-0.0407
G1 X1.809 Y13.9546
G3 X1.808 Y13.9533 I0.0485 J-0.0395
G1 X1.6707 Y13.7754
G3 X1.6697 Y13.7741 I0.0495 J-0.0382
G1 X1.5371 Y13.5927
G3 X1.5362 Y13.5914 I0.0505 J-0.0369
G1 X1.4084 Y13.4066
G3 X1.4074 Y13.4052 I0.0514 J-0.0355
G1 X1.2845 Y13.2172
G3 X1.2837 Y13.2158 I0.0523 J-0.0342
G1 X1.1657 Y13.0245
G3 X1.1649 Y13.0231 I0.0532 J-0.0328
G1 X1.052 Y12.8289
G3 X1.0512 Y12.8274 I0.054 J-0.0314
G1 X0.9434 Y12.6303
G3 X0.9426 Y12.6289 I0.0548 J-0.03
G1 X0.84 Y12.429
G3 X0.8393 Y12.4275 I0.0556 J-0.0285
G1 X0.742 Y12.225
G3 X0.7413 Y12.2235 I0.0563 J-0.0271
G1 X0.6493 Y12.0185
G3 X0.6487 Y12.017 I0.057 J-0.0256
G1 X0.5621 Y11.8096
G3 X0.5615 Y11.8081 I0.0577 J-0.0241
G1 X0.4803 Y11.5986
G3 X0.4798 Y11.5971 I0.0583 J-0.0226
G1 X0.4042 Y11.3855
G3 X0.4036 Y11.3839 I0.0589 J-0.021
G1 X0.3336 Y11.1704
G3 X0.3331 Y11.1689 I0.0594 J-0.0195
G1 X0.2687 Y10.9536
G3 X0.2682 Y10.9521 I0.0599 J-0.0179
G1 X0.2094 Y10.7352
G3 X0.209 Y10.7336 I0.0603 J-0.0164
G1 X0.1559 Y10.5153
G3 X0.1556 Y10.5137 I0.0607 J-0.0148
G1 X0.1082 Y10.294
G3 X0.1079 Y10.2924 I0.0611 J-0.0132
G1 X0.0663 Y10.0716
G3 X0.066 Y10.07 I0.0614 J-0.0116
G1 X0.0303 Y9.8482
G3 X0.03 Y9.8466 I0.0617 J-0.01
G1 X0 Y9.6239
G3 X-0.0002 Y9.6223 I0.0619 J-0.0083
G1 X-0.0243 Y9.3989
G3 X-0.0244 Y9.3973 I0.0621 J-0.0067
G1 X-0.0427 Y9.1733
G3 X-0.0428 Y9.1717 I0.0623 J-0.0051
G1 X-0.0552 Y8.9473
G3 X-0.0553 Y8.9457 I0.0624 J-0.0035
G1 X-0.0618 Y8.7211
G3 X-0.0619 Y8.7195 I0.0625 J-0.0018
G1 X-0.0625 Y8.4948
G1 X-0.0625 Y8.4946
G3 X-0.0625 Y8.4932 I0.0625 J0
G1 X-0.0572 Y8.2685
G3 X-0.0572 Y8.2669 I0.0625 J0.0015
G1 X-0.0461 Y8.0425
G3 X-0.046 Y8.0409 I0.0624 J0.0031
G1 X-0.029 Y7.8168
G3 X-0.0288 Y7.8152 I0.0623 J0.0047
G1 X-0.006 Y7.5917
G3 X-0.0058 Y7.59 I0.0622 J0.0064
G1 X0.0229 Y7.3672
G3 X0.0231 Y7.3656 I0.062 J0.008
G1 X0.0576 Y7.1435
G3 X0.0579 Y7.1419 I0.0618 J0.0096
G1 X0.0982 Y6.9209
G3 X0.0985 Y6.9193 I0.0615 J0.0112
G1 X0.1446 Y6.6994
G3 X0.1449 Y6.6978 I0.0612 J0.0128
G1 X0.1968 Y6.4791
G3 X0.1972 Y6.4776 I0.0608 J0.0144
G1 X0.2547 Y6.2604
G3 X0.2551 Y6.2588 I0.0604 J0.016
G1 X0.3183 Y6.0432
G3 X0.3188 Y6.0416 I0.06 J0.0176
G1 X0.3876 Y5.8277
G3 X0.3881 Y5.8262 I0.0595 J0.0191
G1 X0.4625 Y5.6141
G3 X0.4631 Y5.6126 I0.059 J0.0207
G1 X0.543 Y5.4026
G3 X0.5436 Y5.4011 I0.0584 J0.0222
G1 X0.629 Y5.1933
G3 X0.6296 Y5.1918 I0.0578 J0.0238
G1 X0.7204 Y4.9862
G3 X0.7211 Y4.9847 I0.0572 J0.0253
G1 X0.8173 Y4.7817
G3 X0.818 Y4.7802 I0.0565 J0.0267
G1 X0.9194 Y4.5797
G3 X0.9202 Y4.5783 I0.0558 J0.0282
G1 X1.0268 Y4.3805
G3 X1.0276 Y4.3791 I0.055 J0.0297
G1 X1.1394 Y4.1841
G3 X1.1402 Y4.1827 I0.0542 J0.0311
G1 X1.2571 Y3.9908
G3 X1.2579 Y3.9894 I0.0534 J0.0325
G1 X1.3798 Y3.8006
G3 X1.3807 Y3.7993 I0.0525 J0.0339
G1 X1.5074 Y3.6137
G3 X1.5083 Y3.6124 I0.0516 J0.0353
G1 X1.6399 Y3.4302
G3 X1.6409 Y3.4289 I0.0507 J0.0366
G1 X1.7771 Y3.2503
G3 X1.7781 Y3.249 I0.0497 J0.0379
G1 X1.919 Y3.074
G3 X1.9201 Y3.0727 I0.0487 J0.0392
G1 X2.0655 Y2.9014
G3 X2.0666 Y2.9002 I0.0476 J0.0405
G1 X2.2164 Y2.7328
G3 X2.2176 Y2.7316 I0.0466 J0.0417
G1 X2.3718 Y2.5682
G3 X2.3729 Y2.567 I0.0455 J0.0429
G1 X2.5313 Y2.4077
G3 X2.5325 Y2.4065 I0.0443 J0.0441
G1 X2.695 Y2.2514
G3 X2.6962 Y2.2503 I0.0432 J0.0452
G1 X2.8628 Y2.0994
G3 X2.864 Y2.0984 I0.042 J0.0463
G1 X3.0344 Y1.9519
G3 X3.0357 Y1.9509 I0.0407 J0.0474
G1 X3.2099 Y1.809
G3 X3.2112 Y1.808 I0.0395 J0.0485
G1 X3.389 Y1.6707
G3 X3.3903 Y1.6697 I0.0382 J0.0495
G1 X3.5717 Y1.5371
G3 X3.5731 Y1.5362 I0.0369 J0.0505
G1 X3.7579 Y1.4084
G3 X3.7592 Y1.4074 I0.0355 J0.0514
G1 X3.9473 Y1.2845
G3 X3.9487 Y1.2837 I0.0342 J0.0523
G1 X4.1399 Y1.1657
G3 X4.1413 Y1.1649 I0.0328 J0.0532
G1 X4.3356 Y1.052
G3 X4.337 Y1.0512 I0.0314 J0.054
G1 X4.5342 Y0.9434
G3 X4.5356 Y0.9426 I0.03 J0.0548
G1 X4.7355 Y0.84
G3 X4.737 Y0.8393 I0.0285 J0.0556
G1 X4.9395 Y0.742
G3 X4.941 Y0.7413 I0.0271 J0.0563
G1 X5.146 Y0.6493
G3 X5.1475 Y0.6487 I0.0256 J0.057
G1 X5.3548 Y0.5621
G3 X5.3563 Y0.5615 I0.0241 J0.0577
G1 X5.5659 Y0.4803
G3 X5.5674 Y0.4798 I0.0226 J0.0583
G1 X5.779 Y0.4042
G3 X5.7805 Y0.4036 I0.021 J0.0589
G1 X5.994 Y0.3336
G3 X5.9956 Y0.3331 I0.0195 J0.0594
G1 X6.2108 Y0.2687
G3 X6.2124 Y0.2682 I0.0179 J0.0599
G1 X6.4293 Y0.2094
G3 X6.4308 Y0.209 I0.0164 J0.0603
G1 X6.6492 Y0.1559
G3 X6.6508 Y0.1556 I0.0148 J0.0607
G1 X6.8704 Y0.1082
G3 X6.872 Y0.1079 I0.0132 J0.0611
G1 X7.0928 Y0.0663
G3 X7.0944 Y0.066 I0.0116 J0.0614
G1 X7.3163 Y0.0303
G3 X7.3179 Y0.03 I0.01 J0.0617
G1 X7.5406 Y0
G3 X7.5422 Y-0.0002 I0.0083 J0.0619
G1 X7.7656 Y-0.0243
G3 X7.7672 Y-0.0244 I0.0067 J0.0621
G1 X7.9911 Y-0.0427
G3 X7.9928 Y-0.0428 I0.0051 J0.0623
G1 X8.2171 Y-0.0552
G3 X8.2187 Y-0.0553 I0.0035 J0.0624
G1 X8.4433 Y-0.0618
G3 X8.445 Y-0.0619 I0.0018 J0.0625
G1 X8.6697 Y-0.0625
G3 X8.6713 Y-0.0625 I0.0002 J0.0625
G1 X8.8959 Y-0.0572
G3 X8.8976 Y-0.0572 I-0.0015 J0.0625
G1 X9.122 Y-0.0461
G3 X9.1236 Y-0.046 I-0.0031 J0.0624
G1 X9.3477 Y-0.029
G3 X9.3493 Y-0.0288 I-0.0047 J0.0623
G1 X9.5728 Y-0.006
G3 X9.5744 Y-0.0058 I-0.0064 J0.0622
G1 X9.7973 Y0.0229
G3 X9.7989 Y0.0231 I-0.008 J0.062
G1 X10.0209 Y0.0576
G3 X10.0225 Y0.0579 I-0.0096 J0.0618
G1 X10.2436 Y0.0982
G3 X10.2452 Y0.0985 I-0.0112 J0.0615
G1 X10.4651 Y0.1446
G3 X10.4667 Y0.1449 I-0.0128 J0.0612
G1 X10.6853 Y0.1968
G3 X10.6869 Y0.1972 I-0.0144 J0.0608
G1 X10.9041 Y0.2547
G3 X10.9057 Y0.2551 I-0.016 J0.0604
G1 X11.1213 Y0.3183
G3 X11.1229 Y0.3188 I-0.0176 J0.06
G1 X11.3368 Y0.3876
G3 X11.3383 Y0.3881 I-0.0191 J0.0595
G1 X11.5503 Y0.4625
G3 X11.5519 Y0.4631 I-0.0207 J0.059
G1 X11.7619 Y0.543
G3 X11.7634 Y0.5436 I-0.0222 J0.0584
G1 X11.9712 Y0.629
G3 X11.9727 Y0.6296 I-0.0238 J0.0578
G1 X12.1782 Y0.7204
G3 X12.1797 Y0.7211 I-0.0253 J0.0572
G1 X12.3828 Y0.8173
G3 X12.3843 Y0.818 I-0.0267 J0.0565
G1 X12.5848 Y0.9194
G3 X12.5862 Y0.9202 I-0.0282 J0.0558
G1 X12.784 Y1.0268
G3 X12.7854 Y1.0276 I-0.0297 J0.055
G1 X12.9803 Y1.1394
G3 X12.9817 Y1.1402 I-0.0311 J0.0542
G1 X13.1736 Y1.2571
G3 X13.175 Y1.2579 I-0.0325 J0.0534
G1 X13.3638 Y1.3798
G3 X13.3652 Y1.3807 I-0.0339 J0.0525
G1 X13.5507 Y1.5074
G3 X13.5521 Y1.5083 I-0.0353 J0.0516
G1 X13.7342 Y1.6399
G3 X13.7355 Y1.6409 I-0.0366 J0.0507
G1 X13.9142 Y1.7771
G3 X13.9155 Y1.7781 I-0.0379 J0.0497
G1 X14.0905 Y1.919
G3 X14.0917 Y1.9201 I-0.0392 J0.0487
G1 X14.263 Y2.0655
G3 X14.2643 Y2.0666 I-0.0405 J0.0476
G1 X14.4317 Y2.2164
G3 X14.4329 Y2.2176 I-0.0417 J0.0466
G1 X14.5963 Y2.3718
G3 X14.5975 Y2.3729 I-0.0429 J0.0455
G1 X14.7568 Y2.5313
G3 X14.7579 Y2.5325 I-0.0441 J0.0443
G1 X14.9131 Y2.695
G3 X14.9142 Y2.6962 I-0.0452 J0.0432
G1 X15.065 Y2.8628
G3 X15.0661 Y2.864 I-0.0463 J0.042
G1 X15.2125 Y3.0344
G3 X15.2136 Y3.0357 I-0.0474 J0.0407
G1 X15.3555 Y3.2099
G3 X15.3565 Y3.2112 I-0.0485 J0.0395
G1 X15.4938 Y3.389
G3 X15.4948 Y3.3903 I-0.0495 J0.0382
G1 X15.6274 Y3.5717
G3 X15.6283 Y3.5731 I-0.0505 J0.0369
G1 X15.7561 Y3.7579
G3 X15.757 Y3.7592 I-0.0514 J0.0355
G1 X15.8799 Y3.9473
G3 X15.8808 Y3.9487 I-0.0523 J0.0342
G1 X15.9988 Y4.1399
G3 X15.9996 Y4.1413 I-0.0532 J0.0328
G1 X16.1125 Y4.3356
G3 X16.1133 Y4.337 I-0.054 J0.0314
G1 X16.2211 Y4.5342
G3 X16.2219 Y4.5356 I-0.0548 J0.03
G1 X16.3244 Y4.7355
G3 X16.3252 Y4.737 I-0.0556 J0.0285
G1 X16.4225 Y4.9395
G3 X16.4232 Y4.941 I-0.0563 J0.0271
G1 X16.5151 Y5.146
G3 X16.5158 Y5.1475 I-0.057 J0.0256
G1 X16.6024 Y5.3548
G3 X16.603 Y5.3563 I-0.0577 J0.0241
G1 X16.6841 Y5.5659
G3 X16.6847 Y5.5674 I-0.0583 J0.0226
G1 X16.7603 Y5.779
G3 X16.7608 Y5.7805 I-0.0589 J0.021
G1 X16.8309 Y5.994
G3 X16.8314 Y5.9956 I-0.0594 J0.0195
G1 X16.8958 Y6.2108
G3 X16.8962 Y6.2124 I-0.0599 J0.0179
G1 X16.955 Y6.4293
G3 X16.9554 Y6.4308 I-0.0603 J0.0164
G1 X17.0085 Y6.6492
G3 X17.0089 Y6.6508 I-0.0607 J0.0148
G1 X17.0562 Y6.8704
G3 X17.0566 Y6.872 I-0.0611 J0.0132
G1 X17.0981 Y7.0928
G3 X17.0984 Y7.0944 I-0.0614 J0.0116
G1 X17.1342 Y7.3163
G3 X17.1344 Y7.3179 I-0.0617 J0.01
G1 X17.1644 Y7.5406
G3 X17.1646 Y7.5422 I-0.0619 J0.0083
G1 X17.1887 Y7.7656
G3 X17.1889 Y7.7672 I-0.0621 J0.0067
G1 X17.2072 Y7.9911
G3 X17.2073 Y7.9928 I-0.0623 J0.0051
G1 X17.2197 Y8.2171
G3 X17.2198 Y8.2187 I-0.0624 J0.0035
G1 X17.2263 Y8.4433
G3 X17.2263 Y8.445 I-0.0625 J0.0018
G1 X17.227 Y8.6697
G1 X17.227 Y8.6698
G3 X17.2269 Y8.6713 I-0.0625 J0
G1 X17.2217 Y8.8959
G3 X17.2216 Y8.8976 I-0.0625 J-0.0015
G1 Z-0.75 F30
G1 X17.2105 Y9.122 F25
G3 X17.2104 Y9.1236 I-0.0624 J-0.0031
G1 X17.1935 Y9.3477
G3 X17.1933 Y9.3493 I-0.0623 J-0.0047
G1 X17.1705 Y9.5728
G3 X17.1703 Y9.5744 I-0.0622 J-0.0064
G1 X17.1416 Y9.7973
G3 X17.1414 Y9.7989 I-0.062 J-0.008
G1 X17.1069 Y10.0209
G3 X17.1066 Y10.0225 I-0.0618 J-0.0096
G1 X17.0663 Y10.2436
