(Generated by PartKam Version 0.05)

G20 G90 G40

(profile 1)
G0 Z0.25
T0 M6
G17
M3
G0 X7.7978 Y9.2742
G1 Z-0.15 F30
G1 X7.7067 Y9.1709 F25
G1 X7.6897 Y9.1366
G2 X7.6818 Y9.1229 I-0.1119 J0.0556
G1 X7.672 Y9.1082
G1 X7.6481 Y9.0534
G2 X7.6454 Y9.0476 I-0.1147 J0.0498
G1 X7.5842 Y8.9242
G1 X7.5766 Y8.8867
G2 X7.5696 Y8.8636 I-0.1225 J0.0247
G1 X7.5658 Y8.8546
G1 X7.5583 Y8.7977
G2 X7.5569 Y8.7892 I-0.1239 J0.0163
G1 X7.5297 Y8.6543
G1 X7.5321 Y8.616
G2 X7.5323 Y8.6082 I-0.1248 J-0.0078
G2 X7.5312 Y8.5919 I-0.125 J0
G1 X7.53 Y8.5822
G1 X7.5375 Y8.5253
G2 X7.5383 Y8.5168 I-0.1239 J-0.0163
G1 X7.5469 Y8.3794
G1 X7.5591 Y8.3431
G2 X7.5645 Y8.3196 I-0.1185 J-0.0398
G1 X7.5658 Y8.3099
G1 X7.5878 Y8.2569
G2 X7.5908 Y8.2489 I-0.1155 J-0.0478
G1 X7.6347 Y8.1183
G1 X7.6558 Y8.0864
G2 X7.6672 Y8.0651 I-0.1041 J-0.0691
G1 X7.6709 Y8.0561
G1 X7.7059 Y8.0106
G2 X7.7108 Y8.0036 I-0.0992 J-0.0761
G1 X7.787 Y7.8889
G1 X7.8157 Y7.8636
G2 X7.8322 Y7.8459 I-0.0827 J-0.0937
G1 X7.8382 Y7.8382
G1 X7.8837 Y7.8032
G2 X7.8903 Y7.7978 I-0.0761 J-0.0992
G1 X7.9936 Y7.7067
G1 X8.0279 Y7.6897
G2 X8.0483 Y7.6769 I-0.0556 J-0.1119
G1 X8.0561 Y7.6709
G1 X8.1091 Y7.649
G2 X8.1169 Y7.6454 I-0.0478 J-0.1155
G1 X8.2402 Y7.5842
G1 X8.2778 Y7.5766
G2 X8.3009 Y7.5696 I-0.0247 J-0.1225
G1 X8.3099 Y7.5658
G1 X8.3668 Y7.5583
G2 X8.3752 Y7.5569 I-0.0163 J-0.1239
G1 X8.5102 Y7.5297
G1 X8.5484 Y7.5321
G2 X8.5725 Y7.5312 I0.0078 J-0.1248
G1 X8.5822 Y7.53
G1 X8.6391 Y7.5375
G2 X8.6476 Y7.5383 I0.0163 J-0.1239
G1 X8.7851 Y7.5469
G1 X8.8214 Y7.5591
G2 X8.8449 Y7.5645 I0.0398 J-0.1185
G1 X8.8546 Y7.5658
G1 X8.9076 Y7.5878
G2 X8.9156 Y7.5908 I0.0478 J-0.1155
G1 X9.0461 Y7.6347
G1 X9.078 Y7.6558
G2 X9.0993 Y7.6672 I0.0691 J-0.1041
G1 X9.1084 Y7.6709
G1 X9.1539 Y7.7059
G2 X9.1608 Y7.7108 I0.0761 J-0.0992
G1 X9.2756 Y7.787
G1 X9.3009 Y7.8157
G2 X9.3185 Y7.8322 I0.0937 J-0.0827
G1 X9.3263 Y7.8382
G1 X9.3612 Y7.8837
G2 X9.3667 Y7.8903 I0.0992 J-0.0761
G1 X9.4578 Y7.9936
G1 X9.4748 Y8.0279
G2 X9.4876 Y8.0483 I0.1119 J-0.0556
G1 X9.4935 Y8.0561
G1 X9.5155 Y8.1091
G2 X9.519 Y8.1169 I0.1155 J-0.0478
G1 X9.5803 Y8.2402
G1 X9.5879 Y8.2778
G2 X9.5949 Y8.3009 I0.1225 J-0.0247
G1 X9.5986 Y8.3099
G1 X9.6061 Y8.3668
G2 X9.6075 Y8.3752 I0.1239 J-0.0163
G1 X9.6348 Y8.5102
G1 X9.6324 Y8.5484
G2 X9.6322 Y8.5562 I0.1248 J0.0078
G2 X9.6332 Y8.5725 I0.125 J0
G1 X9.6345 Y8.5822
G1 X9.627 Y8.6391
G2 X9.6262 Y8.6476 I0.1239 J0.0163
G1 X9.6176 Y8.7851
G1 X9.6054 Y8.8214
G2 X9.5999 Y8.8449 I0.1185 J0.0398
G1 X9.5986 Y8.8546
G1 X9.5767 Y8.9076
G2 X9.5737 Y8.9156 I0.1155 J0.0478
G1 X9.5298 Y9.0461
G1 X9.5086 Y9.078
G2 X9.4999 Y9.0934 I0.1041 J0.0691
G1 X9.4948 Y9.104
G1 X9.4567 Y9.1564
G2 X9.4536 Y9.1608 I0.1011 J0.0736
G1 X9.3774 Y9.2756
G1 X9.3487 Y9.3009
G2 X9.3322 Y9.3185 I0.0827 J0.0937
G1 X9.3263 Y9.3263
G1 X9.2808 Y9.3612
G2 X9.2742 Y9.3667 I0.0761 J0.0992
G1 X9.1709 Y9.4578
G1 X9.1366 Y9.4748
G2 X9.1161 Y9.4876 I0.0556 J0.1119
G1 X9.1084 Y9.4935
G1 X9.0553 Y9.5155
G2 X9.0476 Y9.519 I0.0478 J0.1155
G1 X8.9242 Y9.5803
G1 X8.8867 Y9.5879
G2 X8.8636 Y9.5949 I0.0247 J0.1225
G1 X8.8546 Y9.5986
G1 X8.7977 Y9.6061
G2 X8.7892 Y9.6075 I0.0163 J0.1239
G1 X8.6543 Y9.6348
G1 X8.616 Y9.6324
G2 X8.5919 Y9.6332 I-0.0078 J0.1248
G1 X8.5822 Y9.6345
G1 X8.5253 Y9.627
G2 X8.5168 Y9.6262 I-0.0163 J0.1239
G1 X8.3794 Y9.6176
G1 X8.3431 Y9.6054
G2 X8.3196 Y9.5999 I-0.0398 J0.1185
G1 X8.3099 Y9.5986
G1 X8.2569 Y9.5767
G2 X8.2489 Y9.5737 I-0.0478 J0.1155
G1 X8.1183 Y9.5298
G1 X8.0864 Y9.5086
G2 X8.0651 Y9.4973 I-0.0691 J0.1041
G1 X8.0561 Y9.4935
G1 X8.0106 Y9.4586
G2 X8.0036 Y9.4536 I-0.0761 J0.0992
G1 X7.8889 Y9.3774
G1 X7.8636 Y9.3487
G2 X7.8459 Y9.3322 I-0.0937 J0.0827
G1 X7.8382 Y9.3263
G1 X7.8032 Y9.2808
G2 X7.7978 Y9.2742 I-0.0992 J0.0761
G1 Z-0.3 F30
G1 X7.7067 Y9.1709 F25
G1 X7.6897 Y9.1366
G2 X7.6818 Y9.1229 I-0.1119 J0.0556
G1 X7.672 Y9.1082
G1 X7.6481 Y9.0534
G2 X7.6454 Y9.0476 I-0.1147 J0.0498
G1 X7.5842 Y8.9242
G1 X7.5766 Y8.8867
G2 X7.5696 Y8.8636 I-0.1225 J0.0247
G1 X7.5658 Y8.8546
G1 X7.5583 Y8.7977
G2 X7.5569 Y8.7892 I-0.1239 J0.0163
G1 X7.5297 Y8.6543
G1 X7.5321 Y8.616
G2 X7.5323 Y8.6082 I-0.1248 J-0.0078
G2 X7.5312 Y8.5919 I-0.125 J0
G1 X7.53 Y8.5822
G1 X7.5375 Y8.5253
G2 X7.5383 Y8.5168 I-0.1239 J-0.0163
G1 X7.5469 Y8.3794
G1 X7.5591 Y8.3431
G2 X7.5645 Y8.3196 I-0.1185 J-0.0398
G1 X7.5658 Y8.3099
G1 X7.5878 Y8.2569
G2 X7.5908 Y8.2489 I-0.1155 J-0.0478
G1 X7.6347 Y8.1183
G1 X7.6558 Y8.0864
G2 X7.6672 Y8.0651 I-0.1041 J-0.0691
G1 X7.6709 Y8.0561
G1 X7.7059 Y8.0106
G2 X7.7108 Y8.0036 I-0.0992 J-0.0761
G1 X7.787 Y7.8889
G1 X7.8157 Y7.8636
G2 X7.8322 Y7.8459 I-0.0827 J-0.0937
G1 X7.8382 Y7.8382
G1 X7.8837 Y7.8032
G2 X7.8903 Y7.7978 I-0.0761 J-0.0992
G1 X7.9936 Y7.7067
G1 X8.0279 Y7.6897
G2 X8.0483 Y7.6769 I-0.0556 J-0.1119
G1 X8.0561 Y7.6709
G1 X8.1091 Y7.649
G2 X8.1169 Y7.6454 I-0.0478 J-0.1155
G1 X8.2402 Y7.5842
G1 X8.2778 Y7.5766
G2 X8.3009 Y7.5696 I-0.0247 J-0.1225
G1 X8.3099 Y7.5658
G1 X8.3668 Y7.5583
G2 X8.3752 Y7.5569 I-0.0163 J-0.1239
G1 X8.5102 Y7.5297
G1 X8.5484 Y7.5321
G2 X8.5725 Y7.5312 I0.0078 J-0.1248
G1 X8.5822 Y7.53
G1 X8.6391 Y7.5375
G2 X8.6476 Y7.5383 I0.0163 J-0.1239
G1 X8.7851 Y7.5469
G1 X8.8214 Y7.5591
G2 X8.8449 Y7.5645 I0.0398 J-0.1185
G1 X8.8546 Y7.5658
G1 X8.9076 Y7.5878
G2 X8.9156 Y7.5908 I0.0478 J-0.1155
G1 X9.0461 Y7.6347
G1 X9.078 Y7.6558
G2 X9.0993 Y7.6672 I0.0691 J-0.1041
G1 X9.1084 Y7.6709
G1 X9.1539 Y7.7059
G2 X9.1608 Y7.7108 I0.0761 J-0.0992
G1 X9.2756 Y7.787
G1 X9.3009 Y7.8157
G2 X9.3185 Y7.8322 I0.0937 J-0.0827
G1 X9.3263 Y7.8382
G1 X9.3612 Y7.8837
G2 X9.3667 Y7.8903 I0.0992 J-0.0761
G1 X9.4578 Y7.9936
G1 X9.4748 Y8.0279
G2 X9.4876 Y8.0483 I0.1119 J-0.0556
G1 X9.4935 Y8.0561
G1 X9.5155 Y8.1091
G2 X9.519 Y8.1169 I0.1155 J-0.0478
G1 X9.5803 Y8.2402
G1 X9.5879 Y8.2778
G2 X9.5949 Y8.3009 I0.1225 J-0.0247
G1 X9.5986 Y8.3099
G1 X9.6061 Y8.3668
G2 X9.6075 Y8.3752 I0.1239 J-0.0163
G1 X9.6348 Y8.5102
G1 X9.6324 Y8.5484
G2 X9.6322 Y8.5562 I0.1248 J0.0078
G2 X9.6332 Y8.5725 I0.125 J0
G1 X9.6345 Y8.5822
G1 X9.627 Y8.6391
G2 X9.6262 Y8.6476 I0.1239 J0.0163
G1 X9.6176 Y8.7851
G1 X9.6054 Y8.8214
G2 X9.5999 Y8.8449 I0.1185 J0.0398
G1 X9.5986 Y8.8546
G1 X9.5767 Y8.9076
G2 X9.5737 Y8.9156 I0.1155 J0.0478
G1 X9.5298 Y9.0461
G1 X9.5086 Y9.078
G2 X9.4999 Y9.0934 I0.1041 J0.0691
G1 X9.4948 Y9.104
G1 X9.4567 Y9.1564
G2 X9.4536 Y9.1608 I0.1011 J0.0736
G1 X9.3774 Y9.2756
G1 X9.3487 Y9.3009
G2 X9.3322 Y9.3185 I0.0827 J0.0937
G1 X9.3263 Y9.3263
G1 X9.2808 Y9.3612
G2 X9.2742 Y9.3667 I0.0761 J0.0992
G1 X9.1709 Y9.4578
G1 X9.1366 Y9.4748
G2 X9.1161 Y9.4876 I0.0556 J0.1119
G1 X9.1084 Y9.4935
G1 X9.0553 Y9.5155
G2 X9.0476 Y9.519 I0.0478 J0.1155
G1 X8.9242 Y9.5803
G1 X8.8867 Y9.5879
G2 X8.8636 Y9.5949 I0.0247 J0.1225
G1 X8.8546 Y9.5986
G1 X8.7977 Y9.6061
G2 X8.7892 Y9.6075 I0.0163 J0.1239
G1 X8.6543 Y9.6348
G1 X8.616 Y9.6324
G2 X8.5919 Y9.6332 I-0.0078 J0.1248
G1 X8.5822 Y9.6345
G1 X8.5253 Y9.627
G2 X8.5168 Y9.6262 I-0.0163 J0.1239
G1 X8.3794 Y9.6176
G1 X8.3431 Y9.6054
G2 X8.3196 Y9.5999 I-0.0398 J0.1185
G1 X8.3099 Y9.5986
G1 X8.2569 Y9.5767
G2 X8.2489 Y9.5737 I-0.0478 J0.1155
G1 X8.1183 Y9.5298
G1 X8.0864 Y9.5086
G2 X8.0651 Y9.4973 I-0.0691 J0.1041
G1 X8.0561 Y9.4935
G1 X8.0106 Y9.4586
G2 X8.0036 Y9.4536 I-0.0761 J0.0992
G1 X7.8889 Y9.3774
G1 X7.8636 Y9.3487
G2 X7.8459 Y9.3322 I-0.0937 J0.0827
G1 X7.8382 Y9.3263
G1 X7.8032 Y9.2808
G2 X7.7978 Y9.2742 I-0.0992 J0.0761
G1 Z-0.45 F30
G1 X7.7067 Y9.1709 F25
G1 X7.6897 Y9.1366
G2 X7.6818 Y9.1229 I-0.1119 J0.0556
G1 X7.672 Y9.1082
G1 X7.6481 Y9.0534
G2 X7.6454 Y9.0476 I-0.1147 J0.0498
G1 X7.5842 Y8.9242
G1 X7.5766 Y8.8867
G2 X7.5696 Y8.8636 I-0.1225 J0.0247
G1 X7.5658 Y8.8546
G1 X7.5583 Y8.7977
G2 X7.5569 Y8.7892 I-0.1239 J0.0163
G1 X7.5297 Y8.6543
G1 X7.5321 Y8.616
G2 X7.5323 Y8.6082 I-0.1248 J-0.0078
G2 X7.5312 Y8.5919 I-0.125 J0
G1 X7.53 Y8.5822
G1 X7.5375 Y8.5253
G2 X7.5383 Y8.5168 I-0.1239 J-0.0163
G1 X7.5469 Y8.3794
G1 X7.5591 Y8.3431
G2 X7.5645 Y8.3196 I-0.1185 J-0.0398
G1 X7.5658 Y8.3099
G1 X7.5878 Y8.2569
G2 X7.5908 Y8.2489 I-0.1155 J-0.0478
G1 X7.6347 Y8.1183
G1 X7.6558 Y8.0864
G2 X7.6672 Y8.0651 I-0.1041 J-0.0691
G1 X7.6709 Y8.0561
G1 X7.7059 Y8.0106
G2 X7.7108 Y8.0036 I-0.0992 J-0.0761
G1 X7.787 Y7.8889
G1 X7.8157 Y7.8636
G2 X7.8322 Y7.8459 I-0.0827 J-0.0937
G1 X7.8382 Y7.8382
G1 X7.8837 Y7.8032
G2 X7.8903 Y7.7978 I-0.0761 J-0.0992
G1 X7.9936 Y7.7067
G1 X8.0279 Y7.6897
G2 X8.0483 Y7.6769 I-0.0556 J-0.1119
G1 X8.0561 Y7.6709
G1 X8.1091 Y7.649
G2 X8.1169 Y7.6454 I-0.0478 J-0.1155
G1 X8.2402 Y7.5842
G1 X8.2778 Y7.5766
G2 X8.3009 Y7.5696 I-0.0247 J-0.1225
G1 X8.3099 Y7.5658
G1 X8.3668 Y7.5583
G2 X8.3752 Y7.5569 I-0.0163 J-0.1239
G1 X8.5102 Y7.5297
G1 X8.5484 Y7.5321
G2 X8.5725 Y7.5312 I0.0078 J-0.1248
G1 X8.5822 Y7.53
G1 X8.6391 Y7.5375
G2 X8.6476 Y7.5383 I0.0163 J-0.1239
G1 X8.7851 Y7.5469
G1 X8.8214 Y7.5591
G2 X8.8449 Y7.5645 I0.0398 J-0.1185
G1 X8.8546 Y7.5658
G1 X8.9076 Y7.5878
G2 X8.9156 Y7.5908 I0.0478 J-0.1155
G1 X9.0461 Y7.6347
G1 X9.078 Y7.6558
G2 X9.0993 Y7.6672 I0.0691 J-0.1041
G1 X9.1084 Y7.6709
G1 X9.1539 Y7.7059
G2 X9.1608 Y7.7108 I0.0761 J-0.0992
G1 X9.2756 Y7.787
G1 X9.3009 Y7.8157
G2 X9.3185 Y7.8322 I0.0937 J-0.0827
G1 X9.3263 Y7.8382
G1 X9.3612 Y7.8837
G2 X9.3667 Y7.8903 I0.0992 J-0.0761
G1 X9.4578 Y7.9936
G1 X9.4748 Y8.0279
G2 X9.4876 Y8.0483 I0.1119 J-0.0556
G1 X9.4935 Y8.0561
G1 X9.5155 Y8.1091
G2 X9.519 Y8.1169 I0.1155 J-0.0478
G1 X9.5803 Y8.2402
G1 X9.5879 Y8.2778
G2 X9.5949 Y8.3009 I0.1225 J-0.0247
G1 X9.5986 Y8.3099
G1 X9.6061 Y8.3668
G2 X9.6075 Y8.3752 I0.1239 J-0.0163
G1 X9.6348 Y8.5102
G1 X9.6324 Y8.5484
G2 X9.6322 Y8.5562 I0.1248 J0.0078
G2 X9.6332 Y8.5725 I0.125 J0
G1 X9.6345 Y8.5822
G1 X9.627 Y8.6391
G2 X9.6262 Y8.6476 I0.1239 J0.0163
G1 X9.6176 Y8.7851
G1 X9.6054 Y8.8214
G2 X9.5999 Y8.8449 I0.1185 J0.0398
G1 X9.5986 Y8.8546
G1 X9.5767 Y8.9076
G2 X9.5737 Y8.9156 I0.1155 J0.0478
G1 X9.5298 Y9.0461
G1 X9.5086 Y9.078
G2 X9.4999 Y9.0934 I0.1041 J0.0691
G1 X9.4948 Y9.104
G1 X9.4567 Y9.1564
G2 X9.4536 Y9.1608 I0.1011 J0.0736
G1 X9.3774 Y9.2756
G1 X9.3487 Y9.3009
G2 X9.3322 Y9.3185 I0.0827 J0.0937
G1 X9.3263 Y9.3263
G1 X9.2808 Y9.3612
G2 X9.2742 Y9.3667 I0.0761 J0.0992
G1 X9.1709 Y9.4578
G1 X9.1366 Y9.4748
G2 X9.1161 Y9.4876 I0.0556 J0.1119
G1 X9.1084 Y9.4935
G1 X9.0553 Y9.5155
G2 X9.0476 Y9.519 I0.0478 J0.1155
G1 X8.9242 Y9.5803
G1 X8.8867 Y9.5879
G2 X8.8636 Y9.5949 I0.0247 J0.1225
G1 X8.8546 Y9.5986
G1 X8.7977 Y9.6061
G2 X8.7892 Y9.6075 I0.0163 J0.1239
G1 X8.6543 Y9.6348
G1 X8.616 Y9.6324
G2 X8.5919 Y9.6332 I-0.0078 J0.1248
G1 X8.5822 Y9.6345
G1 X8.5253 Y9.627
G2 X8.5168 Y9.6262 I-0.0163 J0.1239
G1 X8.3794 Y9.6176
G1 X8.3431 Y9.6054
G2 X8.3196 Y9.5999 I-0.0398 J0.1185
G1 X8.3099 Y9.5986
G1 X8.2569 Y9.5767
G2 X8.2489 Y9.5737 I-0.0478 J0.1155
G1 X8.1183 Y9.5298
G1 X8.0864 Y9.5086
G2 X8.0651 Y9.4973 I-0.0691 J0.1041
G1 X8.0561 Y9.4935
G1 X8.0106 Y9.4586
G2 X8.0036 Y9.4536 I-0.0761 J0.0992
G1 X7.8889 Y9.3774
G1 X7.8636 Y9.3487
G2 X7.8459 Y9.3322 I-0.0937 J0.0827
G1 X7.8382 Y9.3263
G1 X7.8032 Y9.2808
G2 X7.7978 Y9.2742 I-0.0992 J0.0761
G1 Z-0.6 F30
G1 X7.7067 Y9.1709 F25
G1 X7.6897 Y9.1366
G2 X7.6818 Y9.1229 I-0.1119 J0.0556
G1 X7.672 Y9.1082
G1 X7.6481 Y9.0534
G2 X7.6454 Y9.0476 I-0.1147 J0.0498
G1 X7.5842 Y8.9242
G1 X7.5766 Y8.8867
G2 X7.5696 Y8.8636 I-0.1225 J0.0247
G1 X7.5658 Y8.8546
G1 X7.5583 Y8.7977
G2 X7.5569 Y8.7892 I-0.1239 J0.0163
G1 X7.5297 Y8.6543
G1 X7.5321 Y8.616
G2 X7.5323 Y8.6082 I-0.1248 J-0.0078
G2 X7.5312 Y8.5919 I-0.125 J0
G1 X7.53 Y8.5822
G1 X7.5375 Y8.5253
G2 X7.5383 Y8.5168 I-0.1239 J-0.0163
G1 X7.5469 Y8.3794
G1 X7.5591 Y8.3431
G2 X7.5645 Y8.3196 I-0.1185 J-0.0398
G1 X7.5658 Y8.3099
G1 X7.5878 Y8.2569
G2 X7.5908 Y8.2489 I-0.1155 J-0.0478
G1 X7.6347 Y8.1183
G1 X7.6558 Y8.0864
G2 X7.6672 Y8.0651 I-0.1041 J-0.0691
G1 X7.6709 Y8.0561
G1 X7.7059 Y8.0106
G2 X7.7108 Y8.0036 I-0.0992 J-0.0761
G1 X7.787 Y7.8889
G1 X7.8157 Y7.8636
G2 X7.8322 Y7.8459 I-0.0827 J-0.0937
G1 X7.8382 Y7.8382
G1 X7.8837 Y7.8032
G2 X7.8903 Y7.7978 I-0.0761 J-0.0992
G1 X7.9936 Y7.7067
G1 X8.0279 Y7.6897
G2 X8.0483 Y7.6769 I-0.0556 J-0.1119
G1 X8.0561 Y7.6709
G1 X8.1091 Y7.649
G2 X8.1169 Y7.6454 I-0.0478 J-0.1155
G1 X8.2402 Y7.5842
G1 X8.2778 Y7.5766
G2 X8.3009 Y7.5696 I-0.0247 J-0.1225
G1 X8.3099 Y7.5658
G1 X8.3668 Y7.5583
G2 X8.3752 Y7.5569 I-0.0163 J-0.1239
G1 X8.5102 Y7.5297
G1 X8.5484 Y7.5321
G2 X8.5725 Y7.5312 I0.0078 J-0.1248
G1 X8.5822 Y7.53
G1 X8.6391 Y7.5375
G2 X8.6476 Y7.5383 I0.0163 J-0.1239
G1 X8.7851 Y7.5469
G1 X8.8214 Y7.5591
G2 X8.8449 Y7.5645 I0.0398 J-0.1185
G1 X8.8546 Y7.5658
G1 X8.9076 Y7.5878
G2 X8.9156 Y7.5908 I0.0478 J-0.1155
G1 X9.0461 Y7.6347
G1 X9.078 Y7.6558
G2 X9.0993 Y7.6672 I0.0691 J-0.1041
G1 X9.1084 Y7.6709
G1 X9.1539 Y7.7059
G2 X9.1608 Y7.7108 I0.0761 J-0.0992
G1 X9.2756 Y7.787
G1 X9.3009 Y7.8157
G2 X9.3185 Y7.8322 I0.0937 J-0.0827
G1 X9.3263 Y7.8382
G1 X9.3612 Y7.8837
G2 X9.3667 Y7.8903 I0.0992 J-0.0761
G1 X9.4578 Y7.9936
G1 X9.4748 Y8.0279
G2 X9.4876 Y8.0483 I0.1119 J-0.0556
G1 X9.4935 Y8.0561
G1 X9.5155 Y8.1091
G2 X9.519 Y8.1169 I0.1155 J-0.0478
G1 X9.5803 Y8.2402
G1 X9.5879 Y8.2778
G2 X9.5949 Y8.3009 I0.1225 J-0.0247
G1 X9.5986 Y8.3099
G1 X9.6061 Y8.3668
G2 X9.6075 Y8.3752 I0.1239 J-0.0163
G1 X9.6348 Y8.5102
G1 X9.6324 Y8.5484
G2 X9.6322 Y8.5562 I0.1248 J0.0078
G2 X9.6332 Y8.5725 I0.125 J0
G1 X9.6345 Y8.5822
G1 X9.627 Y8.6391
G2 X9.6262 Y8.6476 I0.1239 J0.0163
G1 X9.6176 Y8.7851
G1 X9.6054 Y8.8214
G2 X9.5999 Y8.8449 I0.1185 J0.0398
G1 X9.5986 Y8.8546
G1 X9.5767 Y8.9076
G2 X9.5737 Y8.9156 I0.1155 J0.0478
G1 X9.5298 Y9.0461
G1 X9.5086 Y9.078
G2 X9.4999 Y9.0934 I0.1041 J0.0691
G1 X9.4948 Y9.104
G1 X9.4567 Y9.1564
G2 X9.4536 Y9.1608 I0.1011 J0.0736
G1 X9.3774 Y9.2756
G1 X9.3487 Y9.3009
G2 X9.3322 Y9.3185 I0.0827 J0.0937
G1 X9.3263 Y9.3263
G1 X9.2808 Y9.3612
G2 X9.2742 Y9.3667 I0.0761 J0.0992
G1 X9.1709 Y9.4578
G1 X9.1366 Y9.4748
G2 X9.1161 Y9.4876 I0.0556 J0.1119
G1 X9.1084 Y9.4935
G1 X9.0553 Y9.5155
G2 X9.0476 Y9.519 I0.0478 J0.1155
G1 X8.9242 Y9.5803
G1 X8.8867 Y9.5879
G2 X8.8636 Y9.5949 I0.0247 J0.1225
G1 X8.8546 Y9.5986
G1 X8.7977 Y9.6061
G2 X8.7892 Y9.6075 I0.0163 J0.1239
G1 X8.6543 Y9.6348
G1 X8.616 Y9.6324
G2 X8.5919 Y9.6332 I-0.0078 J0.1248
G1 X8.5822 Y9.6345
G1 X8.5253 Y9.627
G2 X8.5168 Y9.6262 I-0.0163 J0.1239
G1 X8.3794 Y9.6176
G1 X8.3431 Y9.6054
G2 X8.3196 Y9.5999 I-0.0398 J0.1185
G1 X8.3099 Y9.5986
G1 X8.2569 Y9.5767
G2 X8.2489 Y9.5737 I-0.0478 J0.1155
G1 X8.1183 Y9.5298
G1 X8.0864 Y9.5086
G2 X8.0651 Y9.4973 I-0.0691 J0.1041
G1 X8.0561 Y9.4935
G1 X8.0106 Y9.4586
G2 X8.0036 Y9.4536 I-0.0761 J0.0992
G1 X7.8889 Y9.3774
G1 X7.8636 Y9.3487
G2 X7.8459 Y9.3322 I-0.0937 J0.0827
G1 X7.8382 Y9.3263
G1 X7.8032 Y9.2808
G2 X7.7978 Y9.2742 I-0.0992 J0.0761
G1 Z-0.75 F30
G1 X7.7067 Y9.1709 F25
G1 X7.6897 Y9.1366
G2 X7.6818 Y9.1229 I-0.1119 J0.0556
G1 X7.672 Y9.1082
G1 X7.6481 Y9.0534
G2 X7.6454 Y9.0476 I-0.1147 J0.0498
G1 X7.5842 Y8.9242
G1 X7.5766 Y8.8867
G2 X7.5696 Y8.8636 I-0.1225 J0.0247
G1 X7.5658 Y8.8546
G1 X7.5583 Y8.7977
G2 X7.5569 Y8.7892 I-0.1239 J0.0163
G1 X7.5297 Y8.6543
G1 X7.5321 Y8.616
G2 X7.5323 Y8.6082 I-0.1248 J-0.0078
G2 X7.5312 Y8.5919 I-0.125 J0
G1 X7.53 Y8.5822
G1 X7.5375 Y8.5253
G2 X7.5383 Y8.5168 I-0.1239 J-0.0163
G1 X7.5469 Y8.3794
G1 X7.5591 Y8.3431
G2 X7.5645 Y8.3196 I-0.1185 J-0.0398
G1 X7.5658 Y8.3099
G1 X7.5878 Y8.2569
G2 X7.5908 Y8.2489 I-0.1155 J-0.0478
G1 X7.6347 Y8.1183
G1 X7.6558 Y8.0864
G2 X7.6672 Y8.0651 I-0.1041 J-0.0691
G1 X7.6709 Y8.0561
G1 X7.7059 Y8.0106
G2 X7.7108 Y8.0036 I-0.0992 J-0.0761
G1 X7.787 Y7.8889
G1 X7.8157 Y7.8636
G2 X7.8322 Y7.8459 I-0.0827 J-0.0937
G1 X7.8382 Y7.8382
G1 X7.8837 Y7.8032
G2 X7.8903 Y7.7978 I-0.0761 J-0.0992
G1 X7.9936 Y7.7067
G1 X8.0279 Y7.6897
G2 X8.0483 Y7.6769 I-0.0556 J-0.1119
G1 X8.0561 Y7.6709
G1 X8.1091 Y7.649
G2 X8.1169 Y7.6454 I-0.0478 J-0.1155
G1 X8.2402 Y7.5842
G1 X8.2778 Y7.5766
G2 X8.3009 Y7.5696 I-0.0247 J-0.1225
G1 X8.3099 Y7.5658
G1 X8.3668 Y7.5583
G2 X8.3752 Y7.5569 I-0.0163 J-0.1239
G1 X8.5102 Y7.5297
G1 X8.5484 Y7.5321
G2 X8.5725 Y7.5312 I0.0078 J-0.1248
G1 X8.5822 Y7.53
G1 X8.6391 Y7.5375
G2 X8.6476 Y7.5383 I0.0163 J-0.1239
G1 X8.7851 Y7.5469
G1 X8.8214 Y7.5591
G2 X8.8449 Y7.5645 I0.0398 J-0.1185
G1 X8.8546 Y7.5658
G1 X8.9076 Y7.5878
G2 X8.9156 Y7.5908 I0.0478 J-0.1155
G1 X9.0461 Y7.6347
G1 X9.078 Y7.6558
G2 X9.0993 Y7.6672 I0.0691 J-0.1041
G1 X9.1084 Y7.6709
G1 X9.1539 Y7.7059
G2 X9.1608 Y7.7108 I0.0761 J-0.0992
G1 X9.2756 Y7.787
G1 X9.3009 Y7.8157
G2 X9.3185 Y7.8322 I0.0937 J-0.0827
G1 X9.3263 Y7.8382
G1 X9.3612 Y7.8837
G2 X9.3667 Y7.8903 I0.0992 J-0.0761
G1 X9.4578 Y7.9936
G1 X9.4748 Y8.0279
G2 X9.4876 Y8.0483 I0.1119 J-0.0556
G1 X9.4935 Y8.0561
G1 X9.5155 Y8.1091
G2 X9.519 Y8.1169 I0.1155 J-0.0478
G1 X9.5803 Y8.2402
G1 X9.5879 Y8.2778
G2 X9.5949 Y8.3009 I0.1225 J-0.0247
G1 X9.5986 Y8.3099
G1 X9.6061 Y8.3668
G2 X9.6075 Y8.3752 I0.1239 J-0.0163
G1 X9.6348 Y8.5102
G1 X9.6324 Y8.5484
G2 X9.6322 Y8.5562 I0.1248 J0.0078
G2 X9.6332 Y8.5725 I0.125 J0
G1 X9.6345 Y8.5822
G1 X9.627 Y8.6391
G2 X9.6262 Y8.6476 I0.1239 J0.0163
G1 X9.6176 Y8.7851
G1 X9.6054 Y8.8214
G2 X9.5999 Y8.8449 I0.1185 J0.0398
G1 X9.5986 Y8.8546
G1 X9.5767 Y8.9076
G2 X9.5737 Y8.9156 I0.1155 J0.0478
G1 X9.5298 Y9.0461
G1 X9.5086 Y9.078
G2 X9.4999 Y9.0934 I0.1041 J0.0691
G1 X9.4948 Y9.104
G1 X9.4567 Y9.1564
G2 X9.4536 Y9.1608 I0.1011 J0.0736
G1 X9.3774 Y9.2756
G1 X9.3487 Y9.3009
G2 X9.3322 Y9.3185 I0.0827 J0.0937
G1 X9.3263 Y9.3263
G1 X9.2808 Y9.3612
G2 X9.2742 Y9.3667 I0.0761 J0.0992
G1 X9.1709 Y9.4578
G1 X9.1366 Y9.4748
G2 X9.1161 Y9.4876 I0.0556 J0.1119
G1 X9.1084 Y9.4935
G1 X9.0553 Y9.5155
G2 X9.0476 Y9.519 I0.0478 J0.1155
G1 X8.9242 Y9.5803
G1 X8.8867 Y9.5879
G2 X8.8636 Y9.5949 I0.0247 J0.1225
G1 X8.8546 Y9.5986
G1 X8.7977 Y9.6061
G2 X8.7892 Y9.6075 I0.0163 J0.1239
G1 X8.6543 Y9.6348
G1 X8.616 Y9.6324
G2 X8.5919 Y9.6332 I-0.0078 J0.1248
G1 X8.5822 Y9.6345
G1 X8.5253 Y9.627
G2 X8.5168 Y9.6262 I-0.0163 J0.1239
G1 X8.3794 Y9.6176
G1 X8.3431 Y9.6054
G2 X8.3196 Y9.5999 I-0.0398 J0.1185
G1 X8.3099 Y9.5986
G1 X8.2569 Y9.5767
G2 X8.2489 Y9.5737 I-0.0478 J0.1155
G1 X8.1183 Y9.5298
G1 X8.0864 Y9.5086
G2 X8.0651 Y9.4973 I-0.0691 J0.1041
G1 X8.0561 Y9.4935
G1 X8.0106 Y9.4586
G2 X8.0036 Y9.4536 I-0.0761 J0.0992
G1 X7.8889 Y9.3774
G1 X7.8636 Y9.3487
G2 X7.8459 Y9.3322 I-0.0937 J0.0827
G1 X7.8382 Y9.3263
G1 X7.8032 Y9.2808
G2 X7.7978 Y9.2742 I-0.0992 J0.0761
G1 Z-0.85 F30
G1 X7.7067 Y9.1709 F25
G1 X7.6897 Y9.1366
G2 X7.6818 Y9.1229 I-0.1119 J0.0556
G1 X7.672 Y9.1082
G1 X7.6481 Y9.0534
G2 X7.6454 Y9.0476 I-0.1147 J0.0498
G1 X7.5842 Y8.9242
G1 X7.5766 Y8.8867
G2 X7.5696 Y8.8636 I-0.1225 J0.0247
G1 X7.5658 Y8.8546
G1 X7.5583 Y8.7977
G2 X7.5569 Y8.7892 I-0.1239 J0.0163
G1 X7.5297 Y8.6543
G1 X7.5321 Y8.616
G2 X7.5323 Y8.6082 I-0.1248 J-0.0078
G2 X7.5312 Y8.5919 I-0.125 J0
G1 X7.53 Y8.5822
G1 X7.5375 Y8.5253
G2 X7.5383 Y8.5168 I-0.1239 J-0.0163
G1 X7.5469 Y8.3794
G1 X7.5591 Y8.3431
G2 X7.5645 Y8.3196 I-0.1185 J-0.0398
G1 X7.5658 Y8.3099
G1 X7.5878 Y8.2569
G2 X7.5908 Y8.2489 I-0.1155 J-0.0478
G1 X7.6347 Y8.1183
G1 X7.6558 Y8.0864
G2 X7.6672 Y8.0651 I-0.1041 J-0.0691
G1 X7.6709 Y8.0561
G1 X7.7059 Y8.0106
G2 X7.7108 Y8.0036 I-0.0992 J-0.0761
G1 X7.787 Y7.8889
G1 X7.8157 Y7.8636
G2 X7.8322 Y7.8459 I-0.0827 J-0.0937
G1 X7.8382 Y7.8382
G1 X7.8837 Y7.8032
G2 X7.8903 Y7.7978 I-0.0761 J-0.0992
G1 X7.9936 Y7.7067
G1 X8.0279 Y7.6897
G2 X8.0483 Y7.6769 I-0.0556 J-0.1119
G1 X8.0561 Y7.6709
G1 X8.1091 Y7.649
G2 X8.1169 Y7.6454 I-0.0478 J-0.1155
G1 X8.2402 Y7.5842
G1 X8.2778 Y7.5766
G2 X8.3009 Y7.5696 I-0.0247 J-0.1225
G1 X8.3099 Y7.5658
G1 X8.3668 Y7.5583
G2 X8.3752 Y7.5569 I-0.0163 J-0.1239
G1 X8.5102 Y7.5297
G1 X8.5484 Y7.5321
G2 X8.5725 Y7.5312 I0.0078 J-0.1248
G1 X8.5822 Y7.53
G1 X8.6391 Y7.5375
G2 X8.6476 Y7.5383 I0.0163 J-0.1239
G1 X8.7851 Y7.5469
G1 X8.8214 Y7.5591
G2 X8.8449 Y7.5645 I0.0398 J-0.1185
G1 X8.8546 Y7.5658
G1 X8.9076 Y7.5878
G2 X8.9156 Y7.5908 I0.0478 J-0.1155
G1 X9.0461 Y7.6347
G1 X9.078 Y7.6558
G2 X9.0993 Y7.6672 I0.0691 J-0.1041
G1 X9.1084 Y7.6709
G1 X9.1539 Y7.7059
G2 X9.1608 Y7.7108 I0.0761 J-0.0992
G1 X9.2756 Y7.787
G1 X9.3009 Y7.8157
G2 X9.3185 Y7.8322 I0.0937 J-0.0827
G1 X9.3263 Y7.8382
G1 X9.3612 Y7.8837
G2 X9.3667 Y7.8903 I0.0992 J-0.0761
G1 X9.4578 Y7.9936
G1 X9.4748 Y8.0279
G2 X9.4876 Y8.0483 I0.1119 J-0.0556
G1 X9.4935 Y8.0561
G1 X9.5155 Y8.1091
G2 X9.519 Y8.1169 I0.1155 J-0.0478
G1 X9.5803 Y8.2402
G1 X9.5879 Y8.2778
G2 X9.5949 Y8.3009 I0.1225 J-0.0247
G1 X9.5986 Y8.3099
G1 X9.6061 Y8.3668
G2 X9.6075 Y8.3752 I0.1239 J-0.0163
G1 X9.6348 Y8.5102
G1 X9.6324 Y8.5484
G2 X9.6322 Y8.5562 I0.1248 J0.0078
G2 X9.6332 Y8.5725 I0.125 J0
G1 X9.6345 Y8.5822
G1 X9.627 Y8.6391
G2 X9.6262 Y8.6476 I0.1239 J0.0163
G1 X9.6176 Y8.7851
G1 X9.6054 Y8.8214
G2 X9.5999 Y8.8449 I0.1185 J0.0398
G1 X9.5986 Y8.8546
G1 X9.5767 Y8.9076
G2 X9.5737 Y8.9156 I0.1155 J0.0478
G1 X9.5298 Y9.0461
G1 X9.5086 Y9.078
G2 X9.4999 Y9.0934 I0.1041 J0.0691
G1 X9.4948 Y9.104
G1 X9.4567 Y9.1564
G2 X9.4536 Y9.1608 I0.1011 J0.0736
G1 X9.3774 Y9.2756
G1 X9.3487 Y9.3009
G2 X9.3322 Y9.3185 I0.0827 J0.0937
G1 X9.3263 Y9.3263
G1 X9.2808 Y9.3612
G2 X9.2742 Y9.3667 I0.0761 J0.0992
G1 X9.1709 Y9.4578
G1 X9.1366 Y9.4748
G2 X9.1161 Y9.4876 I0.0556 J0.1119
G1 X9.1084 Y9.4935
G1 X9.0553 Y9.5155
G2 X9.0476 Y9.519 I0.0478 J0.1155
G1 X8.9242 Y9.5803
G1 X8.8867 Y9.5879
G2 X8.8636 Y9.5949 I0.0247 J0.1225
G1 X8.8546 Y9.5986
G1 X8.7977 Y9.6061
G2 X8.7892 Y9.6075 I0.0163 J0.1239
G1 X8.6543 Y9.6348
G1 X8.616 Y9.6324
G2 X8.5919 Y9.6332 I-0.0078 J0.1248
G1 X8.5822 Y9.6345
G1 X8.5253 Y9.627
G2 X8.5168 Y9.6262 I-0.0163 J0.1239
G1 X8.3794 Y9.6176
G1 X8.3431 Y9.6054
G2 X8.3196 Y9.5999 I-0.0398 J0.1185
G1 X8.3099 Y9.5986
G1 X8.2569 Y9.5767
G2 X8.2489 Y9.5737 I-0.0478 J0.1155
G1 X8.1183 Y9.5298
G1 X8.0864 Y9.5086
G2 X8.0651 Y9.4973 I-0.0691 J0.1041
G1 X8.0561 Y9.4935
G1 X8.0106 Y9.4586
G2 X8.0036 Y9.4536 I-0.0761 J0.0992
G1 X7.8889 Y9.3774
G1 X7.8636 Y9.3487
G2 X7.8459 Y9.3322 I-0.0937 J0.0827
G1 X7.8382 Y9.3263
G1 X7.8032 Y9.2808
G2 X7.7978 Y9.2742 I-0.0992 J0.0761

(profile 2)
G0 Z0.25
G0 X12.3051 Y15.5957
G1 Z-0.15 F30
G1 X12.298 Y15.6128 F25
G1 X12.2868 Y15.6275
G1 X12.2721 Y15.6387
G1 X12.2551 Y15.6458
G1 X12.2368 Y15.6482
G1 X12.2184 Y15.6458
G1 X12.2014 Y15.6387
G1 X12.1867 Y15.6275
G1 X12.1755 Y15.6128
G1 X12.1684 Y15.5957
G1 X12.166 Y15.5774
G1 X12.1684 Y15.5591
G1 X12.1755 Y15.542
G1 X12.1867 Y15.5274
G1 X12.2014 Y15.5161
G1 X12.2184 Y15.5091
G1 X12.2368 Y15.5066
G1 X12.2551 Y15.5091
G1 X12.2721 Y15.5161
G1 X12.2868 Y15.5274
G1 X12.298 Y15.542
G1 X12.3051 Y15.5591
G1 X12.3075 Y15.5774
G1 X12.3051 Y15.5957
G1 Z-0.3 F30
G1 X12.298 Y15.6128 F25
G1 X12.2868 Y15.6275
G1 X12.2721 Y15.6387
G1 X12.2551 Y15.6458
G1 X12.2368 Y15.6482
G1 X12.2184 Y15.6458
G1 X12.2014 Y15.6387
G1 X12.1867 Y15.6275
G1 X12.1755 Y15.6128
G1 X12.1684 Y15.5957
G1 X12.166 Y15.5774
G1 X12.1684 Y15.5591
G1 X12.1755 Y15.542
G1 X12.1867 Y15.5274
G1 X12.2014 Y15.5161
G1 X12.2184 Y15.5091
G1 X12.2368 Y15.5066
G1 X12.2551 Y15.5091
G1 X12.2721 Y15.5161
G1 X12.2868 Y15.5274
G1 X12.298 Y15.542
G1 X12.3051 Y15.5591
G1 X12.3075 Y15.5774
G1 X12.3051 Y15.5957
G1 Z-0.45 F30
G1 X12.298 Y15.6128 F25
G1 X12.2868 Y15.6275
G1 X12.2721 Y15.6387
G1 X12.2551 Y15.6458
G1 X12.2368 Y15.6482
G1 X12.2184 Y15.6458
G1 X12.2014 Y15.6387
G1 X12.1867 Y15.6275
G1 X12.1755 Y15.6128
G1 X12.1684 Y15.5957
G1 X12.166 Y15.5774
G1 X12.1684 Y15.5591
G1 X12.1755 Y15.542
G1 X12.1867 Y15.5274
G1 X12.2014 Y15.5161
G1 X12.2184 Y15.5091
G1 X12.2368 Y15.5066
G1 X12.2551 Y15.5091
G1 X12.2721 Y15.5161
G1 X12.2868 Y15.5274
G1 X12.298 Y15.542
G1 X12.3051 Y15.5591
G1 X12.3075 Y15.5774
G1 X12.3051 Y15.5957
G1 Z-0.6 F30
G1 X12.298 Y15.6128 F25
G1 X12.2868 Y15.6275
G1 X12.2721 Y15.6387
G1 X12.2551 Y15.6458
G1 X12.2368 Y15.6482
G1 X12.2184 Y15.6458
G1 X12.2014 Y15.6387
G1 X12.1867 Y15.6275
G1 X12.1755 Y15.6128
G1 X12.1684 Y15.5957
G1 X12.166 Y15.5774
G1 X12.1684 Y15.5591
G1 X12.1755 Y15.542
G1 X12.1867 Y15.5274
G1 X12.2014 Y15.5161
G1 X12.2184 Y15.5091
G1 X12.2368 Y15.5066
G1 X12.2551 Y15.5091
G1 X12.2721 Y15.5161
G1 X12.2868 Y15.5274
G1 X12.298 Y15.542
G1 X12.3051 Y15.5591
G1 X12.3075 Y15.5774
G1 X12.3051 Y15.5957
G1 Z-0.75 F30
G1 X12.298 Y15.6128 F25
G1 X12.2868 Y15.6275
G1 X12.2721 Y15.6387
G1 X12.2551 Y15.6458
G1 X12.2368 Y15.6482
G1 X12.2184 Y15.6458
G1 X12.2014 Y15.6387
G1 X12.1867 Y15.6275
G1 X12.1755 Y15.6128
G1 X12.1684 Y15.5957
G1 X12.166 Y15.5774
G1 X12.1684 Y15.5591
G1 X12.1755 Y15.542
G1 X12.1867 Y15.5274
G1 X12.2014 Y15.5161
G1 X12.2184 Y15.5091
G1 X12.2368 Y15.5066
G1 X12.2551 Y15.5091
G1 X12.2721 Y15.5161
G1 X12.2868 Y15.5274
G1 X12.298 Y15.542
G1 X12.3051 Y15.5591
G1 X12.3075 Y15.5774
G1 X12.3051 Y15.5957
G1 Z-0.85 F30
G1 X12.298 Y15.6128 F25
G1 X12.2868 Y15.6275
G1 X12.2721 Y15.6387
G1 X12.2551 Y15.6458
G1 X12.2368 Y15.6482
G1 X12.2184 Y15.6458
G1 X12.2014 Y15.6387
G1 X12.1867 Y15.6275
G1 X12.1755 Y15.6128
G1 X12.1684 Y15.5957
G1 X12.166 Y15.5774
G1 X12.1684 Y15.5591
G1 X12.1755 Y15.542
G1 X12.1867 Y15.5274
G1 X12.2014 Y15.5161
G1 X12.2184 Y15.5091
G1 X12.2368 Y15.5066
G1 X12.2551 Y15.5091
G1 X12.2721 Y15.5161
G1 X12.2868 Y15.5274
G1 X12.298 Y15.542
G1 X12.3051 Y15.5591
G1 X12.3075 Y15.5774
G1 X12.3051 Y15.5957
G0 Z0.25
G0 X4.8664 Y15.542
G1 Z-0.15 F30
G1 X4.8777 Y15.5274 F25
G1 X4.8923 Y15.5161
G1 X4.9094 Y15.5091
G1 X4.9277 Y15.5066
G1 X4.946 Y15.5091
G1 X4.9631 Y15.5161
G1 X4.9778 Y15.5274
G1 X4.989 Y15.542
G1 X4.9961 Y15.5591
G1 X4.9985 Y15.5774
G1 X4.9961 Y15.5957
G1 X4.989 Y15.6128
G1 X4.9778 Y15.6275
G1 X4.9631 Y15.6387
G1 X4.946 Y15.6458
G1 X4.9277 Y15.6482
G1 X4.9094 Y15.6458
G1 X4.8923 Y15.6387
G1 X4.8777 Y15.6275
G1 X4.8664 Y15.6128
G1 X4.8593 Y15.5957
G1 X4.8569 Y15.5774
G1 X4.8593 Y15.5591
G1 X4.8664 Y15.542
G1 Z-0.3 F30
G1 X4.8777 Y15.5274 F25
G1 X4.8923 Y15.5161
G1 X4.9094 Y15.5091
G1 X4.9277 Y15.5066
G1 X4.946 Y15.5091
G1 X4.9631 Y15.5161
G1 X4.9778 Y15.5274
G1 X4.989 Y15.542
G1 X4.9961 Y15.5591
G1 X4.9985 Y15.5774
G1 X4.9961 Y15.5957
G1 X4.989 Y15.6128
G1 X4.9778 Y15.6275
G1 X4.9631 Y15.6387
G1 X4.946 Y15.6458
G1 X4.9277 Y15.6482
G1 X4.9094 Y15.6458
G1 X4.8923 Y15.6387
G1 X4.8777 Y15.6275
G1 X4.8664 Y15.6128
G1 X4.8593 Y15.5957
G1 X4.8569 Y15.5774
G1 X4.8593 Y15.5591
G1 X4.8664 Y15.542
G1 Z-0.45 F30
G1 X4.8777 Y15.5274 F25
G1 X4.8923 Y15.5161
G1 X4.9094 Y15.5091
G1 X4.9277 Y15.5066
G1 X4.946 Y15.5091
G1 X4.9631 Y15.5161
G1 X4.9778 Y15.5274
G1 X4.989 Y15.542
G1 X4.9961 Y15.5591
G1 X4.9985 Y15.5774
G1 X4.9961 Y15.5957
G1 X4.989 Y15.6128
G1 X4.9778 Y15.6275
G1 X4.9631 Y15.6387
G1 X4.946 Y15.6458
G1 X4.9277 Y15.6482
G1 X4.9094 Y15.6458
G1 X4.8923 Y15.6387
G1 X4.8777 Y15.6275
G1 X4.8664 Y15.6128
G1 X4.8593 Y15.5957
G1 X4.8569 Y15.5774
G1 X4.8593 Y15.5591
G1 X4.8664 Y15.542
G1 Z-0.6 F30
G1 X4.8777 Y15.5274 F25
G1 X4.8923 Y15.5161
G1 X4.9094 Y15.5091
G1 X4.9277 Y15.5066
G1 X4.946 Y15.5091
G1 X4.9631 Y15.5161
G1 X4.9778 Y15.5274
G1 X4.989 Y15.542
G1 X4.9961 Y15.5591
G1 X4.9985 Y15.5774
G1 X4.9961 Y15.5957
G1 X4.989 Y15.6128
G1 X4.9778 Y15.6275
G1 X4.9631 Y15.6387
G1 X4.946 Y15.6458
G1 X4.9277 Y15.6482
G1 X4.9094 Y15.6458
G1 X4.8923 Y15.6387
G1 X4.8777 Y15.6275
G1 X4.8664 Y15.6128
G1 X4.8593 Y15.5957
G1 X4.8569 Y15.5774
G1 X4.8593 Y15.5591
G1 X4.8664 Y15.542
G1 Z-0.75 F30
G1 X4.8777 Y15.5274 F25
G1 X4.8923 Y15.5161
G1 X4.9094 Y15.5091
G1 X4.9277 Y15.5066
G1 X4.946 Y15.5091
G1 X4.9631 Y15.5161
G1 X4.9778 Y15.5274
G1 X4.989 Y15.542
G1 X4.9961 Y15.5591
G1 X4.9985 Y15.5774
G1 X4.9961 Y15.5957
G1 X4.989 Y15.6128
G1 X4.9778 Y15.6275
G1 X4.9631 Y15.6387
G1 X4.946 Y15.6458
G1 X4.9277 Y15.6482
G1 X4.9094 Y15.6458
G1 X4.8923 Y15.6387
G1 X4.8777 Y15.6275
G1 X4.8664 Y15.6128
G1 X4.8593 Y15.5957
G1 X4.8569 Y15.5774
G1 X4.8593 Y15.5591
G1 X4.8664 Y15.542
G1 Z-0.85 F30
G1 X4.8777 Y15.5274 F25
G1 X4.8923 Y15.5161
G1 X4.9094 Y15.5091
G1 X4.9277 Y15.5066
G1 X4.946 Y15.5091
G1 X4.9631 Y15.5161
G1 X4.9778 Y15.5274
G1 X4.989 Y15.542
G1 X4.9961 Y15.5591
G1 X4.9985 Y15.5774
G1 X4.9961 Y15.5957
G1 X4.989 Y15.6128
G1 X4.9778 Y15.6275
G1 X4.9631 Y15.6387
G1 X4.946 Y15.6458
G1 X4.9277 Y15.6482
G1 X4.9094 Y15.6458
G1 X4.8923 Y15.6387
G1 X4.8777 Y15.6275
G1 X4.8664 Y15.6128
G1 X4.8593 Y15.5957
G1 X4.8569 Y15.5774
G1 X4.8593 Y15.5591
G1 X4.8664 Y15.542
G0 Z0.25
G0 X1.627 Y12.1783
G1 Z-0.15 F30
G1 X1.6407 Y12.1906 F25
G1 X1.6508 Y12.2061
G1 X1.6566 Y12.2237
G1 X1.6576 Y12.2421
G1 X1.6538 Y12.2602
G1 X1.6455 Y12.2767
G1 X1.6332 Y12.2904
G1 X1.6177 Y12.3005
G1 X1.6001 Y12.3063
G1 X1.5817 Y12.3073
G1 X1.5636 Y12.3035
G1 X1.5471 Y12.2952
G1 X1.5334 Y12.2829
G1 X1.5233 Y12.2674
G1 X1.5175 Y12.2498
G1 X1.5165 Y12.2314
G1 X1.5203 Y12.2133
G1 X1.5286 Y12.1968
G1 X1.5409 Y12.1831
G1 X1.5564 Y12.173
G1 X1.574 Y12.1672
G1 X1.5924 Y12.1662
G1 X1.6105 Y12.17
G1 X1.627 Y12.1783
G1 Z-0.3 F30
G1 X1.6407 Y12.1906 F25
G1 X1.6508 Y12.2061
G1 X1.6566 Y12.2237
G1 X1.6576 Y12.2421
G1 X1.6538 Y12.2602
G1 X1.6455 Y12.2767
G1 X1.6332 Y12.2904
G1 X1.6177 Y12.3005
G1 X1.6001 Y12.3063
G1 X1.5817 Y12.3073
G1 X1.5636 Y12.3035
G1 X1.5471 Y12.2952
G1 X1.5334 Y12.2829
G1 X1.5233 Y12.2674
G1 X1.5175 Y12.2498
G1 X1.5165 Y12.2314
G1 X1.5203 Y12.2133
G1 X1.5286 Y12.1968
G1 X1.5409 Y12.1831
G1 X1.5564 Y12.173
G1 X1.574 Y12.1672
G1 X1.5924 Y12.1662
G1 X1.6105 Y12.17
G1 X1.627 Y12.1783
G1 Z-0.45 F30
G1 X1.6407 Y12.1906 F25
G1 X1.6508 Y12.2061
G1 X1.6566 Y12.2237
G1 X1.6576 Y12.2421
G1 X1.6538 Y12.2602
G1 X1.6455 Y12.2767
G1 X1.6332 Y12.2904
G1 X1.6177 Y12.3005
G1 X1.6001 Y12.3063
G1 X1.5817 Y12.3073
G1 X1.5636 Y12.3035
G1 X1.5471 Y12.2952
G1 X1.5334 Y12.2829
G1 X1.5233 Y12.2674
G1 X1.5175 Y12.2498
G1 X1.5165 Y12.2314
G1 X1.5203 Y12.2133
G1 X1.5286 Y12.1968
G1 X1.5409 Y12.1831
G1 X1.5564 Y12.173
G1 X1.574 Y12.1672
G1 X1.5924 Y12.1662
G1 X1.6105 Y12.17
G1 X1.627 Y12.1783
G1 Z-0.6 F30
G1 X1.6407 Y12.1906 F25
G1 X1.6508 Y12.2061
G1 X1.6566 Y12.2237
G1 X1.6576 Y12.2421
G1 X1.6538 Y12.2602
G1 X1.6455 Y12.2767
G1 X1.6332 Y12.2904
G1 X1.6177 Y12.3005
G1 X1.6001 Y12.3063
G1 X1.5817 Y12.3073
G1 X1.5636 Y12.3035
G1 X1.5471 Y12.2952
G1 X1.5334 Y12.2829
G1 X1.5233 Y12.2674
G1 X1.5175 Y12.2498
G1 X1.5165 Y12.2314
G1 X1.5203 Y12.2133
G1 X1.5286 Y12.1968
G1 X1.5409 Y12.1831
G1 X1.5564 Y12.173
G1 X1.574 Y12.1672
G1 X1.5924 Y12.1662
G1 X1.6105 Y12.17
G1 X1.627 Y12.1783
G1 Z-0.75 F30
G1 X1.6407 Y12.1906 F25
G1 X1.6508 Y12.2061
G1 X1.6566 Y12.2237
G1 X1.6576 Y12.2421
G1 X1.6538 Y12.2602
G1 X1.6455 Y12.2767
G1 X1.6332 Y12.2904
G1 X1.6177 Y12.3005
G1 X1.6001 Y12.3063
G1 X1.5817 Y12.3073
G1 X1.5636 Y12.3035
G1 X1.5471 Y12.2952
G1 X1.5334 Y12.2829
G1 X1.5233 Y12.2674
G1 X1.5175 Y12.2498
G1 X1.5165 Y12.2314
G1 X1.5203 Y12.2133
G1 X1.5286 Y12.1968
G1 X1.5409 Y12.1831
G1 X1.5564 Y12.173
G1 X1.574 Y12.1672
G1 X1.5924 Y12.1662
G1 X1.6105 Y12.17
G1 X1.627 Y12.1783
G1 Z-0.85 F30
G1 X1.6407 Y12.1906 F25
G1 X1.6508 Y12.2061
G1 X1.6566 Y12.2237
G1 X1.6576 Y12.2421
G1 X1.6538 Y12.2602
G1 X1.6455 Y12.2767
G1 X1.6332 Y12.2904
G1 X1.6177 Y12.3005
G1 X1.6001 Y12.3063
G1 X1.5817 Y12.3073
G1 X1.5636 Y12.3035
G1 X1.5471 Y12.2952
G1 X1.5334 Y12.2829
G1 X1.5233 Y12.2674
G1 X1.5175 Y12.2498
G1 X1.5165 Y12.2314
G1 X1.5203 Y12.2133
G1 X1.5286 Y12.1968
G1 X1.5409 Y12.1831
G1 X1.5564 Y12.173
G1 X1.574 Y12.1672
G1 X1.5924 Y12.1662
G1 X1.6105 Y12.17
G1 X1.627 Y12.1783
G0 Z0.25
G0 X15.542 Y12.1755
G1 Z-0.15 F30
G1 X15.5591 Y12.1684 F25
G1 X15.5774 Y12.166
G1 X15.5957 Y12.1684
G1 X15.6128 Y12.1755
G1 X15.6275 Y12.1867
G1 X15.6387 Y12.2014
G1 X15.6458 Y12.2184
G1 X15.6482 Y12.2368
G1 X15.6458 Y12.2551
G1 X15.6387 Y12.2721
G1 X15.6275 Y12.2868
G1 X15.6128 Y12.298
G1 X15.5957 Y12.3051
G1 X15.5774 Y12.3075
G1 X15.5591 Y12.3051
G1 X15.542 Y12.298
G1 X15.5274 Y12.2868
G1 X15.5161 Y12.2721
G1 X15.5091 Y12.2551
G1 X15.5066 Y12.2368
G1 X15.5091 Y12.2184
G1 X15.5161 Y12.2014
G1 X15.5274 Y12.1867
G1 X15.542 Y12.1755
G1 Z-0.3 F30
G1 X15.5591 Y12.1684 F25
G1 X15.5774 Y12.166
G1 X15.5957 Y12.1684
G1 X15.6128 Y12.1755
G1 X15.6275 Y12.1867
G1 X15.6387 Y12.2014
G1 X15.6458 Y12.2184
G1 X15.6482 Y12.2368
G1 X15.6458 Y12.2551
G1 X15.6387 Y12.2721
G1 X15.6275 Y12.2868
G1 X15.6128 Y12.298
G1 X15.5957 Y12.3051
G1 X15.5774 Y12.3075
G1 X15.5591 Y12.3051
G1 X15.542 Y12.298
G1 X15.5274 Y12.2868
G1 X15.5161 Y12.2721
G1 X15.5091 Y12.2551
G1 X15.5066 Y12.2368
G1 X15.5091 Y12.2184
G1 X15.5161 Y12.2014
G1 X15.5274 Y12.1867
G1 X15.542 Y12.1755
G1 Z-0.45 F30
G1 X15.5591 Y12.1684 F25
G1 X15.5774 Y12.166
G1 X15.5957 Y12.1684
G1 X15.6128 Y12.1755
G1 X15.6275 Y12.1867
G1 X15.6387 Y12.2014
G1 X15.6458 Y12.2184
G1 X15.6482 Y12.2368
G1 X15.6458 Y12.2551
G1 X15.6387 Y12.2721
G1 X15.6275 Y12.2868
G1 X15.6128 Y12.298
G1 X15.5957 Y12.3051
G1 X15.5774 Y12.3075
G1 X15.5591 Y12.3051
G1 X15.542 Y12.298
G1 X15.5274 Y12.2868
G1 X15.5161 Y12.2721
G1 X15.5091 Y12.2551
G1 X15.5066 Y12.2368
G1 X15.5091 Y12.2184
G1 X15.5161 Y12.2014
G1 X15.5274 Y12.1867
G1 X15.542 Y12.1755
G1 Z-0.6 F30
G1 X15.5591 Y12.1684 F25
G1 X15.5774 Y12.166
G1 X15.5957 Y12.1684
G1 X15.6128 Y12.1755
G1 X15.6275 Y12.1867
G1 X15.6387 Y12.2014
G1 X15.6458 Y12.2184
G1 X15.6482 Y12.2368
G1 X15.6458 Y12.2551
G1 X15.6387 Y12.2721
G1 X15.6275 Y12.2868
G1 X15.6128 Y12.298
G1 X15.5957 Y12.3051
G1 X15.5774 Y12.3075
G1 X15.5591 Y12.3051
G1 X15.542 Y12.298
G1 X15.5274 Y12.2868
G1 X15.5161 Y12.2721
G1 X15.5091 Y12.2551
G1 X15.5066 Y12.2368
G1 X15.5091 Y12.2184
G1 X15.5161 Y12.2014
G1 X15.5274 Y12.1867
G1 X15.542 Y12.1755
G1 Z-0.75 F30
G1 X15.5591 Y12.1684 F25
G1 X15.5774 Y12.166
G1 X15.5957 Y12.1684
G1 X15.6128 Y12.1755
G1 X15.6275 Y12.1867
G1 X15.6387 Y12.2014
G1 X15.6458 Y12.2184
G1 X15.6482 Y12.2368
G1 X15.6458 Y12.2551
G1 X15.6387 Y12.2721
G1 X15.6275 Y12.2868
G1 X15.6128 Y12.298
G1 X15.5957 Y12.3051
G1 X15.5774 Y12.3075
G1 X15.5591 Y12.3051
G1 X15.542 Y12.298
G1 X15.5274 Y12.2868
G1 X15.5161 Y12.2721
G1 X15.5091 Y12.2551
G1 X15.5066 Y12.2368
G1 X15.5091 Y12.2184
G1 X15.5161 Y12.2014
G1 X15.5274 Y12.1867
G1 X15.542 Y12.1755
G1 Z-0.85 F30
G1 X15.5591 Y12.1684 F25
G1 X15.5774 Y12.166
G1 X15.5957 Y12.1684
G1 X15.6128 Y12.1755
G1 X15.6275 Y12.1867
G1 X15.6387 Y12.2014
G1 X15.6458 Y12.2184
G1 X15.6482 Y12.2368
G1 X15.6458 Y12.2551
G1 X15.6387 Y12.2721
G1 X15.6275 Y12.2868
G1 X15.6128 Y12.298
G1 X15.5957 Y12.3051
G1 X15.5774 Y12.3075
G1 X15.5591 Y12.3051
G1 X15.542 Y12.298
G1 X15.5274 Y12.2868
G1 X15.5161 Y12.2721
G1 X15.5091 Y12.2551
G1 X15.5066 Y12.2368
G1 X15.5091 Y12.2184
G1 X15.5161 Y12.2014
G1 X15.5274 Y12.1867
G1 X15.542 Y12.1755
G0 Z0.25
G0 X3.6112 Y3.589
G1 Z-0.15 F30
G1 X3.6193 Y3.5879 F25
G1 X3.6274 Y3.589
G1 X3.635 Y3.5921
G1 X3.6415 Y3.5971
G1 X3.6465 Y3.6036
G1 X3.6496 Y3.6112
G1 X3.6507 Y3.6193
G1 X3.6496 Y3.6274
G1 X3.6465 Y3.635
G1 X3.6415 Y3.6415
G1 X3.635 Y3.6465
G1 X3.6274 Y3.6496
G1 X3.6193 Y3.6507
G1 X3.6112 Y3.6496
G1 X3.6036 Y3.6465
G1 X3.5971 Y3.6415
G1 X3.5921 Y3.635
G1 X3.589 Y3.6274
G1 X3.5879 Y3.6193
G1 X3.589 Y3.6112
G1 X3.5921 Y3.6036
G1 X3.5971 Y3.5971
G1 X3.6036 Y3.5921
G1 X3.6112 Y3.589
G1 Z-0.3 F30
G1 X3.6193 Y3.5879 F25
G1 X3.6274 Y3.589
G1 X3.635 Y3.5921
G1 X3.6415 Y3.5971
G1 X3.6465 Y3.6036
G1 X3.6496 Y3.6112
G1 X3.6507 Y3.6193
G1 X3.6496 Y3.6274
G1 X3.6465 Y3.635
G1 X3.6415 Y3.6415
G1 X3.635 Y3.6465
G1 X3.6274 Y3.6496
G1 X3.6193 Y3.6507
G1 X3.6112 Y3.6496
G1 X3.6036 Y3.6465
G1 X3.5971 Y3.6415
G1 X3.5921 Y3.635
G1 X3.589 Y3.6274
G1 X3.5879 Y3.6193
G1 X3.589 Y3.6112
G1 X3.5921 Y3.6036
G1 X3.5971 Y3.5971
G1 X3.6036 Y3.5921
G1 X3.6112 Y3.589
G1 Z-0.45 F30
G1 X3.6193 Y3.5879 F25
G1 X3.6274 Y3.589
G1 X3.635 Y3.5921
G1 X3.6415 Y3.5971
G1 X3.6465 Y3.6036
G1 X3.6496 Y3.6112
G1 X3.6507 Y3.6193
G1 X3.6496 Y3.6274
G1 X3.6465 Y3.635
G1 X3.6415 Y3.6415
G1 X3.635 Y3.6465
G1 X3.6274 Y3.6496
G1 X3.6193 Y3.6507
G1 X3.6112 Y3.6496
G1 X3.6036 Y3.6465
G1 X3.5971 Y3.6415
G1 X3.5921 Y3.635
G1 X3.589 Y3.6274
G1 X3.5879 Y3.6193
G1 X3.589 Y3.6112
G1 X3.5921 Y3.6036
G1 X3.5971 Y3.5971
G1 X3.6036 Y3.5921
G1 X3.6112 Y3.589
G1 Z-0.6 F30
G1 X3.6193 Y3.5879 F25
G1 X3.6274 Y3.589
G1 X3.635 Y3.5921
G1 X3.6415 Y3.5971
G1 X3.6465 Y3.6036
G1 X3.6496 Y3.6112
G1 X3.6507 Y3.6193
G1 X3.6496 Y3.6274
G1 X3.6465 Y3.635
G1 X3.6415 Y3.6415
G1 X3.635 Y3.6465
G1 X3.6274 Y3.6496
G1 X3.6193 Y3.6507
G1 X3.6112 Y3.6496
G1 X3.6036 Y3.6465
G1 X3.5971 Y3.6415
G1 X3.5921 Y3.635
G1 X3.589 Y3.6274
G1 X3.5879 Y3.6193
G1 X3.589 Y3.6112
G1 X3.5921 Y3.6036
G1 X3.5971 Y3.5971
G1 X3.6036 Y3.5921
G1 X3.6112 Y3.589
G1 Z-0.75 F30
G1 X3.6193 Y3.5879 F25
G1 X3.6274 Y3.589
G1 X3.635 Y3.5921
G1 X3.6415 Y3.5971
G1 X3.6465 Y3.6036
G1 X3.6496 Y3.6112
G1 X3.6507 Y3.6193
G1 X3.6496 Y3.6274
G1 X3.6465 Y3.635
G1 X3.6415 Y3.6415
G1 X3.635 Y3.6465
G1 X3.6274 Y3.6496
G1 X3.6193 Y3.6507
G1 X3.6112 Y3.6496
G1 X3.6036 Y3.6465
G1 X3.5971 Y3.6415
G1 X3.5921 Y3.635
G1 X3.589 Y3.6274
G1 X3.5879 Y3.6193
G1 X3.589 Y3.6112
G1 X3.5921 Y3.6036
G1 X3.5971 Y3.5971
G1 X3.6036 Y3.5921
G1 X3.6112 Y3.589
G1 Z-0.85 F30
G1 X3.6193 Y3.5879 F25
G1 X3.6274 Y3.589
G1 X3.635 Y3.5921
G1 X3.6415 Y3.5971
G1 X3.6465 Y3.6036
G1 X3.6496 Y3.6112
G1 X3.6507 Y3.6193
G1 X3.6496 Y3.6274
G1 X3.6465 Y3.635
G1 X3.6415 Y3.6415
G1 X3.635 Y3.6465
G1 X3.6274 Y3.6496
G1 X3.6193 Y3.6507
G1 X3.6112 Y3.6496
G1 X3.6036 Y3.6465
G1 X3.5971 Y3.6415
G1 X3.5921 Y3.635
G1 X3.589 Y3.6274
G1 X3.5879 Y3.6193
G1 X3.589 Y3.6112
G1 X3.5921 Y3.6036
G1 X3.5971 Y3.5971
G1 X3.6036 Y3.5921
G1 X3.6112 Y3.589
G0 Z0.25
G0 X12.8764 Y4.2996
G1 Z-0.15 F30
G1 X12.8795 Y4.3071 F25
G1 X12.8806 Y4.3153
G1 X12.8795 Y4.3234
G1 X12.8764 Y4.331
G1 X12.8714 Y4.3375
G1 X12.8649 Y4.3424
G1 X12.8573 Y4.3456
G1 X12.8492 Y4.3467
G1 X12.8411 Y4.3456
G1 X12.8335 Y4.3424
G1 X12.827 Y4.3375
G1 X12.822 Y4.331
G1 X12.8189 Y4.3234
G1 X12.8178 Y4.3153
G1 X12.8189 Y4.3071
G1 X12.822 Y4.2996
G1 X12.827 Y4.293
G1 X12.8335 Y4.2881
G1 X12.8411 Y4.2849
G1 X12.8492 Y4.2839
G1 X12.8573 Y4.2849
G1 X12.8649 Y4.2881
G1 X12.8714 Y4.293
G1 X12.8764 Y4.2996
G1 Z-0.3 F30
G1 X12.8795 Y4.3071 F25
G1 X12.8806 Y4.3153
G1 X12.8795 Y4.3234
G1 X12.8764 Y4.331
G1 X12.8714 Y4.3375
G1 X12.8649 Y4.3424
G1 X12.8573 Y4.3456
G1 X12.8492 Y4.3467
G1 X12.8411 Y4.3456
G1 X12.8335 Y4.3424
G1 X12.827 Y4.3375
G1 X12.822 Y4.331
G1 X12.8189 Y4.3234
G1 X12.8178 Y4.3153
G1 X12.8189 Y4.3071
G1 X12.822 Y4.2996
G1 X12.827 Y4.293
G1 X12.8335 Y4.2881
G1 X12.8411 Y4.2849
G1 X12.8492 Y4.2839
G1 X12.8573 Y4.2849
G1 X12.8649 Y4.2881
G1 X12.8714 Y4.293
G1 X12.8764 Y4.2996
G1 Z-0.45 F30
G1 X12.8795 Y4.3071 F25
G1 X12.8806 Y4.3153
G1 X12.8795 Y4.3234
G1 X12.8764 Y4.331
G1 X12.8714 Y4.3375
G1 X12.8649 Y4.3424
G1 X12.8573 Y4.3456
G1 X12.8492 Y4.3467
G1 X12.8411 Y4.3456
G1 X12.8335 Y4.3424
G1 X12.827 Y4.3375
G1 X12.822 Y4.331
G1 X12.8189 Y4.3234
G1 X12.8178 Y4.3153
G1 X12.8189 Y4.3071
G1 X12.822 Y4.2996
G1 X12.827 Y4.293
G1 X12.8335 Y4.2881
G1 X12.8411 Y4.2849
G1 X12.8492 Y4.2839
G1 X12.8573 Y4.2849
G1 X12.8649 Y4.2881
G1 X12.8714 Y4.293
G1 X12.8764 Y4.2996
G1 Z-0.6 F30
G1 X12.8795 Y4.3071 F25
G1 X12.8806 Y4.3153
G1 X12.8795 Y4.3234
G1 X12.8764 Y4.331
G1 X12.8714 Y4.3375
G1 X12.8649 Y4.3424
G1 X12.8573 Y4.3456
G1 X12.8492 Y4.3467
G1 X12.8411 Y4.3456
G1 X12.8335 Y4.3424
G1 X12.827 Y4.3375
G1 X12.822 Y4.331
G1 X12.8189 Y4.3234
G1 X12.8178 Y4.3153
G1 X12.8189 Y4.3071
G1 X12.822 Y4.2996
G1 X12.827 Y4.293
G1 X12.8335 Y4.2881
G1 X12.8411 Y4.2849
G1 X12.8492 Y4.2839
G1 X12.8573 Y4.2849
G1 X12.8649 Y4.2881
G1 X12.8714 Y4.293
G1 X12.8764 Y4.2996
G1 Z-0.75 F30
G1 X12.8795 Y4.3071 F25
G1 X12.8806 Y4.3153
G1 X12.8795 Y4.3234
G1 X12.8764 Y4.331
G1 X12.8714 Y4.3375
G1 X12.8649 Y4.3424
G1 X12.8573 Y4.3456
G1 X12.8492 Y4.3467
G1 X12.8411 Y4.3456
G1 X12.8335 Y4.3424
G1 X12.827 Y4.3375
G1 X12.822 Y4.331
G1 X12.8189 Y4.3234
G1 X12.8178 Y4.3153
G1 X12.8189 Y4.3071
G1 X12.822 Y4.2996
G1 X12.827 Y4.293
G1 X12.8335 Y4.2881
G1 X12.8411 Y4.2849
G1 X12.8492 Y4.2839
G1 X12.8573 Y4.2849
G1 X12.8649 Y4.2881
G1 X12.8714 Y4.293
G1 X12.8764 Y4.2996
G1 Z-0.85 F30
G1 X12.8795 Y4.3071 F25
G1 X12.8806 Y4.3153
G1 X12.8795 Y4.3234
G1 X12.8764 Y4.331
G1 X12.8714 Y4.3375
G1 X12.8649 Y4.3424
G1 X12.8573 Y4.3456
G1 X12.8492 Y4.3467
G1 X12.8411 Y4.3456
G1 X12.8335 Y4.3424
G1 X12.827 Y4.3375
G1 X12.822 Y4.331
G1 X12.8189 Y4.3234
G1 X12.8178 Y4.3153
G1 X12.8189 Y4.3071
G1 X12.822 Y4.2996
G1 X12.827 Y4.293
G1 X12.8335 Y4.2881
G1 X12.8411 Y4.2849
G1 X12.8492 Y4.2839
G1 X12.8573 Y4.2849
G1 X12.8649 Y4.2881
G1 X12.8714 Y4.293
G1 X12.8764 Y4.2996
G0 Z0.25
G0 X13.5452 Y3.5879
G1 Z-0.15 F30
G1 X13.5533 Y3.589 F25
G1 X13.5609 Y3.5921
G1 X13.5674 Y3.5971
G1 X13.5724 Y3.6036
G1 X13.5755 Y3.6112
G1 X13.5766 Y3.6193
G1 X13.5755 Y3.6274
G1 X13.5724 Y3.635
G1 X13.5674 Y3.6415
G1 X13.5609 Y3.6465
G1 X13.5533 Y3.6496
G1 X13.5452 Y3.6507
G1 X13.5371 Y3.6496
G1 X13.5295 Y3.6465
G1 X13.523 Y3.6415
G1 X13.518 Y3.635
G1 X13.5148 Y3.6274
G1 X13.5138 Y3.6193
G1 X13.5148 Y3.6112
G1 X13.518 Y3.6036
G1 X13.523 Y3.5971
G1 X13.5295 Y3.5921
G1 X13.5371 Y3.589
G1 X13.5452 Y3.5879
G1 Z-0.3 F30
G1 X13.5533 Y3.589 F25
G1 X13.5609 Y3.5921
G1 X13.5674 Y3.5971
G1 X13.5724 Y3.6036
G1 X13.5755 Y3.6112
G1 X13.5766 Y3.6193
G1 X13.5755 Y3.6274
G1 X13.5724 Y3.635
G1 X13.5674 Y3.6415
G1 X13.5609 Y3.6465
G1 X13.5533 Y3.6496
G1 X13.5452 Y3.6507
G1 X13.5371 Y3.6496
G1 X13.5295 Y3.6465
G1 X13.523 Y3.6415
G1 X13.518 Y3.635
G1 X13.5148 Y3.6274
G1 X13.5138 Y3.6193
G1 X13.5148 Y3.6112
G1 X13.518 Y3.6036
G1 X13.523 Y3.5971
G1 X13.5295 Y3.5921
G1 X13.5371 Y3.589
G1 X13.5452 Y3.5879
G1 Z-0.45 F30
G1 X13.5533 Y3.589 F25
G1 X13.5609 Y3.5921
G1 X13.5674 Y3.5971
G1 X13.5724 Y3.6036
G1 X13.5755 Y3.6112
G1 X13.5766 Y3.6193
G1 X13.5755 Y3.6274
G1 X13.5724 Y3.635
G1 X13.5674 Y3.6415
G1 X13.5609 Y3.6465
G1 X13.5533 Y3.6496
G1 X13.5452 Y3.6507
G1 X13.5371 Y3.6496
G1 X13.5295 Y3.6465
G1 X13.523 Y3.6415
G1 X13.518 Y3.635
G1 X13.5148 Y3.6274
G1 X13.5138 Y3.6193
G1 X13.5148 Y3.6112
G1 X13.518 Y3.6036
G1 X13.523 Y3.5971
G1 X13.5295 Y3.5921
G1 X13.5371 Y3.589
G1 X13.5452 Y3.5879
G1 Z-0.6 F30
G1 X13.5533 Y3.589 F25
G1 X13.5609 Y3.5921
G1 X13.5674 Y3.5971
G1 X13.5724 Y3.6036
G1 X13.5755 Y3.6112
G1 X13.5766 Y3.6193
G1 X13.5755 Y3.6274
G1 X13.5724 Y3.635
G1 X13.5674 Y3.6415
G1 X13.5609 Y3.6465
G1 X13.5533 Y3.6496
G1 X13.5452 Y3.6507
G1 X13.5371 Y3.6496
G1 X13.5295 Y3.6465
G1 X13.523 Y3.6415
G1 X13.518 Y3.635
G1 X13.5148 Y3.6274
G1 X13.5138 Y3.6193
G1 X13.5148 Y3.6112
G1 X13.518 Y3.6036
G1 X13.523 Y3.5971
G1 X13.5295 Y3.5921
G1 X13.5371 Y3.589
G1 X13.5452 Y3.5879
G1 Z-0.75 F30
G1 X13.5533 Y3.589 F25
G1 X13.5609 Y3.5921
G1 X13.5674 Y3.5971
G1 X13.5724 Y3.6036
G1 X13.5755 Y3.6112
G1 X13.5766 Y3.6193
G1 X13.5755 Y3.6274
G1 X13.5724 Y3.635
G1 X13.5674 Y3.6415
G1 X13.5609 Y3.6465
G1 X13.5533 Y3.6496
G1 X13.5452 Y3.6507
G1 X13.5371 Y3.6496
G1 X13.5295 Y3.6465
G1 X13.523 Y3.6415
G1 X13.518 Y3.635
G1 X13.5148 Y3.6274
G1 X13.5138 Y3.6193
G1 X13.5148 Y3.6112
G1 X13.518 Y3.6036
G1 X13.523 Y3.5971
G1 X13.5295 Y3.5921
G1 X13.5371 Y3.589
G1 X13.5452 Y3.5879
G1 Z-0.85 F30
G1 X13.5533 Y3.589 F25
G1 X13.5609 Y3.5921
G1 X13.5674 Y3.5971
G1 X13.5724 Y3.6036
G1 X13.5755 Y3.6112
G1 X13.5766 Y3.6193
G1 X13.5755 Y3.6274
G1 X13.5724 Y3.635
G1 X13.5674 Y3.6415
G1 X13.5609 Y3.6465
G1 X13.5533 Y3.6496
G1 X13.5452 Y3.6507
G1 X13.5371 Y3.6496
G1 X13.5295 Y3.6465
G1 X13.523 Y3.6415
G1 X13.518 Y3.635
G1 X13.5148 Y3.6274
G1 X13.5138 Y3.6193
G1 X13.5148 Y3.6112
G1 X13.518 Y3.6036
G1 X13.523 Y3.5971
G1 X13.5295 Y3.5921
G1 X13.5371 Y3.589
G1 X13.5452 Y3.5879
G0 Z0.25
G0 X4.3228 Y4.3457
G1 Z-0.15 F30
G1 X4.3147 Y4.3467 F25
G1 X4.3066 Y4.3454
G1 X4.2991 Y4.3422
G1 X4.2927 Y4.3371
G1 X4.2878 Y4.3305
G1 X4.2848 Y4.3228
G1 X4.2839 Y4.3147
G1 X4.2851 Y4.3066
G1 X4.2883 Y4.2991
G1 X4.2934 Y4.2927
G1 X4.3 Y4.2878
G1 X4.3077 Y4.2848
G1 X4.3158 Y4.2839
G1 X4.3239 Y4.2851
G1 X4.3314 Y4.2883
G1 X4.3378 Y4.2934
G1 X4.3427 Y4.3
G1 X4.3457 Y4.3077
G1 X4.3467 Y4.3158
G1 X4.3454 Y4.3239
G1 X4.3422 Y4.3314
G1 X4.3371 Y4.3378
G1 X4.3305 Y4.3427
G1 X4.3228 Y4.3457
G1 Z-0.3 F30
G1 X4.3147 Y4.3467 F25
G1 X4.3066 Y4.3454
G1 X4.2991 Y4.3422
G1 X4.2927 Y4.3371
G1 X4.2878 Y4.3305
G1 X4.2848 Y4.3228
G1 X4.2839 Y4.3147
G1 X4.2851 Y4.3066
G1 X4.2883 Y4.2991
G1 X4.2934 Y4.2927
G1 X4.3 Y4.2878
G1 X4.3077 Y4.2848
G1 X4.3158 Y4.2839
G1 X4.3239 Y4.2851
G1 X4.3314 Y4.2883
G1 X4.3378 Y4.2934
G1 X4.3427 Y4.3
G1 X4.3457 Y4.3077
G1 X4.3467 Y4.3158
G1 X4.3454 Y4.3239
G1 X4.3422 Y4.3314
G1 X4.3371 Y4.3378
G1 X4.3305 Y4.3427
G1 X4.3228 Y4.3457
G1 Z-0.45 F30
G1 X4.3147 Y4.3467 F25
G1 X4.3066 Y4.3454
G1 X4.2991 Y4.3422
G1 X4.2927 Y4.3371
G1 X4.2878 Y4.3305
G1 X4.2848 Y4.3228
G1 X4.2839 Y4.3147
G1 X4.2851 Y4.3066
G1 X4.2883 Y4.2991
G1 X4.2934 Y4.2927
G1 X4.3 Y4.2878
G1 X4.3077 Y4.2848
G1 X4.3158 Y4.2839
G1 X4.3239 Y4.2851
G1 X4.3314 Y4.2883
G1 X4.3378 Y4.2934
G1 X4.3427 Y4.3
G1 X4.3457 Y4.3077
G1 X4.3467 Y4.3158
G1 X4.3454 Y4.3239
G1 X4.3422 Y4.3314
G1 X4.3371 Y4.3378
G1 X4.3305 Y4.3427
G1 X4.3228 Y4.3457
G1 Z-0.6 F30
G1 X4.3147 Y4.3467 F25
G1 X4.3066 Y4.3454
G1 X4.2991 Y4.3422
G1 X4.2927 Y4.3371
G1 X4.2878 Y4.3305
G1 X4.2848 Y4.3228
G1 X4.2839 Y4.3147
G1 X4.2851 Y4.3066
G1 X4.2883 Y4.2991
G1 X4.2934 Y4.2927
G1 X4.3 Y4.2878
G1 X4.3077 Y4.2848
G1 X4.3158 Y4.2839
G1 X4.3239 Y4.2851
G1 X4.3314 Y4.2883
G1 X4.3378 Y4.2934
G1 X4.3427 Y4.3
G1 X4.3457 Y4.3077
G1 X4.3467 Y4.3158
G1 X4.3454 Y4.3239
G1 X4.3422 Y4.3314
G1 X4.3371 Y4.3378
G1 X4.3305 Y4.3427
G1 X4.3228 Y4.3457
G1 Z-0.75 F30
G1 X4.3147 Y4.3467 F25
G1 X4.3066 Y4.3454
G1 X4.2991 Y4.3422
G1 X4.2927 Y4.3371
G1 X4.2878 Y4.3305
G1 X4.2848 Y4.3228
G1 X4.2839 Y4.3147
G1 X4.2851 Y4.3066
G1 X4.2883 Y4.2991
G1 X4.2934 Y4.2927
G1 X4.3 Y4.2878
G1 X4.3077 Y4.2848
G1 X4.3158 Y4.2839
G1 X4.3239 Y4.2851
G1 X4.3314 Y4.2883
G1 X4.3378 Y4.2934
G1 X4.3427 Y4.3
G1 X4.3457 Y4.3077
G1 X4.3467 Y4.3158
G1 X4.3454 Y4.3239
G1 X4.3422 Y4.3314
G1 X4.3371 Y4.3378
G1 X4.3305 Y4.3427
G1 X4.3228 Y4.3457
G1 Z-0.85 F30
G1 X4.3147 Y4.3467 F25
G1 X4.3066 Y4.3454
G1 X4.2991 Y4.3422
G1 X4.2927 Y4.3371
G1 X4.2878 Y4.3305
G1 X4.2848 Y4.3228
G1 X4.2839 Y4.3147
G1 X4.2851 Y4.3066
G1 X4.2883 Y4.2991
G1 X4.2934 Y4.2927
G1 X4.3 Y4.2878
G1 X4.3077 Y4.2848
G1 X4.3158 Y4.2839
G1 X4.3239 Y4.2851
G1 X4.3314 Y4.2883
G1 X4.3378 Y4.2934
G1 X4.3427 Y4.3
G1 X4.3457 Y4.3077
G1 X4.3467 Y4.3158
G1 X4.3454 Y4.3239
G1 X4.3422 Y4.3314
G1 X4.3371 Y4.3378
G1 X4.3305 Y4.3427
G1 X4.3228 Y4.3457

(profile 3)
G0 Z0.25
G0 X17.2841 Y8.9007
G1 Z-0.15 F30
G1 X17.273 Y9.1251 F25
G3 X17.2728 Y9.1283 I-0.1248 J-0.0062
G1 X17.2558 Y9.3524
G3 X17.2555 Y9.3556 I-0.1246 J-0.0094
G1 X17.2326 Y9.5792
G3 X17.2323 Y9.5824 I-0.1244 J-0.0127
G1 X17.2036 Y9.8053
G3 X17.2031 Y9.8085 I-0.124 J-0.016
G1 X17.1686 Y10.0305
G3 X17.1681 Y10.0337 I-0.1235 J-0.0192
G1 X17.1278 Y10.2548
G3 X17.1271 Y10.258 I-0.123 J-0.0224
G1 X17.081 Y10.4779
G3 X17.0803 Y10.4811 I-0.1223 J-0.0256
G1 X17.0285 Y10.6997
G3 X17.0277 Y10.7029 I-0.1216 J-0.0288
G1 X16.9702 Y10.9201
G3 X16.9693 Y10.9233 I-0.1208 J-0.032
G1 X16.9061 Y11.1389
G3 X16.9052 Y11.142 I-0.12 J-0.0352
G1 X16.8363 Y11.3559
G3 X16.8353 Y11.359 I-0.119 J-0.0383
G1 X16.7609 Y11.571
G3 X16.7598 Y11.5741 I-0.1179 J-0.0414
G1 X16.6799 Y11.7841
G3 X16.6787 Y11.7871 I-0.1168 J-0.0445
G1 X16.5933 Y11.995
G3 X16.592 Y11.998 I-0.1156 J-0.0475
G1 X16.5012 Y12.2035
G3 X16.4998 Y12.2065 I-0.1143 J-0.0505
G1 X16.4037 Y12.4095
G3 X16.4022 Y12.4125 I-0.113 J-0.0535
G1 X16.3008 Y12.613
G3 X16.2993 Y12.6159 I-0.1115 J-0.0564
G1 X16.1927 Y12.8136
G3 X16.1911 Y12.8165 I-0.11 J-0.0593
G1 X16.0793 Y13.0114
G3 X16.0776 Y13.0142 I-0.1084 J-0.0622
G1 X15.9608 Y13.2061
G3 X15.959 Y13.2089 I-0.1068 J-0.065
G1 X15.8372 Y13.3977
G3 X15.8354 Y13.4004 I-0.105 J-0.0678
G1 X15.7087 Y13.586
G3 X15.7068 Y13.5886 I-0.1032 J-0.0705
G1 X15.5752 Y13.7708
G3 X15.5733 Y13.7734 I-0.1013 J-0.0732
G1 X15.437 Y13.9521
G3 X15.435 Y13.9547 I-0.0994 J-0.0758
G1 X15.2941 Y14.1297
G3 X15.292 Y14.1322 I-0.0974 J-0.0784
G1 X15.1466 Y14.3035
G3 X15.1444 Y14.3059 I-0.0953 J-0.0809
G1 X14.9946 Y14.4733
G3 X14.9924 Y14.4758 I-0.0931 J-0.0834
G1 X14.8382 Y14.6392
G3 X14.8359 Y14.6415 I-0.0909 J-0.0858
G1 X14.6775 Y14.8009
G3 X14.6751 Y14.8032 I-0.0886 J-0.0881
G1 X14.5126 Y14.9583
G3 X14.5102 Y14.9605 I-0.0863 J-0.0904
G1 X14.3437 Y15.1113
G3 X14.3412 Y15.1135 I-0.0839 J-0.0927
G1 X14.1708 Y15.2599
G3 X14.1683 Y15.262 I-0.0815 J-0.0948
G1 X13.9941 Y15.4039
G3 X13.9915 Y15.406 I-0.0789 J-0.0969
G1 X13.8136 Y15.5433
G3 X13.811 Y15.5452 I-0.0764 J-0.0989
G1 X13.6296 Y15.6778
G3 X13.627 Y15.6797 I-0.0738 J-0.1009
G1 X13.4422 Y15.8075
G3 X13.4394 Y15.8093 I-0.0711 J-0.1028
G1 X13.2513 Y15.9322
G3 X13.2486 Y15.934 I-0.0684 J-0.1046
G1 X13.0573 Y16.052
G3 X13.0545 Y16.0536 I-0.0656 J-0.1064
G1 X12.8603 Y16.1665
G3 X12.8574 Y16.1681 I-0.0628 J-0.1081
G1 X12.6603 Y16.2759
G3 X12.6574 Y16.2775 I-0.06 J-0.1097
G1 X12.4575 Y16.38
G3 X12.4546 Y16.3815 I-0.0571 J-0.1112
G1 X12.252 Y16.4788
G3 X12.2491 Y16.4802 I-0.0541 J-0.1127
G1 X12.0441 Y16.5722
G3 X12.0411 Y16.5735 I-0.0512 J-0.114
G1 X11.8337 Y16.6601
G3 X11.8307 Y16.6613 I-0.0482 J-0.1153
G1 X11.6212 Y16.7424
G3 X11.6181 Y16.7435 I-0.0451 J-0.1166
G1 X11.4065 Y16.8192
G3 X11.4034 Y16.8202 I-0.0421 J-0.1177
G1 X11.1899 Y16.8903
G3 X11.1868 Y16.8912 I-0.039 J-0.1188
G1 X10.9716 Y16.9557
G3 X10.9684 Y16.9566 I-0.0358 J-0.1197
G1 X10.7515 Y17.0154
G3 X10.7484 Y17.0162 I-0.0327 J-0.1206
G1 X10.53 Y17.0692
G3 X10.5269 Y17.07 I-0.0295 J-0.1215
G1 X10.3072 Y17.1173
G3 X10.304 Y17.118 I-0.0263 J-0.1222
G1 X10.0832 Y17.1596
G3 X10.08 Y17.1601 I-0.0231 J-0.1228
G1 X9.8582 Y17.1959
G3 X9.8549 Y17.1964 I-0.0199 J-0.1234
G1 X9.6322 Y17.2264
G3 X9.629 Y17.2268 I-0.0167 J-0.1239
G1 X9.4056 Y17.2509
G3 X9.4023 Y17.2512 I-0.0134 J-0.1243
G1 X9.1784 Y17.2695
G3 X9.1751 Y17.2697 I-0.0102 J-0.1246
G1 X8.9508 Y17.2821
G3 X8.9475 Y17.2822 I-0.0069 J-0.1248
G1 X8.7229 Y17.2888
G3 X8.7197 Y17.2888 I-0.0036 J-0.1249
G1 X8.495 Y17.2895
G3 X8.4917 Y17.2894 I-0.0004 J-0.125
G1 X8.2671 Y17.2842
G3 X8.2638 Y17.2841 I0.0029 J-0.125
G1 X8.0394 Y17.273
G3 X8.0361 Y17.2728 I0.0062 J-0.1248
G1 X7.8121 Y17.2558
G3 X7.8088 Y17.2555 I0.0094 J-0.1246
G1 X7.5853 Y17.2326
G3 X7.5821 Y17.2323 I0.0127 J-0.1244
G1 X7.3592 Y17.2036
G3 X7.356 Y17.2031 I0.016 J-0.124
G1 X7.1339 Y17.1686
G3 X7.1307 Y17.1681 I0.0192 J-0.1235
G1 X6.9097 Y17.1278
G3 X6.9065 Y17.1271 I0.0224 J-0.123
G1 X6.6865 Y17.081
G3 X6.6834 Y17.0803 I0.0256 J-0.1223
G1 X6.4647 Y17.0285
G3 X6.4616 Y17.0277 I0.0288 J-0.1216
G1 X6.2444 Y16.9702
G3 X6.2412 Y16.9693 I0.032 J-0.1208
G1 X6.0256 Y16.9061
G3 X6.0225 Y16.9052 I0.0352 J-0.12
G1 X5.8086 Y16.8363
G3 X5.8055 Y16.8353 I0.0383 J-0.119
G1 X5.5934 Y16.7609
G3 X5.5904 Y16.7598 I0.0414 J-0.1179
G1 X5.3804 Y16.6799
G3 X5.3773 Y16.6787 I0.0445 J-0.1168
G1 X5.1695 Y16.5933
G3 X5.1665 Y16.592 I0.0475 J-0.1156
G1 X4.961 Y16.5012
G3 X4.958 Y16.4998 I0.0505 J-0.1143
G1 X4.7549 Y16.4037
G3 X4.752 Y16.4022 I0.0535 J-0.113
G1 X4.5515 Y16.3008
G3 X4.5486 Y16.2993 I0.0564 J-0.1115
G1 X4.3508 Y16.1927
G3 X4.348 Y16.1911 I0.0593 J-0.11
G1 X4.1531 Y16.0793
G3 X4.1502 Y16.0776 I0.0622 J-0.1084
G1 X3.9583 Y15.9608
G3 X3.9555 Y15.959 I0.065 J-0.1068
G1 X3.7668 Y15.8372
G3 X3.764 Y15.8354 I0.0678 J-0.105
G1 X3.5785 Y15.7087
G3 X3.5758 Y15.7068 I0.0705 J-0.1032
G1 X3.3937 Y15.5752
G3 X3.391 Y15.5733 I0.0732 J-0.1013
G1 X3.2124 Y15.437
G3 X3.2098 Y15.435 I0.0758 J-0.0994
G1 X3.0348 Y15.2941
G3 X3.0323 Y15.292 I0.0784 J-0.0974
G1 X2.861 Y15.1466
G3 X2.8585 Y15.1444 I0.0809 J-0.0953
G1 X2.6911 Y14.9946
G3 X2.6887 Y14.9924 I0.0834 J-0.0931
G1 X2.5253 Y14.8382
G3 X2.5229 Y14.8359 I0.0858 J-0.0909
G1 X2.3636 Y14.6775
G3 X2.3613 Y14.6751 I0.0881 J-0.0886
G1 X2.2062 Y14.5126
G3 X2.2039 Y14.5102 I0.0904 J-0.0863
G1 X2.0531 Y14.3437
G3 X2.0509 Y14.3412 I0.0927 J-0.0839
G1 X1.9045 Y14.1708
G3 X1.9024 Y14.1683 I0.0948 J-0.0815
G1 X1.7605 Y13.9941
G3 X1.7585 Y13.9915 I0.0969 J-0.0789
G1 X1.6212 Y13.8136
G3 X1.6192 Y13.811 I0.0989 J-0.0764
G1 X1.4866 Y13.6296
G3 X1.4848 Y13.627 I0.1009 J-0.0738
G1 X1.357 Y13.4422
G3 X1.3551 Y13.4394 I0.1028 J-0.0711
G1 X1.2322 Y13.2513
G3 X1.2305 Y13.2486 I0.1046 J-0.0684
G1 X1.1125 Y13.0573
G3 X1.1108 Y13.0545 I0.1064 J-0.0656
G1 X0.9979 Y12.8603
G3 X0.9963 Y12.8574 I0.1081 J-0.0628
G1 X0.8885 Y12.6603
G3 X0.887 Y12.6574 I0.1097 J-0.06
G1 X0.7844 Y12.4575
G3 X0.783 Y12.4546 I0.1112 J-0.0571
G1 X0.6856 Y12.252
G3 X0.6843 Y12.2491 I0.1127 J-0.0541
G1 X0.5923 Y12.0441
G3 X0.591 Y12.0411 I0.114 J-0.0512
G1 X0.5044 Y11.8337
G3 X0.5032 Y11.8307 I0.1153 J-0.0482
G1 X0.4221 Y11.6212
G3 X0.4209 Y11.6181 I0.1166 J-0.0451
G1 X0.3453 Y11.4065
G3 X0.3442 Y11.4034 I0.1177 J-0.0421
G1 X0.2742 Y11.1899
G3 X0.2732 Y11.1868 I0.1188 J-0.039
G1 X0.2088 Y10.9716
G3 X0.2079 Y10.9684 I0.1197 J-0.0358
G1 X0.1491 Y10.7515
G3 X0.1483 Y10.7484 I0.1206 J-0.0327
G1 X0.0952 Y10.53
G3 X0.0945 Y10.5269 I0.1215 J-0.0295
G1 X0.0471 Y10.3072
G3 X0.0465 Y10.304 I0.1222 J-0.0263
G1 X0.0049 Y10.0832
G3 X0.0043 Y10.08 I0.1228 J-0.0231
G1 X-0.0314 Y9.8582
G3 X-0.0319 Y9.8549 I0.1234 J-0.0199
G1 X-0.0619 Y9.6322
G3 X-0.0623 Y9.629 I0.1239 J-0.0167
G1 X-0.0864 Y9.4056
G3 X-0.0867 Y9.4023 I0.1243 J-0.0134
G1 X-0.105 Y9.1784
G3 X-0.1052 Y9.1751 I0.1246 J-0.0102
G1 X-0.1176 Y8.9508
G3 X-0.1178 Y8.9475 I0.1248 J-0.0069
G1 X-0.1243 Y8.7229
G3 X-0.1244 Y8.7197 I0.1249 J-0.0036
G1 X-0.125 Y8.495
G1 X-0.125 Y8.4946
G3 X-0.125 Y8.4917 I0.125 J0
G1 X-0.1197 Y8.2671
G3 X-0.1196 Y8.2638 I0.125 J0.0029
G1 X-0.1085 Y8.0394
G3 X-0.1083 Y8.0361 I0.1248 J0.0062
G1 X-0.0913 Y7.8121
G3 X-0.091 Y7.8088 I0.1246 J0.0094
G1 X-0.0682 Y7.5853
G3 X-0.0678 Y7.5821 I0.1244 J0.0127
G1 X-0.0391 Y7.3592
G3 X-0.0387 Y7.356 I0.124 J0.016
G1 X-0.0041 Y7.1339
G3 X-0.0036 Y7.1307 I0.1235 J0.0192
G1 X0.0367 Y6.9097
G3 X0.0373 Y6.9065 I0.123 J0.0224
G1 X0.0834 Y6.6865
G3 X0.0841 Y6.6834 I0.1223 J0.0256
G1 X0.136 Y6.4647
G3 X0.1367 Y6.4616 I0.1216 J0.0288
G1 X0.1943 Y6.2444
G3 X0.1952 Y6.2412 I0.1208 J0.032
G1 X0.2583 Y6.0256
G3 X0.2593 Y6.0225 I0.12 J0.0352
G1 X0.3281 Y5.8086
G3 X0.3292 Y5.8055 I0.119 J0.0383
G1 X0.4036 Y5.5934
G3 X0.4047 Y5.5904 I0.1179 J0.0414
G1 X0.4846 Y5.3804
G3 X0.4858 Y5.3773 I0.1168 J0.0445
G1 X0.5712 Y5.1695
G3 X0.5725 Y5.1665 I0.1156 J0.0475
G1 X0.6633 Y4.961
G3 X0.6646 Y4.958 I0.1143 J0.0505
G1 X0.7608 Y4.7549
G3 X0.7622 Y4.752 I0.113 J0.0535
G1 X0.8636 Y4.5515
G3 X0.8652 Y4.5486 I0.1115 J0.0564
G1 X0.9718 Y4.3508
G3 X0.9734 Y4.348 I0.11 J0.0593
G1 X1.0852 Y4.1531
G3 X1.0868 Y4.1502 I0.1084 J0.0622
G1 X1.2037 Y3.9583
G3 X1.2054 Y3.9555 I0.1068 J0.065
G1 X1.3273 Y3.7668
G3 X1.3291 Y3.764 I0.105 J0.0678
G1 X1.4558 Y3.5785
G3 X1.4577 Y3.5758 I0.1032 J0.0705
G1 X1.5892 Y3.3937
G3 X1.5912 Y3.391 I0.1013 J0.0732
G1 X1.7274 Y3.2124
G3 X1.7295 Y3.2098 I0.0994 J0.0758
G1 X1.8704 Y3.0348
G3 X1.8724 Y3.0323 I0.0974 J0.0784
G1 X2.0179 Y2.861
G3 X2.02 Y2.8585 I0.0953 J0.0809
G1 X2.1699 Y2.6911
G3 X2.1721 Y2.6887 I0.0931 J0.0834
G1 X2.3263 Y2.5253
G3 X2.3286 Y2.5229 I0.0909 J0.0858
G1 X2.487 Y2.3636
G3 X2.4893 Y2.3613 I0.0886 J0.0881
G1 X2.6519 Y2.2062
G3 X2.6543 Y2.2039 I0.0863 J0.0904
G1 X2.8208 Y2.0531
G3 X2.8233 Y2.0509 I0.0839 J0.0927
G1 X2.9937 Y1.9045
G3 X2.9962 Y1.9024 I0.0815 J0.0948
G1 X3.1704 Y1.7605
G3 X3.173 Y1.7585 I0.0789 J0.0969
G1 X3.3508 Y1.6212
G3 X3.3534 Y1.6192 I0.0764 J0.0989
G1 X3.5348 Y1.4866
G3 X3.5375 Y1.4848 I0.0738 J0.1009
G1 X3.7223 Y1.357
G3 X3.725 Y1.3551 I0.0711 J0.1028
G1 X3.9131 Y1.2322
G3 X3.9159 Y1.2305 I0.0684 J0.1046
G1 X4.1071 Y1.1125
G3 X4.1099 Y1.1108 I0.0656 J0.1064
G1 X4.3042 Y0.9979
G3 X4.307 Y0.9963 I0.0628 J0.1081
G1 X4.5042 Y0.8885
G3 X4.5071 Y0.887 I0.06 J0.1097
G1 X4.707 Y0.7844
G3 X4.7099 Y0.783 I0.0571 J0.1112
G1 X4.9124 Y0.6856
G3 X4.9154 Y0.6843 I0.0541 J0.1127
G1 X5.1204 Y0.5923
G3 X5.1234 Y0.591 I0.0512 J0.114
G1 X5.3307 Y0.5044
G3 X5.3338 Y0.5032 I0.0482 J0.1153
G1 X5.5433 Y0.4221
G3 X5.5464 Y0.4209 I0.0451 J0.1166
G1 X5.7579 Y0.3453
G3 X5.761 Y0.3442 I0.0421 J0.1177
G1 X5.9745 Y0.2742
G3 X5.9777 Y0.2732 I0.039 J0.1188
G1 X6.1929 Y0.2088
G3 X6.1961 Y0.2079 I0.0358 J0.1197
G1 X6.4129 Y0.1491
G3 X6.4161 Y0.1483 I0.0327 J0.1206
G1 X6.6344 Y0.0952
G3 X6.6376 Y0.0945 I0.0295 J0.1215
G1 X6.8572 Y0.0471
G3 X6.8604 Y0.0465 I0.0263 J0.1222
G1 X7.0813 Y0.0049
G3 X7.0845 Y0.0043 I0.0231 J0.1228
G1 X7.3063 Y-0.0314
G3 X7.3095 Y-0.0319 I0.0199 J0.1234
G1 X7.5322 Y-0.0619
G3 X7.5355 Y-0.0623 I0.0167 J0.1239
G1 X7.7589 Y-0.0864
G3 X7.7621 Y-0.0867 I0.0134 J0.1243
G1 X7.9861 Y-0.105
G3 X7.9893 Y-0.1052 I0.0102 J0.1246
G1 X8.2137 Y-0.1176
G3 X8.2169 Y-0.1178 I0.0069 J0.1248
G1 X8.4415 Y-0.1243
G3 X8.4448 Y-0.1244 I0.0036 J0.1249
G1 X8.6695 Y-0.125
G3 X8.6728 Y-0.125 I0.0004 J0.125
G1 X8.8974 Y-0.1197
G3 X8.9007 Y-0.1196 I-0.0029 J0.125
G1 X9.1251 Y-0.1085
G3 X9.1283 Y-0.1083 I-0.0062 J0.1248
G1 X9.3524 Y-0.0913
G3 X9.3556 Y-0.091 I-0.0094 J0.1246
G1 X9.5792 Y-0.0682
G3 X9.5824 Y-0.0678 I-0.0127 J0.1244
G1 X9.8053 Y-0.0391
G3 X9.8085 Y-0.0387 I-0.016 J0.124
G1 X10.0305 Y-0.0041
G3 X10.0337 Y-0.0036 I-0.0192 J0.1235
G1 X10.2548 Y0.0367
G3 X10.258 Y0.0373 I-0.0224 J0.123
G1 X10.4779 Y0.0834
G3 X10.4811 Y0.0841 I-0.0256 J0.1223
G1 X10.6997 Y0.136
G3 X10.7029 Y0.1367 I-0.0288 J0.1216
G1 X10.9201 Y0.1943
G3 X10.9233 Y0.1952 I-0.032 J0.1208
G1 X11.1389 Y0.2583
G3 X11.142 Y0.2593 I-0.0352 J0.12
G1 X11.3559 Y0.3281
G3 X11.359 Y0.3292 I-0.0383 J0.119
G1 X11.571 Y0.4036
G3 X11.5741 Y0.4047 I-0.0414 J0.1179
G1 X11.7841 Y0.4846
G3 X11.7871 Y0.4858 I-0.0445 J0.1168
G1 X11.995 Y0.5712
G3 X11.998 Y0.5725 I-0.0475 J0.1156
G1 X12.2035 Y0.6633
G3 X12.2065 Y0.6646 I-0.0505 J0.1143
G1 X12.4095 Y0.7608
G3 X12.4125 Y0.7622 I-0.0535 J0.113
G1 X12.613 Y0.8636
G3 X12.6159 Y0.8652 I-0.0564 J0.1115
G1 X12.8136 Y0.9718
G3 X12.8165 Y0.9734 I-0.0593 J0.11
G1 X13.0114 Y1.0852
G3 X13.0142 Y1.0868 I-0.0622 J0.1084
G1 X13.2061 Y1.2037
G3 X13.2089 Y1.2054 I-0.065 J0.1068
G1 X13.3977 Y1.3273
G3 X13.4004 Y1.3291 I-0.0678 J0.105
G1 X13.586 Y1.4558
G3 X13.5886 Y1.4577 I-0.0705 J0.1032
G1 X13.7708 Y1.5892
G3 X13.7734 Y1.5912 I-0.0732 J0.1013
G1 X13.9521 Y1.7274
G3 X13.9547 Y1.7295 I-0.0758 J0.0994
G1 X14.1297 Y1.8704
G3 X14.1322 Y1.8724 I-0.0784 J0.0974
G1 X14.3035 Y2.0179
G3 X14.3059 Y2.02 I-0.0809 J0.0953
G1 X14.4733 Y2.1699
G3 X14.4758 Y2.1721 I-0.0834 J0.0931
G1 X14.6392 Y2.3263
G3 X14.6415 Y2.3286 I-0.0858 J0.0909
G1 X14.8009 Y2.487
G3 X14.8032 Y2.4893 I-0.0881 J0.0886
G1 X14.9583 Y2.6519
G3 X14.9605 Y2.6543 I-0.0904 J0.0863
G1 X15.1113 Y2.8208
G3 X15.1135 Y2.8233 I-0.0927 J0.0839
G1 X15.2599 Y2.9937
G3 X15.262 Y2.9962 I-0.0948 J0.0815
G1 X15.4039 Y3.1704
G3 X15.406 Y3.173 I-0.0969 J0.0789
G1 X15.5433 Y3.3508
G3 X15.5452 Y3.3534 I-0.0989 J0.0764
G1 X15.6778 Y3.5348
G3 X15.6797 Y3.5375 I-0.1009 J0.0738
G1 X15.8075 Y3.7223
G3 X15.8093 Y3.725 I-0.1028 J0.0711
G1 X15.9322 Y3.9131
G3 X15.934 Y3.9159 I-0.1046 J0.0684
G1 X16.052 Y4.1071
G3 X16.0536 Y4.1099 I-0.1064 J0.0656
G1 X16.1665 Y4.3042
G3 X16.1681 Y4.307 I-0.1081 J0.0628
G1 X16.2759 Y4.5042
G3 X16.2775 Y4.5071 I-0.1097 J0.06
G1 X16.38 Y4.707
G3 X16.3815 Y4.7099 I-0.1112 J0.0571
G1 X16.4788 Y4.9124
G3 X16.4802 Y4.9154 I-0.1127 J0.0541
G1 X16.5722 Y5.1204
G3 X16.5735 Y5.1234 I-0.114 J0.0512
G1 X16.6601 Y5.3307
G3 X16.6613 Y5.3338 I-0.1153 J0.0482
G1 X16.7424 Y5.5433
G3 X16.7435 Y5.5464 I-0.1166 J0.0451
G1 X16.8192 Y5.7579
G3 X16.8202 Y5.761 I-0.1177 J0.0421
G1 X16.8903 Y5.9745
G3 X16.8912 Y5.9777 I-0.1188 J0.039
G1 X16.9557 Y6.1929
G3 X16.9566 Y6.1961 I-0.1197 J0.0358
G1 X17.0154 Y6.4129
G3 X17.0162 Y6.4161 I-0.1206 J0.0327
G1 X17.0692 Y6.6344
G3 X17.07 Y6.6376 I-0.1215 J0.0295
G1 X17.1173 Y6.8572
G3 X17.118 Y6.8604 I-0.1222 J0.0263
G1 X17.1596 Y7.0813
G3 X17.1601 Y7.0845 I-0.1228 J0.0231
G1 X17.1959 Y7.3063
G3 X17.1964 Y7.3095 I-0.1234 J0.0199
G1 X17.2264 Y7.5322
G3 X17.2268 Y7.5355 I-0.1239 J0.0167
G1 X17.2509 Y7.7589
G3 X17.2512 Y7.7621 I-0.1243 J0.0134
G1 X17.2695 Y7.9861
G3 X17.2697 Y7.9893 I-0.1246 J0.0102
G1 X17.2821 Y8.2137
G3 X17.2822 Y8.2169 I-0.1248 J0.0069
G1 X17.2888 Y8.4415
G3 X17.2888 Y8.4448 I-0.1249 J0.0036
G1 X17.2895 Y8.6695
G1 X17.2895 Y8.6698
G3 X17.2894 Y8.6728 I-0.125 J0
G1 X17.2842 Y8.8974
G3 X17.2841 Y8.9007 I-0.125 J-0.0029
G1 Z-0.3 F30
G1 X17.273 Y9.1251 F25
G3 X17.2728 Y9.1283 I-0.1248 J-0.0062
G1 X17.2558 Y9.3524
G3 X17.2555 Y9.3556 I-0.1246 J-0.0094
G1 X17.2326 Y9.5792
G3 X17.2323 Y9.5824 I-0.1244 J-0.0127
G1 X17.2036 Y9.8053
G3 X17.2031 Y9.8085 I-0.124 J-0.016
G1 X17.1686 Y10.0305
G3 X17.1681 Y10.0337 I-0.1235 J-0.0192
G1 X17.1278 Y10.2548
G3 X17.1271 Y10.258 I-0.123 J-0.0224
G1 X17.081 Y10.4779
G3 X17.0803 Y10.4811 I-0.1223 J-0.0256
G1 X17.0285 Y10.6997
G3 X17.0277 Y10.7029 I-0.1216 J-0.0288
G1 X16.9702 Y10.9201
G3 X16.9693 Y10.9233 I-0.1208 J-0.032
G1 X16.9061 Y11.1389
G3 X16.9052 Y11.142 I-0.12 J-0.0352
G1 X16.8363 Y11.3559
G3 X16.8353 Y11.359 I-0.119 J-0.0383
G1 X16.7609 Y11.571
G3 X16.7598 Y11.5741 I-0.1179 J-0.0414
G1 X16.6799 Y11.7841
G3 X16.6787 Y11.7871 I-0.1168 J-0.0445
G1 X16.5933 Y11.995
G3 X16.592 Y11.998 I-0.1156 J-0.0475
G1 X16.5012 Y12.2035
G3 X16.4998 Y12.2065 I-0.1143 J-0.0505
G1 X16.4037 Y12.4095
G3 X16.4022 Y12.4125 I-0.113 J-0.0535
G1 X16.3008 Y12.613
G3 X16.2993 Y12.6159 I-0.1115 J-0.0564
G1 X16.1927 Y12.8136
G3 X16.1911 Y12.8165 I-0.11 J-0.0593
G1 X16.0793 Y13.0114
G3 X16.0776 Y13.0142 I-0.1084 J-0.0622
G1 X15.9608 Y13.2061
G3 X15.959 Y13.2089 I-0.1068 J-0.065
G1 X15.8372 Y13.3977
G3 X15.8354 Y13.4004 I-0.105 J-0.0678
G1 X15.7087 Y13.586
G3 X15.7068 Y13.5886 I-0.1032 J-0.0705
G1 X15.5752 Y13.7708
G3 X15.5733 Y13.7734 I-0.1013 J-0.0732
G1 X15.437 Y13.9521
G3 X15.435 Y13.9547 I-0.0994 J-0.0758
G1 X15.2941 Y14.1297
G3 X15.292 Y14.1322 I-0.0974 J-0.0784
G1 X15.1466 Y14.3035
G3 X15.1444 Y14.3059 I-0.0953 J-0.0809
G1 X14.9946 Y14.4733
G3 X14.9924 Y14.4758 I-0.0931 J-0.0834
G1 X14.8382 Y14.6392
G3 X14.8359 Y14.6415 I-0.0909 J-0.0858
G1 X14.6775 Y14.8009
G3 X14.6751 Y14.8032 I-0.0886 J-0.0881
G1 X14.5126 Y14.9583
G3 X14.5102 Y14.9605 I-0.0863 J-0.0904
G1 X14.3437 Y15.1113
G3 X14.3412 Y15.1135 I-0.0839 J-0.0927
G1 X14.1708 Y15.2599
G3 X14.1683 Y15.262 I-0.0815 J-0.0948
G1 X13.9941 Y15.4039
G3 X13.9915 Y15.406 I-0.0789 J-0.0969
G1 X13.8136 Y15.5433
G3 X13.811 Y15.5452 I-0.0764 J-0.0989
G1 X13.6296 Y15.6778
G3 X13.627 Y15.6797 I-0.0738 J-0.1009
G1 X13.4422 Y15.8075
G3 X13.4394 Y15.8093 I-0.0711 J-0.1028
G1 X13.2513 Y15.9322
G3 X13.2486 Y15.934 I-0.0684 J-0.1046
G1 X13.0573 Y16.052
G3 X13.0545 Y16.0536 I-0.0656 J-0.1064
G1 X12.8603 Y16.1665
G3 X12.8574 Y16.1681 I-0.0628 J-0.1081
G1 X12.6603 Y16.2759
G3 X12.6574 Y16.2775 I-0.06 J-0.1097
G1 X12.4575 Y16.38
G3 X12.4546 Y16.3815 I-0.0571 J-0.1112
G1 X12.252 Y16.4788
G3 X12.2491 Y16.4802 I-0.0541 J-0.1127
G1 X12.0441 Y16.5722
G3 X12.0411 Y16.5735 I-0.0512 J-0.114
G1 X11.8337 Y16.6601
G3 X11.8307 Y16.6613 I-0.0482 J-0.1153
G1 X11.6212 Y16.7424
G3 X11.6181 Y16.7435 I-0.0451 J-0.1166
G1 X11.4065 Y16.8192
G3 X11.4034 Y16.8202 I-0.0421 J-0.1177
G1 X11.1899 Y16.8903
G3 X11.1868 Y16.8912 I-0.039 J-0.1188
G1 X10.9716 Y16.9557
G3 X10.9684 Y16.9566 I-0.0358 J-0.1197
G1 X10.7515 Y17.0154
G3 X10.7484 Y17.0162 I-0.0327 J-0.1206
G1 X10.53 Y17.0692
G3 X10.5269 Y17.07 I-0.0295 J-0.1215
G1 X10.3072 Y17.1173
G3 X10.304 Y17.118 I-0.0263 J-0.1222
G1 X10.0832 Y17.1596
G3 X10.08 Y17.1601 I-0.0231 J-0.1228
G1 X9.8582 Y17.1959
G3 X9.8549 Y17.1964 I-0.0199 J-0.1234
G1 X9.6322 Y17.2264
G3 X9.629 Y17.2268 I-0.0167 J-0.1239
G1 X9.4056 Y17.2509
G3 X9.4023 Y17.2512 I-0.0134 J-0.1243
G1 X9.1784 Y17.2695
G3 X9.1751 Y17.2697 I-0.0102 J-0.1246
G1 X8.9508 Y17.2821
G3 X8.9475 Y17.2822 I-0.0069 J-0.1248
G1 X8.7229 Y17.2888
G3 X8.7197 Y17.2888 I-0.0036 J-0.1249
G1 X8.495 Y17.2895
G3 X8.4917 Y17.2894 I-0.0004 J-0.125
G1 X8.2671 Y17.2842
G3 X8.2638 Y17.2841 I0.0029 J-0.125
G1 X8.0394 Y17.273
G3 X8.0361 Y17.2728 I0.0062 J-0.1248
G1 X7.8121 Y17.2558
G3 X7.8088 Y17.2555 I0.0094 J-0.1246
G1 X7.5853 Y17.2326
G3 X7.5821 Y17.2323 I0.0127 J-0.1244
G1 X7.3592 Y17.2036
G3 X7.356 Y17.2031 I0.016 J-0.124
G1 X7.1339 Y17.1686
G3 X7.1307 Y17.1681 I0.0192 J-0.1235
G1 X6.9097 Y17.1278
G3 X6.9065 Y17.1271 I0.0224 J-0.123
G1 X6.6865 Y17.081
G3 X6.6834 Y17.0803 I0.0256 J-0.1223
G1 X6.4647 Y17.0285
G3 X6.4616 Y17.0277 I0.0288 J-0.1216
G1 X6.2444 Y16.9702
G3 X6.2412 Y16.9693 I0.032 J-0.1208
G1 X6.0256 Y16.9061
G3 X6.0225 Y16.9052 I0.0352 J-0.12
G1 X5.8086 Y16.8363
G3 X5.8055 Y16.8353 I0.0383 J-0.119
G1 X5.5934 Y16.7609
G3 X5.5904 Y16.7598 I0.0414 J-0.1179
G1 X5.3804 Y16.6799
G3 X5.3773 Y16.6787 I0.0445 J-0.1168
G1 X5.1695 Y16.5933
G3 X5.1665 Y16.592 I0.0475 J-0.1156
G1 X4.961 Y16.5012
G3 X4.958 Y16.4998 I0.0505 J-0.1143
G1 X4.7549 Y16.4037
G3 X4.752 Y16.4022 I0.0535 J-0.113
G1 X4.5515 Y16.3008
G3 X4.5486 Y16.2993 I0.0564 J-0.1115
G1 X4.3508 Y16.1927
G3 X4.348 Y16.1911 I0.0593 J-0.11
G1 X4.1531 Y16.0793
G3 X4.1502 Y16.0776 I0.0622 J-0.1084
G1 X3.9583 Y15.9608
G3 X3.9555 Y15.959 I0.065 J-0.1068
G1 X3.7668 Y15.8372
G3 X3.764 Y15.8354 I0.0678 J-0.105
G1 X3.5785 Y15.7087
G3 X3.5758 Y15.7068 I0.0705 J-0.1032
G1 X3.3937 Y15.5752
G3 X3.391 Y15.5733 I0.0732 J-0.1013
G1 X3.2124 Y15.437
G3 X3.2098 Y15.435 I0.0758 J-0.0994
G1 X3.0348 Y15.2941
G3 X3.0323 Y15.292 I0.0784 J-0.0974
G1 X2.861 Y15.1466
G3 X2.8585 Y15.1444 I0.0809 J-0.0953
G1 X2.6911 Y14.9946
G3 X2.6887 Y14.9924 I0.0834 J-0.0931
G1 X2.5253 Y14.8382
G3 X2.5229 Y14.8359 I0.0858 J-0.0909
G1 X2.3636 Y14.6775
G3 X2.3613 Y14.6751 I0.0881 J-0.0886
G1 X2.2062 Y14.5126
G3 X2.2039 Y14.5102 I0.0904 J-0.0863
G1 X2.0531 Y14.3437
G3 X2.0509 Y14.3412 I0.0927 J-0.0839
G1 X1.9045 Y14.1708
G3 X1.9024 Y14.1683 I0.0948 J-0.0815
G1 X1.7605 Y13.9941
G3 X1.7585 Y13.9915 I0.0969 J-0.0789
G1 X1.6212 Y13.8136
G3 X1.6192 Y13.811 I0.0989 J-0.0764
G1 X1.4866 Y13.6296
G3 X1.4848 Y13.627 I0.1009 J-0.0738
G1 X1.357 Y13.4422
G3 X1.3551 Y13.4394 I0.1028 J-0.0711
G1 X1.2322 Y13.2513
G3 X1.2305 Y13.2486 I0.1046 J-0.0684
G1 X1.1125 Y13.0573
G3 X1.1108 Y13.0545 I0.1064 J-0.0656
G1 X0.9979 Y12.8603
G3 X0.9963 Y12.8574 I0.1081 J-0.0628
G1 X0.8885 Y12.6603
G3 X0.887 Y12.6574 I0.1097 J-0.06
G1 X0.7844 Y12.4575
G3 X0.783 Y12.4546 I0.1112 J-0.0571
G1 X0.6856 Y12.252
G3 X0.6843 Y12.2491 I0.1127 J-0.0541
G1 X0.5923 Y12.0441
G3 X0.591 Y12.0411 I0.114 J-0.0512
G1 X0.5044 Y11.8337
G3 X0.5032 Y11.8307 I0.1153 J-0.0482
G1 X0.4221 Y11.6212
G3 X0.4209 Y11.6181 I0.1166 J-0.0451
G1 X0.3453 Y11.4065
G3 X0.3442 Y11.4034 I0.1177 J-0.0421
G1 X0.2742 Y11.1899
G3 X0.2732 Y11.1868 I0.1188 J-0.039
G1 X0.2088 Y10.9716
G3 X0.2079 Y10.9684 I0.1197 J-0.0358
G1 X0.1491 Y10.7515
G3 X0.1483 Y10.7484 I0.1206 J-0.0327
G1 X0.0952 Y10.53
G3 X0.0945 Y10.5269 I0.1215 J-0.0295
G1 X0.0471 Y10.3072
G3 X0.0465 Y10.304 I0.1222 J-0.0263
G1 X0.0049 Y10.0832
G3 X0.0043 Y10.08 I0.1228 J-0.0231
G1 X-0.0314 Y9.8582
G3 X-0.0319 Y9.8549 I0.1234 J-0.0199
G1 X-0.0619 Y9.6322
G3 X-0.0623 Y9.629 I0.1239 J-0.0167
G1 X-0.0864 Y9.4056
G3 X-0.0867 Y9.4023 I0.1243 J-0.0134
G1 X-0.105 Y9.1784
G3 X-0.1052 Y9.1751 I0.1246 J-0.0102
G1 X-0.1176 Y8.9508
G3 X-0.1178 Y8.9475 I0.1248 J-0.0069
G1 X-0.1243 Y8.7229
G3 X-0.1244 Y8.7197 I0.1249 J-0.0036
G1 X-0.125 Y8.495
G1 X-0.125 Y8.4946
G3 X-0.125 Y8.4917 I0.125 J0
G1 X-0.1197 Y8.2671
G3 X-0.1196 Y8.2638 I0.125 J0.0029
G1 X-0.1085 Y8.0394
G3 X-0.1083 Y8.0361 I0.1248 J0.0062
G1 X-0.0913 Y7.8121
G3 X-0.091 Y7.8088 I0.1246 J0.0094
G1 X-0.0682 Y7.5853
G3 X-0.0678 Y7.5821 I0.1244 J0.0127
G1 X-0.0391 Y7.3592
G3 X-0.0387 Y7.356 I0.124 J0.016
G1 X-0.0041 Y7.1339
G3 X-0.0036 Y7.1307 I0.1235 J0.0192
G1 X0.0367 Y6.9097
G3 X0.0373 Y6.9065 I0.123 J0.0224
G1 X0.0834 Y6.6865
G3 X0.0841 Y6.6834 I0.1223 J0.0256
G1 X0.136 Y6.4647
G3 X0.1367 Y6.4616 I0.1216 J0.0288
G1 X0.1943 Y6.2444
G3 X0.1952 Y6.2412 I0.1208 J0.032
G1 X0.2583 Y6.0256
G3 X0.2593 Y6.0225 I0.12 J0.0352
G1 X0.3281 Y5.8086
G3 X0.3292 Y5.8055 I0.119 J0.0383
G1 X0.4036 Y5.5934
G3 X0.4047 Y5.5904 I0.1179 J0.0414
G1 X0.4846 Y5.3804
G3 X0.4858 Y5.3773 I0.1168 J0.0445
G1 X0.5712 Y5.1695
G3 X0.5725 Y5.1665 I0.1156 J0.0475
G1 X0.6633 Y4.961
G3 X0.6646 Y4.958 I0.1143 J0.0505
G1 X0.7608 Y4.7549
G3 X0.7622 Y4.752 I0.113 J0.0535
G1 X0.8636 Y4.5515
G3 X0.8652 Y4.5486 I0.1115 J0.0564
G1 X0.9718 Y4.3508
G3 X0.9734 Y4.348 I0.11 J0.0593
G1 X1.0852 Y4.1531
G3 X1.0868 Y4.1502 I0.1084 J0.0622
G1 X1.2037 Y3.9583
G3 X1.2054 Y3.9555 I0.1068 J0.065
G1 X1.3273 Y3.7668
G3 X1.3291 Y3.764 I0.105 J0.0678
G1 X1.4558 Y3.5785
G3 X1.4577 Y3.5758 I0.1032 J0.0705
G1 X1.5892 Y3.3937
G3 X1.5912 Y3.391 I0.1013 J0.0732
G1 X1.7274 Y3.2124
G3 X1.7295 Y3.2098 I0.0994 J0.0758
G1 X1.8704 Y3.0348
G3 X1.8724 Y3.0323 I0.0974 J0.0784
G1 X2.0179 Y2.861
G3 X2.02 Y2.8585 I0.0953 J0.0809
G1 X2.1699 Y2.6911
G3 X2.1721 Y2.6887 I0.0931 J0.0834
G1 X2.3263 Y2.5253
G3 X2.3286 Y2.5229 I0.0909 J0.0858
G1 X2.487 Y2.3636
G3 X2.4893 Y2.3613 I0.0886 J0.0881
G1 X2.6519 Y2.2062
G3 X2.6543 Y2.2039 I0.0863 J0.0904
G1 X2.8208 Y2.0531
G3 X2.8233 Y2.0509 I0.0839 J0.0927
G1 X2.9937 Y1.9045
G3 X2.9962 Y1.9024 I0.0815 J0.0948
G1 X3.1704 Y1.7605
G3 X3.173 Y1.7585 I0.0789 J0.0969
G1 X3.3508 Y1.6212
G3 X3.3534 Y1.6192 I0.0764 J0.0989
G1 X3.5348 Y1.4866
G3 X3.5375 Y1.4848 I0.0738 J0.1009
G1 X3.7223 Y1.357
G3 X3.725 Y1.3551 I0.0711 J0.1028
G1 X3.9131 Y1.2322
G3 X3.9159 Y1.2305 I0.0684 J0.1046
G1 X4.1071 Y1.1125
G3 X4.1099 Y1.1108 I0.0656 J0.1064
G1 X4.3042 Y0.9979
G3 X4.307 Y0.9963 I0.0628 J0.1081
G1 X4.5042 Y0.8885
G3 X4.5071 Y0.887 I0.06 J0.1097
G1 X4.707 Y0.7844
G3 X4.7099 Y0.783 I0.0571 J0.1112
G1 X4.9124 Y0.6856
G3 X4.9154 Y0.6843 I0.0541 J0.1127
G1 X5.1204 Y0.5923
G3 X5.1234 Y0.591 I0.0512 J0.114
G1 X5.3307 Y0.5044
G3 X5.3338 Y0.5032 I0.0482 J0.1153
G1 X5.5433 Y0.4221
G3 X5.5464 Y0.4209 I0.0451 J0.1166
G1 X5.7579 Y0.3453
G3 X5.761 Y0.3442 I0.0421 J0.1177
G1 X5.9745 Y0.2742
G3 X5.9777 Y0.2732 I0.039 J0.1188
G1 X6.1929 Y0.2088
G3 X6.1961 Y0.2079 I0.0358 J0.1197
G1 X6.4129 Y0.1491
G3 X6.4161 Y0.1483 I0.0327 J0.1206
G1 X6.6344 Y0.0952
G3 X6.6376 Y0.0945 I0.0295 J0.1215
G1 X6.8572 Y0.0471
G3 X6.8604 Y0.0465 I0.0263 J0.1222
G1 X7.0813 Y0.0049
G3 X7.0845 Y0.0043 I0.0231 J0.1228
G1 X7.3063 Y-0.0314
G3 X7.3095 Y-0.0319 I0.0199 J0.1234
G1 X7.5322 Y-0.0619
G3 X7.5355 Y-0.0623 I0.0167 J0.1239
G1 X7.7589 Y-0.0864
G3 X7.7621 Y-0.0867 I0.0134 J0.1243
G1 X7.9861 Y-0.105
G3 X7.9893 Y-0.1052 I0.0102 J0.1246
G1 X8.2137 Y-0.1176
G3 X8.2169 Y-0.1178 I0.0069 J0.1248
G1 X8.4415 Y-0.1243
G3 X8.4448 Y-0.1244 I0.0036 J0.1249
G1 X8.6695 Y-0.125
G3 X8.6728 Y-0.125 I0.0004 J0.125
G1 X8.8974 Y-0.1197
G3 X8.9007 Y-0.1196 I-0.0029 J0.125
G1 X9.1251 Y-0.1085
G3 X9.1283 Y-0.1083 I-0.0062 J0.1248
G1 X9.3524 Y-0.0913
G3 X9.3556 Y-0.091 I-0.0094 J0.1246
G1 X9.5792 Y-0.0682
G3 X9.5824 Y-0.0678 I-0.0127 J0.1244
G1 X9.8053 Y-0.0391
G3 X9.8085 Y-0.0387 I-0.016 J0.124
G1 X10.0305 Y-0.0041
G3 X10.0337 Y-0.0036 I-0.0192 J0.1235
G1 X10.2548 Y0.0367
G3 X10.258 Y0.0373 I-0.0224 J0.123
G1 X10.4779 Y0.0834
G3 X10.4811 Y0.0841 I-0.0256 J0.1223
G1 X10.6997 Y0.136
G3 X10.7029 Y0.1367 I-0.0288 J0.1216
G1 X10.9201 Y0.1943
G3 X10.9233 Y0.1952 I-0.032 J0.1208
G1 X11.1389 Y0.2583
G3 X11.142 Y0.2593 I-0.0352 J0.12
G1 X11.3559 Y0.3281
G3 X11.359 Y0.3292 I-0.0383 J0.119
G1 X11.571 Y0.4036
G3 X11.5741 Y0.4047 I-0.0414 J0.1179
G1 X11.7841 Y0.4846
G3 X11.7871 Y0.4858 I-0.0445 J0.1168
G1 X11.995 Y0.5712
G3 X11.998 Y0.5725 I-0.0475 J0.1156
G1 X12.2035 Y0.6633
G3 X12.2065 Y0.6646 I-0.0505 J0.1143
G1 X12.4095 Y0.7608
G3 X12.4125 Y0.7622 I-0.0535 J0.113
G1 X12.613 Y0.8636
G3 X12.6159 Y0.8652 I-0.0564 J0.1115
G1 X12.8136 Y0.9718
G3 X12.8165 Y0.9734 I-0.0593 J0.11
G1 X13.0114 Y1.0852
G3 X13.0142 Y1.0868 I-0.0622 J0.1084
G1 X13.2061 Y1.2037
G3 X13.2089 Y1.2054 I-0.065 J0.1068
G1 X13.3977 Y1.3273
G3 X13.4004 Y1.3291 I-0.0678 J0.105
G1 X13.586 Y1.4558
G3 X13.5886 Y1.4577 I-0.0705 J0.1032
G1 X13.7708 Y1.5892
G3 X13.7734 Y1.5912 I-0.0732 J0.1013
G1 X13.9521 Y1.7274
G3 X13.9547 Y1.7295 I-0.0758 J0.0994
G1 X14.1297 Y1.8704
G3 X14.1322 Y1.8724 I-0.0784 J0.0974
G1 X14.3035 Y2.0179
G3 X14.3059 Y2.02 I-0.0809 J0.0953
G1 X14.4733 Y2.1699
G3 X14.4758 Y2.1721 I-0.0834 J0.0931
G1 X14.6392 Y2.3263
G3 X14.6415 Y2.3286 I-0.0858 J0.0909
G1 X14.8009 Y2.487
G3 X14.8032 Y2.4893 I-0.0881 J0.0886
G1 X14.9583 Y2.6519
G3 X14.9605 Y2.6543 I-0.0904 J0.0863
G1 X15.1113 Y2.8208
G3 X15.1135 Y2.8233 I-0.0927 J0.0839
G1 X15.2599 Y2.9937
G3 X15.262 Y2.9962 I-0.0948 J0.0815
G1 X15.4039 Y3.1704
G3 X15.406 Y3.173 I-0.0969 J0.0789
G1 X15.5433 Y3.3508
G3 X15.5452 Y3.3534 I-0.0989 J0.0764
G1 X15.6778 Y3.5348
G3 X15.6797 Y3.5375 I-0.1009 J0.0738
G1 X15.8075 Y3.7223
G3 X15.8093 Y3.725 I-0.1028 J0.0711
G1 X15.9322 Y3.9131
G3 X15.934 Y3.9159 I-0.1046 J0.0684
G1 X16.052 Y4.1071
G3 X16.0536 Y4.1099 I-0.1064 J0.0656
G1 X16.1665 Y4.3042
G3 X16.1681 Y4.307 I-0.1081 J0.0628
G1 X16.2759 Y4.5042
G3 X16.2775 Y4.5071 I-0.1097 J0.06
G1 X16.38 Y4.707
G3 X16.3815 Y4.7099 I-0.1112 J0.0571
G1 X16.4788 Y4.9124
G3 X16.4802 Y4.9154 I-0.1127 J0.0541
G1 X16.5722 Y5.1204
G3 X16.5735 Y5.1234 I-0.114 J0.0512
G1 X16.6601 Y5.3307
G3 X16.6613 Y5.3338 I-0.1153 J0.0482
G1 X16.7424 Y5.5433
G3 X16.7435 Y5.5464 I-0.1166 J0.0451
G1 X16.8192 Y5.7579
G3 X16.8202 Y5.761 I-0.1177 J0.0421
G1 X16.8903 Y5.9745
G3 X16.8912 Y5.9777 I-0.1188 J0.039
G1 X16.9557 Y6.1929
G3 X16.9566 Y6.1961 I-0.1197 J0.0358
G1 X17.0154 Y6.4129
G3 X17.0162 Y6.4161 I-0.1206 J0.0327
G1 X17.0692 Y6.6344
G3 X17.07 Y6.6376 I-0.1215 J0.0295
G1 X17.1173 Y6.8572
G3 X17.118 Y6.8604 I-0.1222 J0.0263
G1 X17.1596 Y7.0813
G3 X17.1601 Y7.0845 I-0.1228 J0.0231
G1 X17.1959 Y7.3063
G3 X17.1964 Y7.3095 I-0.1234 J0.0199
G1 X17.2264 Y7.5322
G3 X17.2268 Y7.5355 I-0.1239 J0.0167
G1 X17.2509 Y7.7589
G3 X17.2512 Y7.7621 I-0.1243 J0.0134
G1 X17.2695 Y7.9861
G3 X17.2697 Y7.9893 I-0.1246 J0.0102
G1 X17.2821 Y8.2137
G3 X17.2822 Y8.2169 I-0.1248 J0.0069
G1 X17.2888 Y8.4415
G3 X17.2888 Y8.4448 I-0.1249 J0.0036
G1 X17.2895 Y8.6695
G1 X17.2895 Y8.6698
G3 X17.2894 Y8.6728 I-0.125 J0
G1 X17.2842 Y8.8974
G3 X17.2841 Y8.9007 I-0.125 J-0.0029
G1 Z-0.45 F30
G1 X17.273 Y9.1251 F25
G3 X17.2728 Y9.1283 I-0.1248 J-0.0062
G1 X17.2558 Y9.3524
G3 X17.2555 Y9.3556 I-0.1246 J-0.0094
G1 X17.2326 Y9.5792
G3 X17.2323 Y9.5824 I-0.1244 J-0.0127
G1 X17.2036 Y9.8053
G3 X17.2031 Y9.8085 I-0.124 J-0.016
G1 X17.1686 Y10.0305
G3 X17.1681 Y10.0337 I-0.1235 J-0.0192
G1 X17.1278 Y10.2548
G3 X17.1271 Y10.258 I-0.123 J-0.0224
G1 X17.081 Y10.4779
G3 X17.0803 Y10.4811 I-0.1223 J-0.0256
G1 X17.0285 Y10.6997
G3 X17.0277 Y10.7029 I-0.1216 J-0.0288
G1 X16.9702 Y10.9201
G3 X16.9693 Y10.9233 I-0.1208 J-0.032
G1 X16.9061 Y11.1389
G3 X16.9052 Y11.142 I-0.12 J-0.0352
G1 X16.8363 Y11.3559
G3 X16.8353 Y11.359 I-0.119 J-0.0383
G1 X16.7609 Y11.571
G3 X16.7598 Y11.5741 I-0.1179 J-0.0414
G1 X16.6799 Y11.7841
G3 X16.6787 Y11.7871 I-0.1168 J-0.0445
G1 X16.5933 Y11.995
G3 X16.592 Y11.998 I-0.1156 J-0.0475
G1 X16.5012 Y12.2035
G3 X16.4998 Y12.2065 I-0.1143 J-0.0505
G1 X16.4037 Y12.4095
G3 X16.4022 Y12.4125 I-0.113 J-0.0535
G1 X16.3008 Y12.613
G3 X16.2993 Y12.6159 I-0.1115 J-0.0564
G1 X16.1927 Y12.8136
G3 X16.1911 Y12.8165 I-0.11 J-0.0593
G1 X16.0793 Y13.0114
G3 X16.0776 Y13.0142 I-0.1084 J-0.0622
G1 X15.9608 Y13.2061
G3 X15.959 Y13.2089 I-0.1068 J-0.065
G1 X15.8372 Y13.3977
G3 X15.8354 Y13.4004 I-0.105 J-0.0678
G1 X15.7087 Y13.586
G3 X15.7068 Y13.5886 I-0.1032 J-0.0705
G1 X15.5752 Y13.7708
G3 X15.5733 Y13.7734 I-0.1013 J-0.0732
G1 X15.437 Y13.9521
G3 X15.435 Y13.9547 I-0.0994 J-0.0758
G1 X15.2941 Y14.1297
G3 X15.292 Y14.1322 I-0.0974 J-0.0784
G1 X15.1466 Y14.3035
G3 X15.1444 Y14.3059 I-0.0953 J-0.0809
G1 X14.9946 Y14.4733
G3 X14.9924 Y14.4758 I-0.0931 J-0.0834
G1 X14.8382 Y14.6392
G3 X14.8359 Y14.6415 I-0.0909 J-0.0858
G1 X14.6775 Y14.8009
G3 X14.6751 Y14.8032 I-0.0886 J-0.0881
G1 X14.5126 Y14.9583
G3 X14.5102 Y14.9605 I-0.0863 J-0.0904
G1 X14.3437 Y15.1113
G3 X14.3412 Y15.1135 I-0.0839 J-0.0927
G1 X14.1708 Y15.2599
G3 X14.1683 Y15.262 I-0.0815 J-0.0948
G1 X13.9941 Y15.4039
G3 X13.9915 Y15.406 I-0.0789 J-0.0969
G1 X13.8136 Y15.5433
G3 X13.811 Y15.5452 I-0.0764 J-0.0989
G1 X13.6296 Y15.6778
G3 X13.627 Y15.6797 I-0.0738 J-0.1009
G1 X13.4422 Y15.8075
G3 X13.4394 Y15.8093 I-0.0711 J-0.1028
G1 X13.2513 Y15.9322
G3 X13.2486 Y15.934 I-0.0684 J-0.1046
G1 X13.0573 Y16.052
G3 X13.0545 Y16.0536 I-0.0656 J-0.1064
G1 X12.8603 Y16.1665
G3 X12.8574 Y16.1681 I-0.0628 J-0.1081
G1 X12.6603 Y16.2759
G3 X12.6574 Y16.2775 I-0.06 J-0.1097
G1 X12.4575 Y16.38
G3 X12.4546 Y16.3815 I-0.0571 J-0.1112
G1 X12.252 Y16.4788
G3 X12.2491 Y16.4802 I-0.0541 J-0.1127
G1 X12.0441 Y16.5722
G3 X12.0411 Y16.5735 I-0.0512 J-0.114
G1 X11.8337 Y16.6601
G3 X11.8307 Y16.6613 I-0.0482 J-0.1153
G1 X11.6212 Y16.7424
G3 X11.6181 Y16.7435 I-0.0451 J-0.1166
G1 X11.4065 Y16.8192
G3 X11.4034 Y16.8202 I-0.0421 J-0.1177
G1 X11.1899 Y16.8903
G3 X11.1868 Y16.8912 I-0.039 J-0.1188
G1 X10.9716 Y16.9557
G3 X10.9684 Y16.9566 I-0.0358 J-0.1197
G1 X10.7515 Y17.0154
G3 X10.7484 Y17.0162 I-0.0327 J-0.1206
G1 X10.53 Y17.0692
G3 X10.5269 Y17.07 I-0.0295 J-0.1215
G1 X10.3072 Y17.1173
G3 X10.304 Y17.118 I-0.0263 J-0.1222
G1 X10.0832 Y17.1596
G3 X10.08 Y17.1601 I-0.0231 J-0.1228
G1 X9.8582 Y17.1959
G3 X9.8549 Y17.1964 I-0.0199 J-0.1234
G1 X9.6322 Y17.2264
G3 X9.629 Y17.2268 I-0.0167 J-0.1239
G1 X9.4056 Y17.2509
G3 X9.4023 Y17.2512 I-0.0134 J-0.1243
G1 X9.1784 Y17.2695
G3 X9.1751 Y17.2697 I-0.0102 J-0.1246
G1 X8.9508 Y17.2821
G3 X8.9475 Y17.2822 I-0.0069 J-0.1248
G1 X8.7229 Y17.2888
G3 X8.7197 Y17.2888 I-0.0036 J-0.1249
G1 X8.495 Y17.2895
G3 X8.4917 Y17.2894 I-0.0004 J-0.125
G1 X8.2671 Y17.2842
G3 X8.2638 Y17.2841 I0.0029 J-0.125
G1 X8.0394 Y17.273
G3 X8.0361 Y17.2728 I0.0062 J-0.1248
G1 X7.8121 Y17.2558
G3 X7.8088 Y17.2555 I0.0094 J-0.1246
G1 X7.5853 Y17.2326
G3 X7.5821 Y17.2323 I0.0127 J-0.1244
G1 X7.3592 Y17.2036
G3 X7.356 Y17.2031 I0.016 J-0.124
G1 X7.1339 Y17.1686
G3 X7.1307 Y17.1681 I0.0192 J-0.1235
G1 X6.9097 Y17.1278
G3 X6.9065 Y17.1271 I0.0224 J-0.123
G1 X6.6865 Y17.081
G3 X6.6834 Y17.0803 I0.0256 J-0.1223
G1 X6.4647 Y17.0285
G3 X6.4616 Y17.0277 I0.0288 J-0.1216
G1 X6.2444 Y16.9702
G3 X6.2412 Y16.9693 I0.032 J-0.1208
G1 X6.0256 Y16.9061
G3 X6.0225 Y16.9052 I0.0352 J-0.12
G1 X5.8086 Y16.8363
G3 X5.8055 Y16.8353 I0.0383 J-0.119
G1 X5.5934 Y16.7609
G3 X5.5904 Y16.7598 I0.0414 J-0.1179
G1 X5.3804 Y16.6799
G3 X5.3773 Y16.6787 I0.0445 J-0.1168
G1 X5.1695 Y16.5933
G3 X5.1665 Y16.592 I0.0475 J-0.1156
G1 X4.961 Y16.5012
G3 X4.958 Y16.4998 I0.0505 J-0.1143
G1 X4.7549 Y16.4037
G3 X4.752 Y16.4022 I0.0535 J-0.113
G1 X4.5515 Y16.3008
G3 X4.5486 Y16.2993 I0.0564 J-0.1115
G1 X4.3508 Y16.1927
G3 X4.348 Y16.1911 I0.0593 J-0.11
G1 X4.1531 Y16.0793
G3 X4.1502 Y16.0776 I0.0622 J-0.1084
G1 X3.9583 Y15.9608
G3 X3.9555 Y15.959 I0.065 J-0.1068
G1 X3.7668 Y15.8372
G3 X3.764 Y15.8354 I0.0678 J-0.105
G1 X3.5785 Y15.7087
G3 X3.5758 Y15.7068 I0.0705 J-0.1032
G1 X3.3937 Y15.5752
G3 X3.391 Y15.5733 I0.0732 J-0.1013
G1 X3.2124 Y15.437
G3 X3.2098 Y15.435 I0.0758 J-0.0994
G1 X3.0348 Y15.2941
G3 X3.0323 Y15.292 I0.0784 J-0.0974
G1 X2.861 Y15.1466
G3 X2.8585 Y15.1444 I0.0809 J-0.0953
G1 X2.6911 Y14.9946
G3 X2.6887 Y14.9924 I0.0834 J-0.0931
G1 X2.5253 Y14.8382
G3 X2.5229 Y14.8359 I0.0858 J-0.0909
G1 X2.3636 Y14.6775
G3 X2.3613 Y14.6751 I0.0881 J-0.0886
G1 X2.2062 Y14.5126
G3 X2.2039 Y14.5102 I0.0904 J-0.0863
G1 X2.0531 Y14.3437
G3 X2.0509 Y14.3412 I0.0927 J-0.0839
G1 X1.9045 Y14.1708
G3 X1.9024 Y14.1683 I0.0948 J-0.0815
G1 X1.7605 Y13.9941
G3 X1.7585 Y13.9915 I0.0969 J-0.0789
G1 X1.6212 Y13.8136
G3 X1.6192 Y13.811 I0.0989 J-0.0764
G1 X1.4866 Y13.6296
G3 X1.4848 Y13.627 I0.1009 J-0.0738
G1 X1.357 Y13.4422
G3 X1.3551 Y13.4394 I0.1028 J-0.0711
G1 X1.2322 Y13.2513
G3 X1.2305 Y13.2486 I0.1046 J-0.0684
G1 X1.1125 Y13.0573
G3 X1.1108 Y13.0545 I0.1064 J-0.0656
G1 X0.9979 Y12.8603
G3 X0.9963 Y12.8574 I0.1081 J-0.0628
G1 X0.8885 Y12.6603
G3 X0.887 Y12.6574 I0.1097 J-0.06
G1 X0.7844 Y12.4575
G3 X0.783 Y12.4546 I0.1112 J-0.0571
G1 X0.6856 Y12.252
G3 X0.6843 Y12.2491 I0.1127 J-0.0541
G1 X0.5923 Y12.0441
G3 X0.591 Y12.0411 I0.114 J-0.0512
G1 X0.5044 Y11.8337
G3 X0.5032 Y11.8307 I0.1153 J-0.0482
G1 X0.4221 Y11.6212
G3 X0.4209 Y11.6181 I0.1166 J-0.0451
G1 X0.3453 Y11.4065
G3 X0.3442 Y11.4034 I0.1177 J-0.0421
G1 X0.2742 Y11.1899
G3 X0.2732 Y11.1868 I0.1188 J-0.039
G1 X0.2088 Y10.9716
G3 X0.2079 Y10.9684 I0.1197 J-0.0358
G1 X0.1491 Y10.7515
G3 X0.1483 Y10.7484 I0.1206 J-0.0327
G1 X0.0952 Y10.53
G3 X0.0945 Y10.5269 I0.1215 J-0.0295
G1 X0.0471 Y10.3072
G3 X0.0465 Y10.304 I0.1222 J-0.0263
G1 X0.0049 Y10.0832
G3 X0.0043 Y10.08 I0.1228 J-0.0231
G1 X-0.0314 Y9.8582
G3 X-0.0319 Y9.8549 I0.1234 J-0.0199
G1 X-0.0619 Y9.6322
G3 X-0.0623 Y9.629 I0.1239 J-0.0167
G1 X-0.0864 Y9.4056
G3 X-0.0867 Y9.4023 I0.1243 J-0.0134
G1 X-0.105 Y9.1784
G3 X-0.1052 Y9.1751 I0.1246 J-0.0102
G1 X-0.1176 Y8.9508
G3 X-0.1178 Y8.9475 I0.1248 J-0.0069
G1 X-0.1243 Y8.7229
G3 X-0.1244 Y8.7197 I0.1249 J-0.0036
G1 X-0.125 Y8.495
G1 X-0.125 Y8.4946
G3 X-0.125 Y8.4917 I0.125 J0
G1 X-0.1197 Y8.2671
G3 X-0.1196 Y8.2638 I0.125 J0.0029
G1 X-0.1085 Y8.0394
G3 X-0.1083 Y8.0361 I0.1248 J0.0062
G1 X-0.0913 Y7.8121
G3 X-0.091 Y7.8088 I0.1246 J0.0094
G1 X-0.0682 Y7.5853
G3 X-0.0678 Y7.5821 I0.1244 J0.0127
G1 X-0.0391 Y7.3592
G3 X-0.0387 Y7.356 I0.124 J0.016
G1 X-0.0041 Y7.1339
G3 X-0.0036 Y7.1307 I0.1235 J0.0192
G1 X0.0367 Y6.9097
G3 X0.0373 Y6.9065 I0.123 J0.0224
G1 X0.0834 Y6.6865
G3 X0.0841 Y6.6834 I0.1223 J0.0256
G1 X0.136 Y6.4647
G3 X0.1367 Y6.4616 I0.1216 J0.0288
G1 X0.1943 Y6.2444
G3 X0.1952 Y6.2412 I0.1208 J0.032
G1 X0.2583 Y6.0256
G3 X0.2593 Y6.0225 I0.12 J0.0352
G1 X0.3281 Y5.8086
G3 X0.3292 Y5.8055 I0.119 J0.0383
G1 X0.4036 Y5.5934
G3 X0.4047 Y5.5904 I0.1179 J0.0414
G1 X0.4846 Y5.3804
G3 X0.4858 Y5.3773 I0.1168 J0.0445
G1 X0.5712 Y5.1695
G3 X0.5725 Y5.1665 I0.1156 J0.0475
G1 X0.6633 Y4.961
G3 X0.6646 Y4.958 I0.1143 J0.0505
G1 X0.7608 Y4.7549
G3 X0.7622 Y4.752 I0.113 J0.0535
G1 X0.8636 Y4.5515
G3 X0.8652 Y4.5486 I0.1115 J0.0564
G1 X0.9718 Y4.3508
G3 X0.9734 Y4.348 I0.11 J0.0593
G1 X1.0852 Y4.1531
G3 X1.0868 Y4.1502 I0.1084 J0.0622
G1 X1.2037 Y3.9583
G3 X1.2054 Y3.9555 I0.1068 J0.065
G1 X1.3273 Y3.7668
G3 X1.3291 Y3.764 I0.105 J0.0678
G1 X1.4558 Y3.5785
G3 X1.4577 Y3.5758 I0.1032 J0.0705
G1 X1.5892 Y3.3937
G3 X1.5912 Y3.391 I0.1013 J0.0732
G1 X1.7274 Y3.2124
G3 X1.7295 Y3.2098 I0.0994 J0.0758
G1 X1.8704 Y3.0348
G3 X1.8724 Y3.0323 I0.0974 J0.0784
G1 X2.0179 Y2.861
G3 X2.02 Y2.8585 I0.0953 J0.0809
G1 X2.1699 Y2.6911
G3 X2.1721 Y2.6887 I0.0931 J0.0834
G1 X2.3263 Y2.5253
G3 X2.3286 Y2.5229 I0.0909 J0.0858
G1 X2.487 Y2.3636
G3 X2.4893 Y2.3613 I0.0886 J0.0881
G1 X2.6519 Y2.2062
G3 X2.6543 Y2.2039 I0.0863 J0.0904
G1 X2.8208 Y2.0531
G3 X2.8233 Y2.0509 I0.0839 J0.0927
G1 X2.9937 Y1.9045
G3 X2.9962 Y1.9024 I0.0815 J0.0948
G1 X3.1704 Y1.7605
G3 X3.173 Y1.7585 I0.0789 J0.0969
G1 X3.3508 Y1.6212
G3 X3.3534 Y1.6192 I0.0764 J0.0989
G1 X3.5348 Y1.4866
G3 X3.5375 Y1.4848 I0.0738 J0.1009
G1 X3.7223 Y1.357
G3 X3.725 Y1.3551 I0.0711 J0.1028
G1 X3.9131 Y1.2322
G3 X3.9159 Y1.2305 I0.0684 J0.1046
G1 X4.1071 Y1.1125
G3 X4.1099 Y1.1108 I0.0656 J0.1064
G1 X4.3042 Y0.9979
G3 X4.307 Y0.9963 I0.0628 J0.1081
G1 X4.5042 Y0.8885
G3 X4.5071 Y0.887 I0.06 J0.1097
G1 X4.707 Y0.7844
G3 X4.7099 Y0.783 I0.0571 J0.1112
G1 X4.9124 Y0.6856
G3 X4.9154 Y0.6843 I0.0541 J0.1127
G1 X5.1204 Y0.5923
G3 X5.1234 Y0.591 I0.0512 J0.114
G1 X5.3307 Y0.5044
G3 X5.3338 Y0.5032 I0.0482 J0.1153
G1 X5.5433 Y0.4221
G3 X5.5464 Y0.4209 I0.0451 J0.1166
G1 X5.7579 Y0.3453
G3 X5.761 Y0.3442 I0.0421 J0.1177
G1 X5.9745 Y0.2742
G3 X5.9777 Y0.2732 I0.039 J0.1188
G1 X6.1929 Y0.2088
G3 X6.1961 Y0.2079 I0.0358 J0.1197
G1 X6.4129 Y0.1491
G3 X6.4161 Y0.1483 I0.0327 J0.1206
G1 X6.6344 Y0.0952
G3 X6.6376 Y0.0945 I0.0295 J0.1215
G1 X6.8572 Y0.0471
G3 X6.8604 Y0.0465 I0.0263 J0.1222
G1 X7.0813 Y0.0049
G3 X7.0845 Y0.0043 I0.0231 J0.1228
G1 X7.3063 Y-0.0314
G3 X7.3095 Y-0.0319 I0.0199 J0.1234
G1 X7.5322 Y-0.0619
G3 X7.5355 Y-0.0623 I0.0167 J0.1239
G1 X7.7589 Y-0.0864
G3 X7.7621 Y-0.0867 I0.0134 J0.1243
G1 X7.9861 Y-0.105
G3 X7.9893 Y-0.1052 I0.0102 J0.1246
G1 X8.2137 Y-0.1176
G3 X8.2169 Y-0.1178 I0.0069 J0.1248
G1 X8.4415 Y-0.1243
G3 X8.4448 Y-0.1244 I0.0036 J0.1249
G1 X8.6695 Y-0.125
G3 X8.6728 Y-0.125 I0.0004 J0.125
G1 X8.8974 Y-0.1197
G3 X8.9007 Y-0.1196 I-0.0029 J0.125
G1 X9.1251 Y-0.1085
G3 X9.1283 Y-0.1083 I-0.0062 J0.1248
G1 X9.3524 Y-0.0913
G3 X9.3556 Y-0.091 I-0.0094 J0.1246
G1 X9.5792 Y-0.0682
G3 X9.5824 Y-0.0678 I-0.0127 J0.1244
G1 X9.8053 Y-0.0391
G3 X9.8085 Y-0.0387 I-0.016 J0.124
G1 X10.0305 Y-0.0041
G3 X10.0337 Y-0.0036 I-0.0192 J0.1235
G1 X10.2548 Y0.0367
G3 X10.258 Y0.0373 I-0.0224 J0.123
G1 X10.4779 Y0.0834
G3 X10.4811 Y0.0841 I-0.0256 J0.1223
G1 X10.6997 Y0.136
G3 X10.7029 Y0.1367 I-0.0288 J0.1216
G1 X10.9201 Y0.1943
G3 X10.9233 Y0.1952 I-0.032 J0.1208
G1 X11.1389 Y0.2583
G3 X11.142 Y0.2593 I-0.0352 J0.12
G1 X11.3559 Y0.3281
G3 X11.359 Y0.3292 I-0.0383 J0.119
G1 X11.571 Y0.4036
G3 X11.5741 Y0.4047 I-0.0414 J0.1179
G1 X11.7841 Y0.4846
G3 X11.7871 Y0.4858 I-0.0445 J0.1168
G1 X11.995 Y0.5712
G3 X11.998 Y0.5725 I-0.0475 J0.1156
G1 X12.2035 Y0.6633
G3 X12.2065 Y0.6646 I-0.0505 J0.1143
G1 X12.4095 Y0.7608
G3 X12.4125 Y0.7622 I-0.0535 J0.113
G1 X12.613 Y0.8636
G3 X12.6159 Y0.8652 I-0.0564 J0.1115
G1 X12.8136 Y0.9718
G3 X12.8165 Y0.9734 I-0.0593 J0.11
G1 X13.0114 Y1.0852
G3 X13.0142 Y1.0868 I-0.0622 J0.1084
G1 X13.2061 Y1.2037
G3 X13.2089 Y1.2054 I-0.065 J0.1068
G1 X13.3977 Y1.3273
G3 X13.4004 Y1.3291 I-0.0678 J0.105
G1 X13.586 Y1.4558
G3 X13.5886 Y1.4577 I-0.0705 J0.1032
G1 X13.7708 Y1.5892
G3 X13.7734 Y1.5912 I-0.0732 J0.1013
G1 X13.9521 Y1.7274
G3 X13.9547 Y1.7295 I-0.0758 J0.0994
G1 X14.1297 Y1.8704
G3 X14.1322 Y1.8724 I-0.0784 J0.0974
G1 X14.3035 Y2.0179
G3 X14.3059 Y2.02 I-0.0809 J0.0953
G1 X14.4733 Y2.1699
G3 X14.4758 Y2.1721 I-0.0834 J0.0931
G1 X14.6392 Y2.3263
G3 X14.6415 Y2.3286 I-0.0858 J0.0909
G1 X14.8009 Y2.487
G3 X14.8032 Y2.4893 I-0.0881 J0.0886
G1 X14.9583 Y2.6519
G3 X14.9605 Y2.6543 I-0.0904 J0.0863
G1 X15.1113 Y2.8208
G3 X15.1135 Y2.8233 I-0.0927 J0.0839
G1 X15.2599 Y2.9937
G3 X15.262 Y2.9962 I-0.0948 J0.0815
G1 X15.4039 Y3.1704
G3 X15.406 Y3.173 I-0.0969 J0.0789
G1 X15.5433 Y3.3508
G3 X15.5452 Y3.3534 I-0.0989 J0.0764
G1 X15.6778 Y3.5348
G3 X15.6797 Y3.5375 I-0.1009 J0.0738
G1 X15.8075 Y3.7223
G3 X15.8093 Y3.725 I-0.1028 J0.0711
G1 X15.9322 Y3.9131
G3 X15.934 Y3.9159 I-0.1046 J0.0684
G1 X16.052 Y4.1071
G3 X16.0536 Y4.1099 I-0.1064 J0.0656
G1 X16.1665 Y4.3042
G3 X16.1681 Y4.307 I-0.1081 J0.0628
G1 X16.2759 Y4.5042
G3 X16.2775 Y4.5071 I-0.1097 J0.06
G1 X16.38 Y4.707
G3 X16.3815 Y4.7099 I-0.1112 J0.0571
G1 X16.4788 Y4.9124
G3 X16.4802 Y4.9154 I-0.1127 J0.0541
G1 X16.5722 Y5.1204
G3 X16.5735 Y5.1234 I-0.114 J0.0512
G1 X16.6601 Y5.3307
G3 X16.6613 Y5.3338 I-0.1153 J0.0482
G1 X16.7424 Y5.5433
G3 X16.7435 Y5.5464 I-0.1166 J0.0451
G1 X16.8192 Y5.7579
G3 X16.8202 Y5.761 I-0.1177 J0.0421
G1 X16.8903 Y5.9745
G3 X16.8912 Y5.9777 I-0.1188 J0.039
G1 X16.9557 Y6.1929
G3 X16.9566 Y6.1961 I-0.1197 J0.0358
G1 X17.0154 Y6.4129
G3 X17.0162 Y6.4161 I-0.1206 J0.0327
G1 X17.0692 Y6.6344
G3 X17.07 Y6.6376 I-0.1215 J0.0295
G1 X17.1173 Y6.8572
G3 X17.118 Y6.8604 I-0.1222 J0.0263
G1 X17.1596 Y7.0813
G3 X17.1601 Y7.0845 I-0.1228 J0.0231
G1 X17.1959 Y7.3063
G3 X17.1964 Y7.3095 I-0.1234 J0.0199
G1 X17.2264 Y7.5322
G3 X17.2268 Y7.5355 I-0.1239 J0.0167
G1 X17.2509 Y7.7589
G3 X17.2512 Y7.7621 I-0.1243 J0.0134
G1 X17.2695 Y7.9861
G3 X17.2697 Y7.9893 I-0.1246 J0.0102
G1 X17.2821 Y8.2137
G3 X17.2822 Y8.2169 I-0.1248 J0.0069
G1 X17.2888 Y8.4415
G3 X17.2888 Y8.4448 I-0.1249 J0.0036
G1 X17.2895 Y8.6695
G1 X17.2895 Y8.6698
G3 X17.2894 Y8.6728 I-0.125 J0
G1 X17.2842 Y8.8974
G3 X17.2841 Y8.9007 I-0.125 J-0.0029
G1 Z-0.6 F30
G1 X17.273 Y9.1251 F25
G3 X17.2728 Y9.1283 I-0.1248 J-0.0062
G1 X17.2558 Y9.3524
G3 X17.2555 Y9.3556 I-0.1246 J-0.0094
G1 X17.2326 Y9.5792
G3 X17.2323 Y9.5824 I-0.1244 J-0.0127
G1 X17.2036 Y9.8053
G3 X17.2031 Y9.8085 I-0.124 J-0.016
G1 X17.1686 Y10.0305
G3 X17.1681 Y10.0337 I-0.1235 J-0.0192
G1 X17.1278 Y10.2548
G3 X17.1271 Y10.258 I-0.123 J-0.0224
G1 X17.081 Y10.4779
G3 X17.0803 Y10.4811 I-0.1223 J-0.0256
G1 X17.0285 Y10.6997
G3 X17.0277 Y10.7029 I-0.1216 J-0.0288
G1 X16.9702 Y10.9201
G3 X16.9693 Y10.9233 I-0.1208 J-0.032
G1 X16.9061 Y11.1389
G3 X16.9052 Y11.142 I-0.12 J-0.0352
G1 X16.8363 Y11.3559
G3 X16.8353 Y11.359 I-0.119 J-0.0383
G1 X16.7609 Y11.571
G3 X16.7598 Y11.5741 I-0.1179 J-0.0414
G1 X16.6799 Y11.7841
G3 X16.6787 Y11.7871 I-0.1168 J-0.0445
G1 X16.5933 Y11.995
G3 X16.592 Y11.998 I-0.1156 J-0.0475
G1 X16.5012 Y12.2035
G3 X16.4998 Y12.2065 I-0.1143 J-0.0505
G1 X16.4037 Y12.4095
G3 X16.4022 Y12.4125 I-0.113 J-0.0535
G1 X16.3008 Y12.613
G3 X16.2993 Y12.6159 I-0.1115 J-0.0564
G1 X16.1927 Y12.8136
G3 X16.1911 Y12.8165 I-0.11 J-0.0593
G1 X16.0793 Y13.0114
G3 X16.0776 Y13.0142 I-0.1084 J-0.0622
G1 X15.9608 Y13.2061
G3 X15.959 Y13.2089 I-0.1068 J-0.065
G1 X15.8372 Y13.3977
G3 X15.8354 Y13.4004 I-0.105 J-0.0678
G1 X15.7087 Y13.586
G3 X15.7068 Y13.5886 I-0.1032 J-0.0705
G1 X15.5752 Y13.7708
G3 X15.5733 Y13.7734 I-0.1013 J-0.0732
G1 X15.437 Y13.9521
G3 X15.435 Y13.9547 I-0.0994 J-0.0758
G1 X15.2941 Y14.1297
G3 X15.292 Y14.1322 I-0.0974 J-0.0784
G1 X15.1466 Y14.3035
G3 X15.1444 Y14.3059 I-0.0953 J-0.0809
G1 X14.9946 Y14.4733
G3 X14.9924 Y14.4758 I-0.0931 J-0.0834
G1 X14.8382 Y14.6392
G3 X14.8359 Y14.6415 I-0.0909 J-0.0858
G1 X14.6775 Y14.8009
G3 X14.6751 Y14.8032 I-0.0886 J-0.0881
G1 X14.5126 Y14.9583
G3 X14.5102 Y14.9605 I-0.0863 J-0.0904
G1 X14.3437 Y15.1113
G3 X14.3412 Y15.1135 I-0.0839 J-0.0927
G1 X14.1708 Y15.2599
G3 X14.1683 Y15.262 I-0.0815 J-0.0948
G1 X13.9941 Y15.4039
G3 X13.9915 Y15.406 I-0.0789 J-0.0969
G1 X13.8136 Y15.5433
G3 X13.811 Y15.5452 I-0.0764 J-0.0989
G1 X13.6296 Y15.6778
G3 X13.627 Y15.6797 I-0.0738 J-0.1009
G1 X13.4422 Y15.8075
G3 X13.4394 Y15.8093 I-0.0711 J-0.1028
G1 X13.2513 Y15.9322
G3 X13.2486 Y15.934 I-0.0684 J-0.1046
G1 X13.0573 Y16.052
G3 X13.0545 Y16.0536 I-0.0656 J-0.1064
G1 X12.8603 Y16.1665
G3 X12.8574 Y16.1681 I-0.0628 J-0.1081
G1 X12.6603 Y16.2759
G3 X12.6574 Y16.2775 I-0.06 J-0.1097
G1 X12.4575 Y16.38
G3 X12.4546 Y16.3815 I-0.0571 J-0.1112
G1 X12.252 Y16.4788
G3 X12.2491 Y16.4802 I-0.0541 J-0.1127
G1 X12.0441 Y16.5722
G3 X12.0411 Y16.5735 I-0.0512 J-0.114
G1 X11.8337 Y16.6601
G3 X11.8307 Y16.6613 I-0.0482 J-0.1153
G1 X11.6212 Y16.7424
G3 X11.6181 Y16.7435 I-0.0451 J-0.1166
G1 X11.4065 Y16.8192
G3 X11.4034 Y16.8202 I-0.0421 J-0.1177
G1 X11.1899 Y16.8903
G3 X11.1868 Y16.8912 I-0.039 J-0.1188
G1 X10.9716 Y16.9557
G3 X10.9684 Y16.9566 I-0.0358 J-0.1197
G1 X10.7515 Y17.0154
G3 X10.7484 Y17.0162 I-0.0327 J-0.1206
G1 X10.53 Y17.0692
G3 X10.5269 Y17.07 I-0.0295 J-0.1215
G1 X10.3072 Y17.1173
G3 X10.304 Y17.118 I-0.0263 J-0.1222
G1 X10.0832 Y17.1596
G3 X10.08 Y17.1601 I-0.0231 J-0.1228
G1 X9.8582 Y17.1959
G3 X9.8549 Y17.1964 I-0.0199 J-0.1234
G1 X9.6322 Y17.2264
G3 X9.629 Y17.2268 I-0.0167 J-0.1239
G1 X9.4056 Y17.2509
G3 X9.4023 Y17.2512 I-0.0134 J-0.1243
G1 X9.1784 Y17.2695
G3 X9.1751 Y17.2697 I-0.0102 J-0.1246
G1 X8.9508 Y17.2821
G3 X8.9475 Y17.2822 I-0.0069 J-0.1248
G1 X8.7229 Y17.2888
G3 X8.7197 Y17.2888 I-0.0036 J-0.1249
G1 X8.495 Y17.2895
G3 X8.4917 Y17.2894 I-0.0004 J-0.125
G1 X8.2671 Y17.2842
G3 X8.2638 Y17.2841 I0.0029 J-0.125
G1 X8.0394 Y17.273
G3 X8.0361 Y17.2728 I0.0062 J-0.1248
G1 X7.8121 Y17.2558
G3 X7.8088 Y17.2555 I0.0094 J-0.1246
G1 X7.5853 Y17.2326
G3 X7.5821 Y17.2323 I0.0127 J-0.1244
G1 X7.3592 Y17.2036
G3 X7.356 Y17.2031 I0.016 J-0.124
G1 X7.1339 Y17.1686
G3 X7.1307 Y17.1681 I0.0192 J-0.1235
G1 X6.9097 Y17.1278
G3 X6.9065 Y17.1271 I0.0224 J-0.123
G1 X6.6865 Y17.081
G3 X6.6834 Y17.0803 I0.0256 J-0.1223
G1 X6.4647 Y17.0285
G3 X6.4616 Y17.0277 I0.0288 J-0.1216
G1 X6.2444 Y16.9702
G3 X6.2412 Y16.9693 I0.032 J-0.1208
G1 X6.0256 Y16.9061
G3 X6.0225 Y16.9052 I0.0352 J-0.12
G1 X5.8086 Y16.8363
G3 X5.8055 Y16.8353 I0.0383 J-0.119
G1 X5.5934 Y16.7609
G3 X5.5904 Y16.7598 I0.0414 J-0.1179
G1 X5.3804 Y16.6799
G3 X5.3773 Y16.6787 I0.0445 J-0.1168
G1 X5.1695 Y16.5933
G3 X5.1665 Y16.592 I0.0475 J-0.1156
G1 X4.961 Y16.5012
G3 X4.958 Y16.4998 I0.0505 J-0.1143
G1 X4.7549 Y16.4037
G3 X4.752 Y16.4022 I0.0535 J-0.113
G1 X4.5515 Y16.3008
G3 X4.5486 Y16.2993 I0.0564 J-0.1115
G1 X4.3508 Y16.1927
G3 X4.348 Y16.1911 I0.0593 J-0.11
G1 X4.1531 Y16.0793
G3 X4.1502 Y16.0776 I0.0622 J-0.1084
G1 X3.9583 Y15.9608
G3 X3.9555 Y15.959 I0.065 J-0.1068
G1 X3.7668 Y15.8372
G3 X3.764 Y15.8354 I0.0678 J-0.105
G1 X3.5785 Y15.7087
G3 X3.5758 Y15.7068 I0.0705 J-0.1032
G1 X3.3937 Y15.5752
G3 X3.391 Y15.5733 I0.0732 J-0.1013
G1 X3.2124 Y15.437
G3 X3.2098 Y15.435 I0.0758 J-0.0994
G1 X3.0348 Y15.2941
G3 X3.0323 Y15.292 I0.0784 J-0.0974
G1 X2.861 Y15.1466
G3 X2.8585 Y15.1444 I0.0809 J-0.0953
G1 X2.6911 Y14.9946
G3 X2.6887 Y14.9924 I0.0834 J-0.0931
G1 X2.5253 Y14.8382
G3 X2.5229 Y14.8359 I0.0858 J-0.0909
G1 X2.3636 Y14.6775
G3 X2.3613 Y14.6751 I0.0881 J-0.0886
G1 X2.2062 Y14.5126
G3 X2.2039 Y14.5102 I0.0904 J-0.0863
G1 X2.0531 Y14.3437
G3 X2.0509 Y14.3412 I0.0927 J-0.0839
G1 X1.9045 Y14.1708
G3 X1.9024 Y14.1683 I0.0948 J-0.0815
G1 X1.7605 Y13.9941
G3 X1.7585 Y13.9915 I0.0969 J-0.0789
G1 X1.6212 Y13.8136
G3 X1.6192 Y13.811 I0.0989 J-0.0764
G1 X1.4866 Y13.6296
G3 X1.4848 Y13.627 I0.1009 J-0.0738
G1 X1.357 Y13.4422
G3 X1.3551 Y13.4394 I0.1028 J-0.0711
G1 X1.2322 Y13.2513
G3 X1.2305 Y13.2486 I0.1046 J-0.0684
G1 X1.1125 Y13.0573
G3 X1.1108 Y13.0545 I0.1064 J-0.0656
G1 X0.9979 Y12.8603
G3 X0.9963 Y12.8574 I0.1081 J-0.0628
G1 X0.8885 Y12.6603
G3 X0.887 Y12.6574 I0.1097 J-0.06
G1 X0.7844 Y12.4575
G3 X0.783 Y12.4546 I0.1112 J-0.0571
G1 X0.6856 Y12.252
G3 X0.6843 Y12.2491 I0.1127 J-0.0541
G1 X0.5923 Y12.0441
G3 X0.591 Y12.0411 I0.114 J-0.0512
G1 X0.5044 Y11.8337
G3 X0.5032 Y11.8307 I0.1153 J-0.0482
G1 X0.4221 Y11.6212
G3 X0.4209 Y11.6181 I0.1166 J-0.0451
G1 X0.3453 Y11.4065
G3 X0.3442 Y11.4034 I0.1177 J-0.0421
G1 X0.2742 Y11.1899
G3 X0.2732 Y11.1868 I0.1188 J-0.039
G1 X0.2088 Y10.9716
G3 X0.2079 Y10.9684 I0.1197 J-0.0358
G1 X0.1491 Y10.7515
G3 X0.1483 Y10.7484 I0.1206 J-0.0327
G1 X0.0952 Y10.53
G3 X0.0945 Y10.5269 I0.1215 J-0.0295
G1 X0.0471 Y10.3072
G3 X0.0465 Y10.304 I0.1222 J-0.0263
G1 X0.0049 Y10.0832
G3 X0.0043 Y10.08 I0.1228 J-0.0231
G1 X-0.0314 Y9.8582
G3 X-0.0319 Y9.8549 I0.1234 J-0.0199
G1 X-0.0619 Y9.6322
G3 X-0.0623 Y9.629 I0.1239 J-0.0167
G1 X-0.0864 Y9.4056
G3 X-0.0867 Y9.4023 I0.1243 J-0.0134
G1 X-0.105 Y9.1784
G3 X-0.1052 Y9.1751 I0.1246 J-0.0102
G1 X-0.1176 Y8.9508
G3 X-0.1178 Y8.9475 I0.1248 J-0.0069
G1 X-0.1243 Y8.7229
G3 X-0.1244 Y8.7197 I0.1249 J-0.0036
G1 X-0.125 Y8.495
G1 X-0.125 Y8.4946
G3 X-0.125 Y8.4917 I0.125 J0
G1 X-0.1197 Y8.2671
G3 X-0.1196 Y8.2638 I0.125 J0.0029
G1 X-0.1085 Y8.0394
G3 X-0.1083 Y8.0361 I0.1248 J0.0062
G1 X-0.0913 Y7.8121
G3 X-0.091 Y7.8088 I0.1246 J0.0094
G1 X-0.0682 Y7.5853
G3 X-0.0678 Y7.5821 I0.1244 J0.0127
G1 X-0.0391 Y7.3592
G3 X-0.0387 Y7.356 I0.124 J0.016
G1 X-0.0041 Y7.1339
G3 X-0.0036 Y7.1307 I0.1235 J0.0192
G1 X0.0367 Y6.9097
G3 X0.0373 Y6.9065 I0.123 J0.0224
G1 X0.0834 Y6.6865
G3 X0.0841 Y6.6834 I0.1223 J0.0256
G1 X0.136 Y6.4647
G3 X0.1367 Y6.4616 I0.1216 J0.0288
G1 X0.1943 Y6.2444
G3 X0.1952 Y6.2412 I0.1208 J0.032
G1 X0.2583 Y6.0256
G3 X0.2593 Y6.0225 I0.12 J0.0352
G1 X0.3281 Y5.8086
G3 X0.3292 Y5.8055 I0.119 J0.0383
G1 X0.4036 Y5.5934
G3 X0.4047 Y5.5904 I0.1179 J0.0414
G1 X0.4846 Y5.3804
G3 X0.4858 Y5.3773 I0.1168 J0.0445
G1 X0.5712 Y5.1695
G3 X0.5725 Y5.1665 I0.1156 J0.0475
G1 X0.6633 Y4.961
G3 X0.6646 Y4.958 I0.1143 J0.0505
G1 X0.7608 Y4.7549
G3 X0.7622 Y4.752 I0.113 J0.0535
G1 X0.8636 Y4.5515
G3 X0.8652 Y4.5486 I0.1115 J0.0564
G1 X0.9718 Y4.3508
G3 X0.9734 Y4.348 I0.11 J0.0593
G1 X1.0852 Y4.1531
G3 X1.0868 Y4.1502 I0.1084 J0.0622
G1 X1.2037 Y3.9583
G3 X1.2054 Y3.9555 I0.1068 J0.065
G1 X1.3273 Y3.7668
G3 X1.3291 Y3.764 I0.105 J0.0678
G1 X1.4558 Y3.5785
G3 X1.4577 Y3.5758 I0.1032 J0.0705
G1 X1.5892 Y3.3937
G3 X1.5912 Y3.391 I0.1013 J0.0732
G1 X1.7274 Y3.2124
G3 X1.7295 Y3.2098 I0.0994 J0.0758
G1 X1.8704 Y3.0348
G3 X1.8724 Y3.0323 I0.0974 J0.0784
G1 X2.0179 Y2.861
G3 X2.02 Y2.8585 I0.0953 J0.0809
G1 X2.1699 Y2.6911
G3 X2.1721 Y2.6887 I0.0931 J0.0834
G1 X2.3263 Y2.5253
G3 X2.3286 Y2.5229 I0.0909 J0.0858
G1 X2.487 Y2.3636
G3 X2.4893 Y2.3613 I0.0886 J0.0881
G1 X2.6519 Y2.2062
G3 X2.6543 Y2.2039 I0.0863 J0.0904
G1 X2.8208 Y2.0531
G3 X2.8233 Y2.0509 I0.0839 J0.0927
G1 X2.9937 Y1.9045
G3 X2.9962 Y1.9024 I0.0815 J0.0948
G1 X3.1704 Y1.7605
G3 X3.173 Y1.7585 I0.0789 J0.0969
G1 X3.3508 Y1.6212
G3 X3.3534 Y1.6192 I0.0764 J0.0989
G1 X3.5348 Y1.4866
G3 X3.5375 Y1.4848 I0.0738 J0.1009
G1 X3.7223 Y1.357
G3 X3.725 Y1.3551 I0.0711 J0.1028
G1 X3.9131 Y1.2322
G3 X3.9159 Y1.2305 I0.0684 J0.1046
G1 X4.1071 Y1.1125
G3 X4.1099 Y1.1108 I0.0656 J0.1064
G1 X4.3042 Y0.9979
G3 X4.307 Y0.9963 I0.0628 J0.1081
G1 X4.5042 Y0.8885
G3 X4.5071 Y0.887 I0.06 J0.1097
G1 X4.707 Y0.7844
G3 X4.7099 Y0.783 I0.0571 J0.1112
G1 X4.9124 Y0.6856
G3 X4.9154 Y0.6843 I0.0541 J0.1127
G1 X5.1204 Y0.5923
G3 X5.1234 Y0.591 I0.0512 J0.114
G1 X5.3307 Y0.5044
G3 X5.3338 Y0.5032 I0.0482 J0.1153
G1 X5.5433 Y0.4221
G3 X5.5464 Y0.4209 I0.0451 J0.1166
G1 X5.7579 Y0.3453
G3 X5.761 Y0.3442 I0.0421 J0.1177
G1 X5.9745 Y0.2742
G3 X5.9777 Y0.2732 I0.039 J0.1188
G1 X6.1929 Y0.2088
G3 X6.1961 Y0.2079 I0.0358 J0.1197
G1 X6.4129 Y0.1491
G3 X6.4161 Y0.1483 I0.0327 J0.1206
G1 X6.6344 Y0.0952
G3 X6.6376 Y0.0945 I0.0295 J0.1215
G1 X6.8572 Y0.0471
G3 X6.8604 Y0.0465 I0.0263 J0.1222
G1 X7.0813 Y0.0049
G3 X7.0845 Y0.0043 I0.0231 J0.1228
G1 X7.3063 Y-0.0314
G3 X7.3095 Y-0.0319 I0.0199 J0.1234
G1 X7.5322 Y-0.0619
G3 X7.5355 Y-0.0623 I0.0167 J0.1239
G1 X7.7589 Y-0.0864
G3 X7.7621 Y-0.0867 I0.0134 J0.1243
G1 X7.9861 Y-0.105
G3 X7.9893 Y-0.1052 I0.0102 J0.1246
G1 X8.2137 Y-0.1176
G3 X8.2169 Y-0.1178 I0.0069 J0.1248
G1 X8.4415 Y-0.1243
G3 X8.4448 Y-0.1244 I0.0036 J0.1249
G1 X8.6695 Y-0.125
G3 X8.6728 Y-0.125 I0.0004 J0.125
G1 X8.8974 Y-0.1197
G3 X8.9007 Y-0.1196 I-0.0029 J0.125
G1 X9.1251 Y-0.1085
G3 X9.1283 Y-0.1083 I-0.0062 J0.1248
G1 X9.3524 Y-0.0913
G3 X9.3556 Y-0.091 I-0.0094 J0.1246
G1 X9.5792 Y-0.0682
G3 X9.5824 Y-0.0678 I-0.0127 J0.1244
G1 X9.8053 Y-0.0391
G3 X9.8085 Y-0.0387 I-0.016 J0.124
G1 X10.0305 Y-0.0041
G3 X10.0337 Y-0.0036 I-0.0192 J0.1235
G1 X10.2548 Y0.0367
G3 X10.258 Y0.0373 I-0.0224 J0.123
G1 X10.4779 Y0.0834
G3 X10.4811 Y0.0841 I-0.0256 J0.1223
G1 X10.6997 Y0.136
G3 X10.7029 Y0.1367 I-0.0288 J0.1216
G1 X10.9201 Y0.1943
G3 X10.9233 Y0.1952 I-0.032 J0.1208
G1 X11.1389 Y0.2583
G3 X11.142 Y0.2593 I-0.0352 J0.12
G1 X11.3559 Y0.3281
G3 X11.359 Y0.3292 I-0.0383 J0.119
G1 X11.571 Y0.4036
G3 X11.5741 Y0.4047 I-0.0414 J0.1179
G1 X11.7841 Y0.4846
G3 X11.7871 Y0.4858 I-0.0445 J0.1168
G1 X11.995 Y0.5712
G3 X11.998 Y0.5725 I-0.0475 J0.1156
G1 X12.2035 Y0.6633
G3 X12.2065 Y0.6646 I-0.0505 J0.1143
G1 X12.4095 Y0.7608
G3 X12.4125 Y0.7622 I-0.0535 J0.113
G1 X12.613 Y0.8636
G3 X12.6159 Y0.8652 I-0.0564 J0.1115
G1 X12.8136 Y0.9718
G3 X12.8165 Y0.9734 I-0.0593 J0.11
G1 X13.0114 Y1.0852
G3 X13.0142 Y1.0868 I-0.0622 J0.1084
G1 X13.2061 Y1.2037
G3 X13.2089 Y1.2054 I-0.065 J0.1068
G1 X13.3977 Y1.3273
G3 X13.4004 Y1.3291 I-0.0678 J0.105
G1 X13.586 Y1.4558
G3 X13.5886 Y1.4577 I-0.0705 J0.1032
G1 X13.7708 Y1.5892
G3 X13.7734 Y1.5912 I-0.0732 J0.1013
G1 X13.9521 Y1.7274
G3 X13.9547 Y1.7295 I-0.0758 J0.0994
G1 X14.1297 Y1.8704
G3 X14.1322 Y1.8724 I-0.0784 J0.0974
G1 X14.3035 Y2.0179
G3 X14.3059 Y2.02 I-0.0809 J0.0953
G1 X14.4733 Y2.1699
G3 X14.4758 Y2.1721 I-0.0834 J0.0931
G1 X14.6392 Y2.3263
G3 X14.6415 Y2.3286 I-0.0858 J0.0909
G1 X14.8009 Y2.487
G3 X14.8032 Y2.4893 I-0.0881 J0.0886
G1 X14.9583 Y2.6519
G3 X14.9605 Y2.6543 I-0.0904 J0.0863
G1 X15.1113 Y2.8208
G3 X15.1135 Y2.8233 I-0.0927 J0.0839
G1 X15.2599 Y2.9937
G3 X15.262 Y2.9962 I-0.0948 J0.0815
G1 X15.4039 Y3.1704
G3 X15.406 Y3.173 I-0.0969 J0.0789
G1 X15.5433 Y3.3508
G3 X15.5452 Y3.3534 I-0.0989 J0.0764
G1 X15.6778 Y3.5348
G3 X15.6797 Y3.5375 I-0.1009 J0.0738
G1 X15.8075 Y3.7223
G3 X15.8093 Y3.725 I-0.1028 J0.0711
G1 X15.9322 Y3.9131
G3 X15.934 Y3.9159 I-0.1046 J0.0684
G1 X16.052 Y4.1071
G3 X16.0536 Y4.1099 I-0.1064 J0.0656
G1 X16.1665 Y4.3042
G3 X16.1681 Y4.307 I-0.1081 J0.0628
G1 X16.2759 Y4.5042
G3 X16.2775 Y4.5071 I-0.1097 J0.06
G1 X16.38 Y4.707
G3 X16.3815 Y4.7099 I-0.1112 J0.0571
G1 X16.4788 Y4.9124
G3 X16.4802 Y4.9154 I-0.1127 J0.0541
G1 X16.5722 Y5.1204
G3 X16.5735 Y5.1234 I-0.114 J0.0512
G1 X16.6601 Y5.3307
G3 X16.6613 Y5.3338 I-0.1153 J0.0482
G1 X16.7424 Y5.5433
G3 X16.7435 Y5.5464 I-0.1166 J0.0451
G1 X16.8192 Y5.7579
G3 X16.8202 Y5.761 I-0.1177 J0.0421
G1 X16.8903 Y5.9745
G3 X16.8912 Y5.9777 I-0.1188 J0.039
G1 X16.9557 Y6.1929
G3 X16.9566 Y6.1961 I-0.1197 J0.0358
G1 X17.0154 Y6.4129
G3 X17.0162 Y6.4161 I-0.1206 J0.0327
G1 X17.0692 Y6.6344
G3 X17.07 Y6.6376 I-0.1215 J0.0295
G1 X17.1173 Y6.8572
G3 X17.118 Y6.8604 I-0.1222 J0.0263
G1 X17.1596 Y7.0813
G3 X17.1601 Y7.0845 I-0.1228 J0.0231
G1 X17.1959 Y7.3063
G3 X17.1964 Y7.3095 I-0.1234 J0.0199
G1 X17.2264 Y7.5322
G3 X17.2268 Y7.5355 I-0.1239 J0.0167
G1 X17.2509 Y7.7589
G3 X17.2512 Y7.7621 I-0.1243 J0.0134
G1 X17.2695 Y7.9861
G3 X17.2697 Y7.9893 I-0.1246 J0.0102
G1 X17.2821 Y8.2137
G3 X17.2822 Y8.2169 I-0.1248 J0.0069
G1 X17.2888 Y8.4415
G3 X17.2888 Y8.4448 I-0.1249 J0.0036
G1 X17.2895 Y8.6695
G1 X17.2895 Y8.6698
G3 X17.2894 Y8.6728 I-0.125 J0
G1 X17.2842 Y8.8974
G3 X17.2841 Y8.9007 I-0.125 J-0.0029
G1 Z-0.75 F30
G1 X17.273 Y9.1251 F25
G3 X17.2728 Y9.1283 I-0.1248 J-0.0062
G1 X17.2558 Y9.3524
G3 X17.2555 Y9.3556 I-0.1246 J-0.0094
G1 X17.2326 Y9.5792
G3 X17.2323 Y9.5824 I-0.1244 J-0.0127
