(Generated by PartKam Version 0.05)

G20 G90 G40

(profile 1)
G0 Z0.15
T0 M6
G17
M3
G0 X4.3869 Y4.3831
G1 Z-0.1 F30
G1 X3.9988 Y4.6809 F15
G1 X3.5468 Y4.8681
G1 X3.0618 Y4.9319
G1 X2.5768 Y4.8681
G1 X2.1249 Y4.6809
G1 X1.7368 Y4.3831
G1 X1.439 Y3.995
G1 X1.2518 Y3.543
G1 X1.1879 Y3.058
G1 X1.2518 Y2.573
G1 X1.439 Y2.121
G1 X1.7368 Y1.7329
G1 X2.1249 Y1.4351
G1 X2.5768 Y1.2479
G1 X3.0618 Y1.1841
G1 X3.5468 Y1.2479
G1 X3.9988 Y1.4351
G1 X4.3869 Y1.7329
G1 X4.6847 Y2.121
G1 X4.8719 Y2.573
G1 X4.9357 Y3.058
G1 X4.8719 Y3.543
G1 X4.6847 Y3.995
G1 X4.3869 Y4.3831
G1 Z-0.2 F30
G1 X3.9988 Y4.6809 F15
G1 X3.5468 Y4.8681
G1 X3.0618 Y4.9319
G1 X2.5768 Y4.8681
G1 X2.1249 Y4.6809
G1 X1.7368 Y4.3831
G1 X1.439 Y3.995
G1 X1.2518 Y3.543
G1 X1.1879 Y3.058
G1 X1.2518 Y2.573
G1 X1.439 Y2.121
G1 X1.7368 Y1.7329
G1 X2.1249 Y1.4351
G1 X2.5768 Y1.2479
G1 X3.0618 Y1.1841
G1 X3.5468 Y1.2479
G1 X3.9988 Y1.4351
G1 X4.3869 Y1.7329
G1 X4.6847 Y2.121
G1 X4.8719 Y2.573
G1 X4.9357 Y3.058
G1 X4.8719 Y3.543
G1 X4.6847 Y3.995
G1 X4.3869 Y4.3831
G1 Z-0.25 F30
G1 X3.9988 Y4.6809 F15
G1 X3.5468 Y4.8681
G1 X3.0618 Y4.9319
G1 X2.5768 Y4.8681
G1 X2.1249 Y4.6809
G1 X1.7368 Y4.3831
G1 X1.439 Y3.995
G1 X1.2518 Y3.543
G1 X1.1879 Y3.058
G1 X1.2518 Y2.573
G1 X1.439 Y2.121
G1 X1.7368 Y1.7329
G1 X2.1249 Y1.4351
G1 X2.5768 Y1.2479
G1 X3.0618 Y1.1841
G1 X3.5468 Y1.2479
G1 X3.9988 Y1.4351
G1 X4.3869 Y1.7329
G1 X4.6847 Y2.121
G1 X4.8719 Y2.573
G1 X4.9357 Y3.058
G1 X4.8719 Y3.543
G1 X4.6847 Y3.995
G1 X4.3869 Y4.3831

(profile 2)
G0 Z0.15
G0 X-0.0632 Y6.058
G1 Z-0.1 F30
G1 X-0.0632 Y0.058 F15
G3 X0.0618 Y-0.067 I0.125 J0
G1 X6.0618 Y-0.067
G3 X6.1868 Y0.058 I0 J0.125
G1 X6.1868 Y6.058
G3 X6.0618 Y6.183 I-0.125 J0
G1 X0.0618 Y6.183
G3 X-0.0632 Y6.058 I0 J-0.125
G1 Z-0.2 F30
G1 X-0.0632 Y0.058 F15
G3 X0.0618 Y-0.067 I0.125 J0
G1 X6.0618 Y-0.067
G3 X6.1868 Y0.058 I0 J0.125
G1 X6.1868 Y6.058
G3 X6.0618 Y6.183 I-0.125 J0
G1 X0.0618 Y6.183
G3 X-0.0632 Y6.058 I0 J-0.125
G1 Z-0.25 F30
G1 X-0.0632 Y0.058 F15
G3 X0.0618 Y-0.067 I0.125 J0
G1 X6.0618 Y-0.067
G3 X6.1868 Y0.058 I0 J0.125
G1 X6.1868 Y6.058
G3 X6.0618 Y6.183 I-0.125 J0
G1 X0.0618 Y6.183
G3 X-0.0632 Y6.058 I0 J-0.125
G0 Z0.15
M5
M30
